sakiwatashi/newisac6.0acoustic/clean/runtime/outputs/v2_d3_grasp_r2/closed/steps.csv
episode,step,sensor_x,sensor_x_actual,peak_idx,d3d_est,d_horiz_est,oracle_horiz_dist,drift,stationarity_ok,waveform_tag,posture_violation,sensor_pose_violation,ik_ok,q_shoulder_pan,q_shoulder_lift,q_elbow,q_wrist_1,q_wrist_2,q_wrist_3
0,0,0.6,0.5999971389716996,30.0,0.5833319785879489,0.5515217105820326,0.5522113941301122,0.0866932658665941,False,ep000_step000,False,False,True,-0.5204884945273844,-2.2357968911138335,2.053048796509201,-1.38669081607142,-1.5715990109118338,-0.520625194614212
0,1,0.65,0.6500013420496763,27.0,0.5317183925856995,0.49661297708972535,0.5022113941301122,0.08124749051360322,False,ep000_step001,False,False,True,-0.4505453345505175,-2.133868620733503,2.0146885966875834,-1.4498058208938405,-1.5705149052021627,-0.45033147375795185
0,2,0.7000000000000001,0.7000075242920418,24.0,0.48010480658345017,0.4409088628101414,0.45221139413011213,0.057049502422409554,False,ep000_step002,False,False,True,-0.39759916931969336,-2.0363216106618363,1.9688720593553608,-1.5019139503511671,-1.5699995604006818,-0.3979843714559276
0,3,0.7500000000000001,0.7500129656647858,24.0,0.48010480658345017,0.4409088628101414,0.4022113941301121,0.1073446953934193,False,ep000_step003,False,False,True,-0.3559145818388143,-1.942184148059434,1.9157477500180542,-1.5428007376744202,-1.5701623792846198,-0.3551781178650099
0,4,0.8000000000000002,0.8000195864590397,19.0,0.3940821632463679,0.34525461820073744,0.35221139413011204,0.005335625386233195,True,ep000_step004,False,False,True,-0.3222635464594593,-1.8512573785587165,1.8561487764526605,-1.57472729285862,-1.5704263758040753,-0.32120842798532245
1,0,0.6,0.5999971389716996,28.0,0.5489229212531159,0.5149916246669013,0.5218409977686925,0.047311131026492016,True,ep001_step000,False,False,True,-0.5204884945273844,-2.2357968911138335,2.053048796509201,-1.38669081607142,-1.5715990109118338,-0.520625194614212
1,1,0.65,0.6500013420496763,25.0,0.4973093352508666,0.4595830446477098,0.4718409977686925,0.008537055633790772,True,ep001_step001,False,False,True,-0.4505453345505175,-2.133868620733503,2.0146885966875834,-1.4498058208938405,-1.5705149052021627,-0.45033147375795185
1,2,0.7000000000000001,0.7000075242920418,25.0,0.4973093352508666,0.4595830446477098,0.42184099776869244,0.016871800700185315,True,ep001_step002,False,False,True,-0.39759916931969336,-2.0363216106618363,1.9688720593553608,-1.5019139503511671,-1.5699995604006818,-0.3979843714559276
1,3,0.7500000000000001,0.7500129656647858,20.0,0.41128669191378436,0.3647694380638052,0.3718409977686924,0.0478977757004103,True,ep001_step003,False,False,True,-0.3559145818388143,-1.942184148059434,1.9157477500180542,-1.5428007376744202,-1.5701623792846198,-0.3551781178650099
1,4,0.8000000000000002,0.8000195864590397,17.0,0.359673105911535,0.30539276860471054,0.32184099776869235,0.0017626844798138638,True,ep001_step004,False,False,True,-0.3222635464594593,-1.8512573785587165,1.8561487764526605,-1.57472729285862,-1.5704263758040753,-0.32120842798532245
2,0,0.6,0.5999971091648704,23.0,0.4629002779160337,0.4221097810934275,0.4272243404233197,0.008767599201256103,True,ep002_step000,False,False,True,-0.5204884945273844,-2.2357968911138335,2.053048796509201,-1.38669081607142,-1.5715990109118338,-0.520625194614212
2,1,0.65,0.6500013420496763,20.0,0.41128669191378436,0.3647694380638052,0.37722434042331965,0.16535750344983843,False,ep002_step001,False,False,True,-0.4505453345505175,-2.133868620733503,2.0146885966875834,-1.4498058208938405,-1.5705149052021627,-0.45033147375795185
2,2,0.7000000000000001,0.7000075242920418,18.0,0.37687763457895146,0.3254792642332621,0.3272243404233196,0.012734663807848655,True,ep002_step002,False,False,True,-0.39759916931969336,-2.0363216106618363,1.9688720593553608,-1.5019139503511671,-1.5699995604006818,-0.3979843714559276
3,0,0.6,0.5999971389716996,24.0,0.48010480658345017,0.4409088628101414,0.4555010432712022,0.040810725648210824,True,ep003_step000,False,False,True,-0.5204884945273844,-2.2357968911138335,2.053048796509201,-1.38669081607142,-1.5715990109118338,-0.520625194614212
3,1,0.65,0.6500013420496763,22.0,0.44569574924861727,0.40316832824303833,0.4055010432712022,0.13350959835198214,False,ep003_step001,False,False,True,-0.4505453345505175,-2.133868620733503,2.0146885966875834,-1.4498058208938405,-1.5705149052021627,-0.45033147375795185
3,2,0.7000000000000001,0.7000075242920418,19.0,0.3940821632463679,0.34525461820073744,0.35550104327120213,0.019587624780220424,True,ep003_step002,False,False,True,-0.39759916931969336,-2.0363216106618363,1.9688720593553608,-1.5019139503511671,-1.5699995604006818,-0.3979843714559276
4,0,0.6,0.5999971091648704,26.0,0.514513863918283,0.4781469608437572,0.4384540861025209,0.04816369629354346,True,ep004_step000,False,False,True,-0.5204884945273844,-2.2357968911138335,2.053048796509201,-1.38669081607142,-1.5715990109118338,-0.520625194614212
4,1,0.65,0.6500013420496763,21.0,0.4284912205812008,0.3840634402220124,0.38845408610252086,0.07406267057059017,False,ep004_step001,False,False,True,-0.4505453345505175,-2.133868620733503,2.0146885966875834,-1.4498058208938405,-1.5705149052021627,-0.45033147375795185
4,2,0.7000000000000001,0.7000075242920418,18.0,0.37687763457895146,0.3254792642332621,0.3384540861025208,0.01381759359959491,True,ep004_step002,False,False,True,-0.39759916931969336,-2.0363216106618363,1.9688720593553608,-1.5019139503511671,-1.5699995604006818,-0.3979843714559276
5,0,0.6,0.5999971389716996,23.0,0.4629002779160337,0.4221097810934275,0.4252600937611585,0.006246773639102654,True,ep005_step000,False,False,True,-0.5204884945273844,-2.2357968911138335,2.053048796509201,-1.38669081607142,-1.5715990109118338,-0.520625194614212
5,1,0.65,0.6500013420496763,20.0,0.41128669191378436,0.3647694380638052,0.37526009376115843,0.03702612284848758,True,ep005_step001,False,False,True,-0.4505453345505175,-2.133868620733503,2.0146885966875834,-1.4498058208938405,-1.5705149052021627,-0.45033147375795185
5,2,0.7000000000000001,0.7000075242920418,18.0,0.37687763457895146,0.3254792642332621,0.3252600937611584,0.017132530165594205,True,ep005_step002,False,False,True,-0.39759916931969336,-2.0363216106618363,1.9688720593553608,-1.5019139503511671,-1.5699995604006818,-0.3979843714559276
6,0,0.6,0.5999971389716996,31.0,0.6005365072553653,0.5696877184444767,0.5744852235482251,0.07347765762249382,False,ep006_step000,False,False,True,-0.5204884945273844,-2.2357968911138335,2.053048796509201,-1.38669081607142,-1.5715990109118338,-0.520625194614212
6,1,0.65,0.6500013420496763,28.0,0.5489229212531159,0.5149916246669013,0.524485223548225,0.03605273553240289,True,ep006_step001,False,False,True,-0.4505453345505175,-2.133868620733503,2.0146885966875834,-1.4498058208938405,-1.5705149052021627,-0.45033147375795185
6,2,0.7000000000000001,0.7000075242920418,28.0,0.5489229212531159,0.5149916246669013,0.474485223548225,0.026429688325972124,True,ep006_step002,False,False,True,-0.39759916931969336,-2.0363216106618363,1.9688720593553608,-1.5019139503511671,-1.5699995604006818,-0.3979843714559276
6,3,0.7500000000000001,0.7500129656647858,23.0,0.4629002779160337,0.4221097810934275,0.42448522354822493,0.06565643109917695,False,ep006_step003,False,False,True,-0.3559145818388143,-1.942184148059434,1.9157477500180542,-1.5428007376744202,-1.5701623792846198,-0.3551781178650099
6,4,0.8000000000000002,0.8000195864590397,20.0,0.41128669191378436,0.3647694380638052,0.3744852235482249,0.027267609456808273,True,ep006_step004,False,False,True,-0.3222635464594593,-1.8512573785587165,1.8561487764526605,-1.57472729285862,-1.5704263758040753,-0.32120842798532245
6,5,0.8500000000000002,0.8500263575700777,18.0,0.37687763457895146,0.3254792642332621,0.32448522354822484,0.023142587527461803,True,ep006_step005,False,False,True,-0.2945928842297702,-1.7629644877008555,1.79018067040535,-1.5978585796301343,-1.5702782760485732,-0.2936959795476594
7,0,0.6,0.5999970197651909,25.0,0.4973093352508666,0.4595830446477098,0.4622723134589798,0.042664234095545935,True,ep007_step000,False,False,True,-0.5204884945273844,-2.2357968911138335,2.053048796509201,-1.38669081607142,-1.5715990109118338,-0.520625194614212
7,1,0.65,0.6500013420496763,22.0,0.44569574924861727,0.40316832824303833,0.41227231345897974,0.10794929591953721,False,ep007_step001,False,False,True,-0.4505453345505175,-2.133868620733503,2.0146885966875834,-1.4498058208938405,-1.5705149052021627,-0.45033147375795185
7,2,0.7000000000000001,0.7000075242920418,20.0,0.41128669191378436,0.3647694380638052,0.3622723134589797,0.06651027963995472,False,ep007_step002,False,False,True,-0.39759916931969336,-2.0363216106618363,1.9688720593553608,-1.5019139503511671,-1.5699995604006818,-0.3979843714559276
7,3,0.7500000000000001,0.7500129656647858,17.0,0.359673105911535,0.30539276860471054,0.31227231345897966,0.011347338875624184,True,ep007_step003,False,False,True,-0.3559145818388143,-1.942184148059434,1.9157477500180542,-1.5428007376744202,-1.5701623792846198,-0.3551781178650099
8,0,0.6,0.5999970197635405,28.0,0.5489229212531159,0.5149916246669013,0.4915888830835825,0.15729368547565253,False,ep008_step000,False,False,True,-0.5204884945273844,-2.2357968911138335,2.053048796509201,-1.38669081607142,-1.5715990109118338,-0.520625194614212
8,1,0.65,0.6500013420496763,26.0,0.514513863918283,0.4781469608437572,0.44158888308358246,0.006533700608078652,True,ep008_step001,False,False,True,-0.4505453345505175,-2.133868620733503,2.0146885966875834,-1.4498058208938405,-1.5705149052021627,-0.45033147375795185
8,2,0.7000000000000001,0.7000075242920418,21.0,0.4284912205812008,0.3840634402220124,0.3915888830835824,0.06087806451215392,False,ep008_step002,False,False,True,-0.39759916931969336,-2.0363216106618363,1.9688720593553608,-1.5019139503511671,-1.5699995604006818,-0.3979843714559276
8,3,0.7500000000000001,0.7500129656647858,19.0,0.3940821632463679,0.34525461820073744,0.3415888830835824,0.007604964853435624,True,ep008_step003,False,False,True,-0.3559145818388143,-1.942184148059434,1.9157477500180542,-1.5428007376744202,-1.5701623792846198,-0.3551781178650099
9,0,0.6,0.5999970197651909,31.0,0.6005365072553653,0.5696877184444767,0.5744322092634179,0.0749091540125684,False,ep009_step000,False,False,True,-0.5204884945273844,-2.2357968911138335,2.053048796509201,-1.38669081607142,-1.5715990109118338,-0.520625194614212
9,1,0.65,0.6500013420496763,28.0,0.5489229212531159,0.5149916246669013,0.5244322092634178,0.03685487397986048,True,ep009_step001,False,False,True,-0.4505453345505175,-2.133868620733503,2.0146885966875834,-1.4498058208938405,-1.5705149052021627,-0.45033147375795185
9,2,0.7000000000000001,0.7000075242920418,28.0,0.5489229212531159,0.5149916246669013,0.4744322092634178,0.033242965219341704,True,ep009_step002,False,False,True,-0.39759916931969336,-2.0363216106618363,1.9688720593553608,-1.5019139503511671,-1.5699995604006818,-0.3979843714559276
9,3,0.7500000000000001,0.7500129656647858,23.0,0.4629002779160337,0.4221097810934275,0.42443220926341774,0.12326704099035418,False,ep009_step003,False,False,True,-0.3559145818388143,-1.942184148059434,1.9157477500180542,-1.5428007376744202,-1.5701623792846198,-0.3551781178650099
9,4,0.8000000000000002,0.8000195864590397,20.0,0.41128669191378436,0.3647694380638052,0.3744322092634177,0.04616082299226298,True,ep009_step004,False,False,True,-0.3222635464594593,-1.8512573785587165,1.8561487764526605,-1.57472729285862,-1.5704263758040753,-0.32120842798532245
9,5,0.8500000000000002,0.8500263575700777,17.0,0.359673105911535,0.30539276860471054,0.32443220926341765,0.022450377191331267,True,ep009_step005,False,False,True,-0.2945928842297702,-1.7629644877008555,1.79018067040535,-1.5978585796301343,-1.5702782760485732,-0.2936959795476594
10,0,0.6,0.5999970197651909,28.0,0.5489229212531159,0.5149916246669013,0.5206134606558769,0.04885725039885467,True,ep010_step000,False,False,True,-0.5204884945273844,-2.2357968911138335,2.053048796509201,-1.38669081607142,-1.5715990109118338,-0.520625194614212
10,1,0.65,0.6500013420496763,25.0,0.4973093352508666,0.4595830446477098,0.47061346065587684,0.08393645310176973,False,ep010_step001,False,False,True,-0.4505453345505175,-2.133868620733503,2.0146885966875834,-1.4498058208938405,-1.5705149052021627,-0.45033147375795185
10,2,0.7000000000000001,0.7000075242920418,25.0,0.4973093352508666,0.4595830446477098,0.4206134606558768,0.02437138277192095,True,ep010_step002,False,False,True,-0.39759916931969336,-2.0363216106618363,1.9688720593553608,-1.5019139503511671,-1.5699995604006818,-0.3979843714559276
10,3,0.7500000000000001,0.7500129656647858,20.0,0.41128669191378436,0.3647694380638052,0.37061346065587675,0.05873530665742556,False,ep010_step003,False,False,True,-0.3559145818388143,-1.942184148059434,1.9157477500180542,-1.5428007376744202,-1.5701623792846198,-0.3551781178650099
10,4,0.8000000000000002,0.8000195268668024,17.0,0.359673105911535,0.30539276860471054,0.3206134606558767,0.01567727393733131,True,ep010_step004,False,False,True,-0.3222635464594593,-1.8512573785587165,1.8561487764526605,-1.57472729285862,-1.5704263758040753,-0.32120842798532245
11,0,0.6,0.5999971389716996,28.0,0.5489229212531159,0.5149916246669013,0.5173890307274124,0.06879258219467091,False,ep011_step000,False,False,True,-0.5204884945273844,-2.2357968911138335,2.053048796509201,-1.38669081607142,-1.5715990109118338,-0.520625194614212
11,1,0.65,0.6500013420496763,25.0,0.4973093352508666,0.4595830446477098,0.46738903072741234,0.012785714779406692,True,ep011_step001,False,False,True,-0.4505453345505175,-2.133868620733503,2.0146885966875834,-1.4498058208938405,-1.5705149052021627,-0.45033147375795185
11,2,0.7000000000000001,0.7000075242920418,22.0,0.44569574924861727,0.40316832824303833,0.4173890307274123,0.20748389064823428,False,ep011_step002,False,False,True,-0.39759916931969336,-2.0363216106618363,1.9688720593553608,-1.5019139503511671,-1.5699995604006818,-0.3979843714559276
11,3,0.7500000000000001,0.7500129656647858,20.0,0.41128669191378436,0.3647694380638052,0.36738903072741225,0.008178757981000621,True,ep011_step003,False,False,True,-0.3559145818388143,-1.942184148059434,1.9157477500180542,-1.5428007376744202,-1.5701623792846198,-0.3551781178650099
11,4,0.8000000000000002,0.8000195268668024,17.0,0.359673105911535,0.30539276860471054,0.3173890307274122,0.007989704987347765,True,ep011_step004,False,False,True,-0.3222635464594593,-1.8512573785587165,1.8561487764526605,-1.57472729285862,-1.5704263758040753,-0.32120842798532245
12,0,0.6,0.5999971091648704,27.0,0.5317183925856995,0.49661297708972535,0.5052376182628665,0.0014959729966471397,True,ep012_step000,False,False,True,-0.5204884945273844,-2.2357968911138335,2.053048796509201,-1.38669081607142,-1.5715990109118338,-0.520625194614212
12,1,0.65,0.6500013420496763,24.0,0.48010480658345017,0.4409088628101414,0.45523761826286646,0.029267382623818353,True,ep012_step001,False,False,True,-0.4505453345505175,-2.133868620733503,2.0146885966875834,-1.4498058208938405,-1.5705149052021627,-0.45033147375795185
12,2,0.7000000000000001,0.7000075242920418,22.0,0.44569574924861727,0.40316832824303833,0.4052376182628664,0.045312521827103644,True,ep012_step002,False,False,True,-0.39759916931969336,-2.0363216106618363,1.9688720593553608,-1.5019139503511671,-1.5699995604006818,-0.3979843714559276
12,3,0.7500000000000001,0.7500129656647858,19.0,0.3940821632463679,0.34525461820073744,0.3552376182628664,0.017655492789388945,True,ep012_step003,False,False,True,-0.3559145818388143,-1.942184148059434,1.9157477500180542,-1.5428007376744202,-1.5701623792846198,-0.3551781178650099
13,0,0.6,0.5999970197635405,25.0,0.4973093352508666,0.4595830446477098,0.4219786654368195,0.0967578771992103,False,ep013_step000,False,False,True,-0.5204884945273844,-2.2357968911138335,2.053048796509201,-1.38669081607142,-1.5715990109118338,-0.520625194614212
13,1,0.65,0.6500013420496763,20.0,0.41128669191378436,0.3647694380638052,0.37197866543681946,0.037906754651414645,True,ep013_step001,False,False,True,-0.4505453345505175,-2.133868620733503,2.0146885966875834,-1.4498058208938405,-1.5705149052021627,-0.45033147375795185
13,2,0.7000000000000001,0.7000075242920418,17.0,0.359673105911535,0.30539276860471054,0.3219786654368194,0.0034849723313380835,True,ep013_step002,False,False,True,-0.39759916931969336,-2.0363216106618363,1.9688720593553608,-1.5019139503511671,-1.5699995604006818,-0.3979843714559276
14,0,0.6,0.5999971091648704,26.0,0.514513863918283,0.4781469608437572,0.4813013285181743,0.051786503343612,False,ep014_step000,False,False,True,-0.5204884945273844,-2.2357968911138335,2.053048796509201,-1.38669081607142,-1.5715990109118338,-0.520625194614212
14,1,0.65,0.6500013420496763,23.0,0.4629002779160337,0.4221097810934275,0.43130132851817427,0.014372574411323866,True,ep014_step001,False,False,True,-0.4505453345505175,-2.133868620733503,2.0146885966875834,-1.4498058208938405,-1.5705149052021627,-0.45033147375795185
14,2,0.7000000000000001,0.7000075242920418,23.0,0.4629002779160337,0.4221097810934275,0.3813013285181742,0.00463037682217679,True,ep014_step002,False,False,True,-0.39759916931969336,-2.0363216106618363,1.9688720593553608,-1.5019139503511671,-1.5699995604006818,-0.3979843714559276
14,3,0.7500000000000001,0.7500129656647858,18.0,0.37687763457895146,0.3254792642332621,0.3313013285181742,0.03562893678762984,True,ep014_step003,False,False,True,-0.3559145818388143,-1.942184148059434,1.9157477500180542,-1.5428007376744202,-1.5701623792846198,-0.3551781178650099
15,0,0.6,0.5999973475794437,25.0,0.4973093352508666,0.4595830446477098,0.46570800077807617,0.0687647596774539,False,ep015_step000,False,False,True,-0.5204884945273844,-2.2357968911138335,2.053048796509201,-1.38669081607142,-1.5715990109118338,-0.520625194614212
15,1,0.65,0.6500013420496763,22.0,0.44569574924861727,0.40316832824303833,0.4157080007780761,0.01783150262466779,True,ep015_step001,False,False,True,-0.4505453345505175,-2.133868620733503,2.0146885966875834,-1.4498058208938405,-1.5705149052021627,-0.45033147375795185
15,2,0.7000000000000001,0.7000075242920418,20.0,0.41128669191378436,0.3647694380638052,0.3657080007780761,0.06348637164505352,False,ep015_step002,False,False,True,-0.39759916931969336,-2.0363216106618363,1.9688720593553608,-1.5019139503511671,-1.5699995604006818,-0.3979843714559276
15,3,0.7500000000000001,0.7500129656647858,17.0,0.359673105911535,0.30539276860471054,0.31570800077807604,0.01497512799447842,True,ep015_step003,False,False,True,-0.3559145818388143,-1.942184148059434,1.9157477500180542,-1.5428007376744202,-1.5701623792846198,-0.3551781178650099
16,0,0.6,0.5999970197651909,29.0,0.5661274499205324,0.5332919365165059,0.5116612252538938,0.031141508425909646,True,ep016_step000,False,False,True,-0.5204884945273844,-2.2357968911138335,2.053048796509201,-1.38669081607142,-1.5715990109118338,-0.520625194614212
16,1,0.65,0.6500013420496763,27.0,0.5317183925856995,0.49661297708972535,0.46166122525389375,0.08982732490660114,False,ep016_step001,False,False,True,-0.4505453345505175,-2.133868620733503,2.0146885966875834,-1.4498058208938405,-1.5705149052021627,-0.45033147375795185
16,2,0.7000000000000001,0.7000075242920418,22.0,0.44569574924861727,0.40316832824303833,0.4116612252538937,0.0689947289676884,False,ep016_step002,False,False,True,-0.39759916931969336,-2.0363216106618363,1.9688720593553608,-1.5019139503511671,-1.5699995604006818,-0.3979843714559276
16,3,0.7500000000000001,0.7500129656647858,19.0,0.3940821632463679,0.34525461820073744,0.36166122525389366,0.05046083723617861,False,ep016_step003,False,False,True,-0.3559145818388143,-1.942184148059434,1.9157477500180542,-1.5428007376744202,-1.5701623792846198,-0.3551781178650099
17,0,0.6,0.5999970197635405,28.0,0.5489229212531159,0.5149916246669013,0.4806974268874945,0.011815861250807011,True,ep017_step000,False,False,True,-0.5204884945273844,-2.2357968911138335,2.053048796509201,-1.38669081607142,-1.5715990109118338,-0.520625194614212
17,1,0.65,0.6500013420496763,23.0,0.4629002779160337,0.4221097810934275,0.43069742688749446,0.032543255686734975,True,ep017_step001,False,False,True,-0.4505453345505175,-2.133868620733503,2.0146885966875834,-1.4498058208938405,-1.5705149052021627,-0.45033147375795185
17,2,0.7000000000000001,0.7000075242920418,20.0,0.41128669191378436,0.3647694380638052,0.3806974268874944,0.084877376959342,False,ep017_step002,False,False,True,-0.39759916931969336,-2.0363216106618363,1.9688720593553608,-1.5019139503511671,-1.5699995604006818,-0.3979843714559276
17,3,0.7500000000000001,0.7500129656647858,18.0,0.37687763457895146,0.3254792642332621,0.3306974268874944,0.007192041135343414,True,ep017_step003,False,False,True,-0.3559145818388143,-1.942184148059434,1.9157477500180542,-1.5428007376744202,-1.5701623792846198,-0.3551781178650099
18,0,0.6,0.5999970197651909,27.0,0.5317183925856995,0.49661297708972535,0.5044775911056242,0.02583865203187715,True,ep018_step000,False,False,True,-0.5204884945273844,-2.2357968911138335,2.053048796509201,-1.38669081607142,-1.5715990109118338,-0.520625194614212
18,1,0.65,0.6500013420496763,24.0,0.48010480658345017,0.4409088628101414,0.45447759110562413,0.04077168472782535,True,ep018_step001,False,False,True,-0.4505453345505175,-2.133868620733503,2.0146885966875834,-1.4498058208938405,-1.5705149052021627,-0.45033147375795185
18,2,0.7000000000000001,0.7000075242920418,22.0,0.44569574924861727,0.40316832824303833,0.4044775911056241,0.03904731173155142,True,ep018_step002,False,False,True,-0.39759916931969336,-2.0363216106618363,1.9688720593553608,-1.5019139503511671,-1.5699995604006818,-0.3979843714559276
18,3,0.7500000000000001,0.7500129656647858,19.0,0.3940821632463679,0.34525461820073744,0.35447759110562405,0.011722069084438482,True,ep018_step003,False,False,True,-0.3559145818388143,-1.942184148059434,1.9157477500180542,-1.5428007376744202,-1.5701623792846198,-0.3551781178650099
19,0,0.6,0.5999970197635405,30.0,0.5833319785879489,0.5515217105820326,0.5553672441523397,0.039628784471867254,True,ep019_step000,False,False,True,-0.5204884945273844,-2.2357968911138335,2.053048796509201,-1.38669081607142,-1.5715990109118338,-0.520625194614212
19,1,0.65,0.6500013420496763,27.0,0.5317183925856995,0.49661297708972535,0.5053672441523397,0.0014678821505930857,True,ep019_step001,False,False,True,-0.4505453345505175,-2.133868620733503,2.0146885966875834,-1.4498058208938405,-1.5705149052021627,-0.45033147375795185
19,2,0.7000000000000001,0.7000075242920418,27.0,0.5317183925856995,0.49661297708972535,0.45536724415233965,0.04907268447693314,True,ep019_step002,False,False,True,-0.39759916931969336,-2.0363216106618363,1.9688720593553608,-1.5019139503511671,-1.5699995604006818,-0.3979843714559276
19,3,0.7500000000000001,0.7500129656647858,22.0,0.44569574924861727,0.40316832824303833,0.4053672441523396,0.04858489497091361,True,ep019_step003,False,False,True,-0.3559145818388143,-1.942184148059434,1.9157477500180542,-1.5428007376744202,-1.5701623792846198,-0.3551781178650099
19,4,0.8000000000000002,0.8000195864590397,19.0,0.3940821632463679,0.34525461820073744,0.35536724415233956,0.012059289196334878,True,ep019_step004,False,False,True,-0.3222635464594593,-1.8512573785587165,1.8561487764526605,-1.57472729285862,-1.5704263758040753,-0.32120842798532245
20,0,0.6,0.5999971389716996,28.0,0.5489229212531159,0.5149916246669013,0.5186162782340099,0.0028004428945667564,True,ep020_step000,False,False,True,-0.5204884945273844,-2.2357968911138335,2.053048796509201,-1.38669081607142,-1.5715990109118338,-0.520625194614212
20,1,0.65,0.6500013420496763,25.0,0.4973093352508666,0.4595830446477098,0.46861627823400986,0.040170229066414265,True,ep020_step001,False,False,True,-0.4505453345505175,-2.133868620733503,2.0146885966875834,-1.4498058208938405,-1.5705149052021627,-0.45033147375795185
20,2,0.7000000000000001,0.7000075242920418,25.0,0.4973093352508666,0.4595830446477098,0.4186162782340098,0.03401173711269524,True,ep020_step002,False,False,True,-0.39759916931969336,-2.0363216106618363,1.9688720593553608,-1.5019139503511671,-1.5699995604006818,-0.3979843714559276
20,3,0.7500000000000001,0.7500129656647858,20.0,0.41128669191378436,0.3647694380638052,0.3686162782340098,0.018244902386617103,True,ep020_step003,False,False,True,-0.3559145818388143,-1.942184148059434,1.9157477500180542,-1.5428007376744202,-1.5701623792846198,-0.3551781178650099
20,4,0.8000000000000002,0.8000195864590397,17.0,0.359673105911535,0.30539276860471054,0.31861627823400973,0.0054124295450075095,True,ep020_step004,False,False,True,-0.3222635464594593,-1.8512573785587165,1.8561487764526605,-1.57472729285862,-1.5704263758040753,-0.32120842798532245
21,0,0.6,0.5999971091648704,25.0,0.4973093352508666,0.4595830446477098,0.46971152272567396,0.0777775303558258,False,ep021_step000,False,False,True,-0.5204884945273844,-2.2357968911138335,2.053048796509201,-1.38669081607142,-1.5715990109118338,-0.520625194614212
21,1,0.65,0.6500013420496763,25.0,0.4973093352508666,0.4595830446477098,0.4197115227256739,0.0002769762922154819,True,ep021_step001,False,False,True,-0.4505453345505175,-2.133868620733503,2.0146885966875834,-1.4498058208938405,-1.5705149052021627,-0.45033147375795185
21,2,0.7000000000000001,0.7000075242920418,20.0,0.41128669191378436,0.3647694380638052,0.36971152272567387,0.012702675272735641,True,ep021_step002,False,False,True,-0.39759916931969336,-2.0363216106618363,1.9688720593553608,-1.5019139503511671,-1.5699995604006818,-0.3979843714559276
21,3,0.7500000000000001,0.7500129656647858,17.0,0.359673105911535,0.30539276860471054,0.3197115227256738,0.03341496174881597,True,ep021_step003,False,False,True,-0.3559145818388143,-1.942184148059434,1.9157477500180542,-1.5428007376744202,-1.5701623792846198,-0.3551781178650099
22,0,0.6,0.5999971985678787,23.0,0.4629002779160337,0.4221097810934275,0.4276102176721511,0.02275623343985069,True,ep022_step000,False,False,True,-0.5204884945273844,-2.2357968911138335,2.053048796509201,-1.38669081607142,-1.5715990109118338,-0.520625194614212
22,1,0.65,0.6500013420496763,20.0,0.41128669191378436,0.3647694380638052,0.3776102176721511,0.0613794794052774,False,ep022_step001,False,False,True,-0.4505453345505175,-2.133868620733503,2.0146885966875834,-1.4498058208938405,-1.5705149052021627,-0.45033147375795185
22,2,0.7000000000000001,0.7000075242920418,18.0,0.37687763457895146,0.3254792642332621,0.32761021767215104,0.005999914836538727,True,ep022_step002,False,False,True,-0.39759916931969336,-2.0363216106618363,1.9688720593553608,-1.5019139503511671,-1.5699995604006818,-0.3979843714559276
23,0,0.6,0.5999971389716996,31.0,0.6005365072553653,0.5696877184444767,0.5471396379087173,0.08478013251291396,False,ep023_step000,False,False,True,-0.5204884945273844,-2.2357968911138335,2.053048796509201,-1.38669081607142,-1.5715990109118338,-0.520625194614212
23,1,0.65,0.6500013420496763,27.0,0.5317183925856995,0.49661297708972535,0.4971396379087173,0.03489281346927581,True,ep023_step001,False,False,True,-0.4505453345505175,-2.133868620733503,2.0146885966875834,-1.4498058208938405,-1.5705149052021627,-0.45033147375795185
23,2,0.7000000000000001,0.7000075242920418,24.0,0.48010480658345017,0.4409088628101414,0.44713963790871725,0.10688007139446974,False,ep023_step002,False,False,True,-0.39759916931969336,-2.0363216106618363,1.9688720593553608,-1.5019139503511671,-1.5699995604006818,-0.3979843714559276
23,3,0.7500000000000001,0.7500129656647858,21.0,0.4284912205812008,0.3840634402220124,0.3971396379087172,0.08171671544894812,False,ep023_step003,False,False,True,-0.3559145818388143,-1.942184148059434,1.9157477500180542,-1.5428007376744202,-1.5701623792846198,-0.3551781178650099
23,4,0.8000000000000002,0.8000195268668024,19.0,0.3940821632463679,0.34525461820073744,0.34713963790871716,0.016358644590307572,True,ep023_step004,False,False,True,-0.3222635464594593,-1.8512573785587165,1.8561487764526605,-1.57472729285862,-1.5704263758040753,-0.32120842798532245
24,0,0.6,0.5999971389716996,26.0,0.514513863918283,0.4781469608437572,0.4911108999933246,0.0077966534037220035,True,ep024_step000,False,False,True,-0.5204884945273844,-2.2357968911138335,2.053048796509201,-1.38669081607142,-1.5715990109118338,-0.520625194614212
24,1,0.65,0.6500013420496763,26.0,0.514513863918283,0.4781469608437572,0.44111089999332453,0.1359672811996606,False,ep024_step001,False,False,True,-0.4505453345505175,-2.133868620733503,2.0146885966875834,-1.4498058208938405,-1.5705149052021627,-0.45033147375795185
24,2,0.7000000000000001,0.7000075242920418,21.0,0.4284912205812008,0.3840634402220124,0.3911108999933245,0.06265872214871578,False,ep024_step002,False,False,True,-0.39759916931969336,-2.0363216106618363,1.9688720593553608,-1.5019139503511671,-1.5699995604006818,-0.3979843714559276
24,3,0.7500000000000001,0.7500129656647858,18.0,0.37687763457895146,0.3254792642332621,0.34111089999332445,0.018741187711836547,True,ep024_step003,False,False,True,-0.3559145818388143,-1.942184148059434,1.9157477500180542,-1.5428007376744202,-1.5701623792846198,-0.3551781178650099
25,0,0.6,0.5999970197635405,26.0,0.514513863918283,0.4781469608437572,0.4378642820993809,0.08474748314830664,False,ep025_step000,False,False,True,-0.5204884945273844,-2.2357968911138335,2.053048796509201,-1.38669081607142,-1.5715990109118338,-0.520625194614212
25,1,0.65,0.6500013420496763,21.0,0.4284912205812008,0.3840634402220124,0.38786428209938084,0.07386913875143791,False,ep025_step001,False,False,True,-0.4505453345505175,-2.133868620733503,2.0146885966875834,-1.4498058208938405,-1.5705149052021627,-0.45033147375795185
25,2,0.7000000000000001,0.7000075242920418,18.0,0.37687763457895146,0.3254792642332621,0.3378642820993808,0.035635584154436,True,ep025_step002,False,False,True,-0.39759916931969336,-2.0363216106618363,1.9688720593553608,-1.5019139503511671,-1.5699995604006818,-0.3979843714559276
26,0,0.6,0.5999971389716996,28.0,0.5489229212531159,0.5149916246669013,0.4757005304906884,0.06183727232470527,False,ep026_step000,False,False,True,-0.5204884945273844,-2.2357968911138335,2.053048796509201,-1.38669081607142,-1.5715990109118338,-0.520625194614212
26,1,0.65,0.6500013420496763,23.0,0.4629002779160337,0.4221097810934275,0.42570053049068834,0.07028081558182753,False,ep026_step001,False,False,True,-0.4505453345505175,-2.133868620733503,2.0146885966875834,-1.4498058208938405,-1.5705149052021627,-0.45033147375795185
26,2,0.7000000000000001,0.7000075242920418,20.0,0.41128669191378436,0.3647694380638052,0.3757005304906883,0.1032932588391002,False,ep026_step002,False,False,True,-0.39759916931969336,-2.0363216106618363,1.9688720593553608,-1.5019139503511671,-1.5699995604006818,-0.3979843714559276
26,3,0.7500000000000001,0.7500129656647858,18.0,0.37687763457895146,0.3254792642332621,0.32570053049068826,0.022692584862335795,True,ep026_step003,False,False,True,-0.3559145818388143,-1.942184148059434,1.9157477500180542,-1.5428007376744202,-1.5701623792846198,-0.3551781178650099
27,0,0.6,0.5999970197651909,32.0,0.6177410359227818,0.5877958722745096,0.5681404073217976,0.10537484756862316,False,ep027_step000,False,False,True,-0.5204884945273844,-2.2357968911138335,2.053048796509201,-1.38669081607142,-1.5715990109118338,-0.520625194614212
27,1,0.65,0.6500013420496763,28.0,0.5489229212531159,0.5149916246669013,0.5181404073217976,0.07303503073283765,False,ep027_step001,False,False,True,-0.4505453345505175,-2.133868620733503,2.0146885966875834,-1.4498058208938405,-1.5705149052021627,-0.45033147375795185
27,2,0.7000000000000001,0.7000075242920418,25.0,0.4973093352508666,0.4595830446477098,0.4681404073217975,0.06125948472913432,False,ep027_step002,False,False,True,-0.39759916931969336,-2.0363216106618363,1.9688720593553608,-1.5019139503511671,-1.5699995604006818,-0.3979843714559276
27,3,0.7500000000000001,0.7500129656647858,25.0,0.4973093352508666,0.4595830446477098,0.41814040732179747,0.026268483828412723,True,ep027_step003,False,False,True,-0.3559145818388143,-1.942184148059434,1.9157477500180542,-1.5428007376744202,-1.5701623792846198,-0.3551781178650099
27,4,0.8000000000000002,0.8000195268668024,20.0,0.41128669191378436,0.3647694380638052,0.3681404073217974,0.0016209431786327112,True,ep027_step004,False,False,True,-0.3222635464594593,-1.8512573785587165,1.8561487764526605,-1.57472729285862,-1.5704263758040753,-0.32120842798532245
27,5,0.8500000000000002,0.8500263575700777,17.0,0.359673105911535,0.30539276860471054,0.3181404073217974,0.011864995567821605,True,ep027_step005,False,False,True,-0.2945928842297702,-1.7629644877008555,1.79018067040535,-1.5978585796301343,-1.5702782760485732,-0.2936959795476594
28,0,0.6,0.5999970197651909,24.0,0.48010480658345017,0.4409088628101414,0.44682139869413595,0.027578705441377027,True,ep028_step000,False,False,True,-0.5204884945273844,-2.2357968911138335,2.053048796509201,-1.38669081607142,-1.5715990109118338,-0.520625194614212
28,1,0.65,0.6500013420496763,21.0,0.4284912205812008,0.3840634402220124,0.3968213986941359,0.08238013663165164,False,ep028_step001,False,False,True,-0.4505453345505175,-2.133868620733503,2.0146885966875834,-1.4498058208938405,-1.5705149052021627,-0.45033147375795185
28,2,0.7000000000000001,0.7000075242920418,19.0,0.3940821632463679,0.34525461820073744,0.34682139869413586,0.0029261303825398053,True,ep028_step002,False,False,True,-0.39759916931969336,-2.0363216106618363,1.9688720593553608,-1.5019139503511671,-1.5699995604006818,-0.3979843714559276
29,0,0.6,0.5999971091648704,22.0,0.44569574924861727,0.40316832824303833,0.4153848977322455,0.0683702100938419,False,ep029_step000,False,False,True,-0.5204884945273844,-2.2357968911138335,2.053048796509201,-1.38669081607142,-1.5715990109118338,-0.520625194614212
29,1,0.65,0.6500013420496763,20.0,0.41128669191378436,0.3647694380638052,0.3653848977322455,0.029558455473146825,True,ep029_step001,False,False,True,-0.4505453345505175,-2.133868620733503,2.0146885966875834,-1.4498058208938405,-1.5705149052021627,-0.45033147375795185
29,2,0.7000000000000001,0.7000075242920418,17.0,0.359673105911535,0.30539276860471054,0.31538489773224543,0.00334766397101086,True,ep029_step002,False,False,True,-0.39759916931969336,-2.0363216106618363,1.9688720593553608,-1.5019139503511671,-1.5699995604006818,-0.3979843714559276
