sakiwatashi/newisac6.0acoustic/clean/runtime/outputs/v2_d15_arm_approach/blind/steps.csv
episode,step,sensor_x,sensor_x_actual,peak_idx,d3d_est,d_horiz_est,oracle_horiz_dist,drift,stationarity_ok,waveform_tag,posture_violation,sensor_pose_violation,ik_ok,q_shoulder_pan,q_shoulder_lift,q_elbow,q_wrist_1,q_wrist_2,q_wrist_3
0,0,0.6,0.5999996423369188,24.0,0.5009070754461152,inf,0.4112351338496506,0.03574955056003561,True,ep000_step000,False,False,True,-0.5204884945273844,-2.2357968911138335,2.053048796509201,-1.38669081607142,-1.5715990109118338,-0.520625194614212
0,1,0.65,0.6500030088943827,19.0,0.41450118882111614,inf,0.36123513384965056,0.013369396359662902,True,ep000_step001,False,False,True,-0.4505453345505175,-2.133868620733503,2.0146885966875834,-1.4498058208938405,-1.5705149052021627,-0.45033147375795185
0,2,0.7000000000000001,0.7000078566784489,16.0,0.36265765684611667,inf,0.3112351338496505,0.0062237188409787775,True,ep000_step002,False,False,True,-0.39759916931969336,-2.0363216106618363,1.9688720593553608,-1.5019139503511671,-1.5699995604006818,-0.3979843714559276
0,3,0.7500000000000001,0.7500125736661709,14.0,0.328095302196117,inf,0.26123513384965047,0.01244095127064135,True,ep000_step003,False,False,True,-0.3559145818388143,-1.942184148059434,1.9157477500180542,-1.5428007376744202,-1.5701623792846198,-0.3551781178650099
0,4,0.8000000000000002,0.8000176432805527,11.0,0.2762517702211175,inf,0.21123513384965042,0.04311295008687831,True,ep000_step004,False,False,True,-0.3222635464594593,-1.8512573785587165,1.8561487764526605,-1.57472729285862,-1.5704263758040753,-0.32120842798532245
0,5,0.8500000000000002,0.8500235798860047,24.0,0.5009070754461152,inf,0.16123513384965038,0.0032995821776571287,True,ep000_step005,False,False,True,-0.2945928842297702,-1.7629644877008555,1.79018067040535,-1.5978585796301343,-1.5702782760485732,-0.2936959795476594
0,6,0.9000000000000002,0.9000300558224845,21.0,0.44906354347111577,inf,0.11123513384965034,0.03327359522462287,True,ep000_step006,False,False,True,-0.27115185267695463,-1.6765115646744237,1.7174822973979744,-1.611606507748676,-1.5712501241795143,-0.27084313925875253
0,7,0.9500000000000003,0.9500381445758157,20.0,0.431782366146116,inf,0.06123513384965029,0.03592737355372004,True,ep000_step007,False,False,True,-0.2515410449359567,-1.591526688199916,1.6380952332740333,-1.6164320849088567,-1.5701290805608197,-0.25111172552163513
1,0,0.6,0.5999998509440152,31.0,0.6218753167211141,inf,0.5612030708033476,0.049591699208506965,True,ep001_step000,False,False,True,-0.5204884945273844,-2.2357968911138335,2.053048796509201,-1.38669081607142,-1.5715990109118338,-0.520625194614212
1,1,0.65,0.6500030088943827,28.0,0.5700317847461146,inf,0.5112030708033476,0.10461209023590762,False,ep001_step001,False,False,True,-0.4505453345505175,-2.133868620733503,2.0146885966875834,-1.4498058208938405,-1.5705149052021627,-0.45033147375795185
1,2,0.7000000000000001,0.7000078566784489,24.0,0.5009070754461152,inf,0.46120307080334755,0.08096229248096545,False,ep001_step002,False,False,True,-0.39759916931969336,-2.0363216106618363,1.9688720593553608,-1.5019139503511671,-1.5699995604006818,-0.3979843714559276
1,3,0.7500000000000001,0.7500125736661709,24.0,0.5009070754461152,inf,0.4112030708033475,0.14504118201628188,False,ep001_step003,False,False,True,-0.3559145818388143,-1.942184148059434,1.9157477500180542,-1.5428007376744202,-1.5701623792846198,-0.3551781178650099
1,4,0.8000000000000002,0.8000176432805527,19.0,0.41450118882111614,inf,0.36120307080334746,0.02511529320765196,True,ep001_step004,False,False,True,-0.3222635464594593,-1.8512573785587165,1.8561487764526605,-1.57472729285862,-1.5704263758040753,-0.32120842798532245
1,5,0.8500000000000002,0.8500235798860047,16.0,0.36265765684611667,inf,0.3112030708033474,0.012569924702079032,True,ep001_step005,False,False,True,-0.2945928842297702,-1.7629644877008555,1.79018067040535,-1.5978585796301343,-1.5702782760485732,-0.2936959795476594
1,6,0.9000000000000002,0.9000300558224845,14.0,0.328095302196117,inf,0.26120307080334737,0.0026408399334978566,True,ep001_step006,False,False,True,-0.27115185267695463,-1.6765115646744237,1.7174822973979744,-1.611606507748676,-1.5712501241795143,-0.27084313925875253
1,7,0.9500000000000003,0.9500381445758157,11.0,0.2762517702211175,inf,0.21120307080334733,0.049227044908636816,True,ep001_step007,False,False,True,-0.2515410449359567,-1.591526688199916,1.6380952332740333,-1.6164320849088567,-1.5701290805608197,-0.25111172552163513
2,0,0.6,0.5999998509440152,29.0,0.5873129620711144,inf,0.5282298573680734,0.1461031831230623,False,ep002_step000,False,False,True,-0.5204884945273844,-2.2357968911138335,2.053048796509201,-1.38669081607142,-1.5715990109118338,-0.520625194614212
2,1,0.65,0.6500030088943827,25.0,0.5181882527711151,inf,0.47822985736807333,0.04461842234316417,True,ep002_step001,False,False,True,-0.4505453345505175,-2.133868620733503,2.0146885966875834,-1.4498058208938405,-1.5705149052021627,-0.45033147375795185
2,2,0.7000000000000001,0.7000078566784489,24.0,0.5009070754461152,inf,0.4282298573680733,0.03758927311183226,True,ep002_step002,False,False,True,-0.39759916931969336,-2.0363216106618363,1.9688720593553608,-1.5019139503511671,-1.5699995604006818,-0.3979843714559276
2,3,0.7500000000000001,0.7500125736661709,20.0,0.431782366146116,inf,0.37822985736807324,0.0020771411097736297,True,ep002_step003,False,False,True,-0.3559145818388143,-1.942184148059434,1.9157477500180542,-1.5428007376744202,-1.5701623792846198,-0.3551781178650099
2,4,0.8000000000000002,0.8000176432805527,17.0,0.37993883417111646,inf,0.3282298573680732,0.016853335399803007,True,ep002_step004,False,False,True,-0.3222635464594593,-1.8512573785587165,1.8561487764526605,-1.57472729285862,-1.5704263758040753,-0.32120842798532245
2,5,0.8500000000000002,0.8500235798860047,15.0,0.34537647952111683,inf,0.27822985736807315,0.009067006889071952,True,ep002_step005,False,False,True,-0.2945928842297702,-1.7629644877008555,1.79018067040535,-1.5978585796301343,-1.5702782760485732,-0.2936959795476594
2,6,0.9000000000000002,0.9000300558224845,12.0,0.29353294754611736,inf,0.2282298573680731,0.036678615361424145,True,ep002_step006,False,False,True,-0.27115185267695463,-1.6765115646744237,1.7174822973979744,-1.611606507748676,-1.5712501241795143,-0.27084313925875253
2,7,0.9500000000000003,0.9500381445758157,23.0,0.48362589812111545,inf,0.17822985736807306,0.04038127458710512,True,ep002_step007,False,False,True,-0.2515410449359567,-1.591526688199916,1.6380952332740333,-1.6164320849088567,-1.5701290805608197,-0.25111172552163513
3,0,0.6,0.5999998509440152,28.0,0.5700317847461146,inf,0.5107707610429512,0.00613832714054517,True,ep003_step000,False,False,True,-0.5204884945273844,-2.2357968911138335,2.053048796509201,-1.38669081607142,-1.5715990109118338,-0.520625194614212
3,1,0.65,0.6500030088943827,24.0,0.5009070754461152,inf,0.4607707610429511,0.014684461623447956,True,ep003_step001,False,False,True,-0.4505453345505175,-2.133868620733503,2.0146885966875834,-1.4498058208938405,-1.5705149052021627,-0.45033147375795185
3,2,0.7000000000000001,0.7000078566784489,21.0,0.44906354347111577,inf,0.41077076104295107,0.03506671463017147,True,ep003_step002,False,False,True,-0.39759916931969336,-2.0363216106618363,1.9688720593553608,-1.5019139503511671,-1.5699995604006818,-0.3979843714559276
3,3,0.7500000000000001,0.7500125736661709,19.0,0.41450118882111614,inf,0.360770761042951,0.003968655167242593,True,ep003_step003,False,False,True,-0.3559145818388143,-1.942184148059434,1.9157477500180542,-1.5428007376744202,-1.5701623792846198,-0.3551781178650099
3,4,0.8000000000000002,0.8000176432805527,16.0,0.36265765684611667,inf,0.310770761042951,0.01518579038331287,True,ep003_step004,False,False,True,-0.3222635464594593,-1.8512573785587165,1.8561487764526605,-1.57472729285862,-1.5704263758040753,-0.32120842798532245
3,5,0.8500000000000002,0.8500235798860047,14.0,0.328095302196117,inf,0.26077076104295094,0.030033168746159175,True,ep003_step005,False,False,True,-0.2945928842297702,-1.7629644877008555,1.79018067040535,-1.5978585796301343,-1.5702782760485732,-0.2936959795476594
3,6,0.9000000000000002,0.9000300558224845,11.0,0.2762517702211175,inf,0.2107707610429509,0.0018841043700238238,True,ep003_step006,False,False,True,-0.27115185267695463,-1.6765115646744237,1.7174822973979744,-1.611606507748676,-1.5712501241795143,-0.27084313925875253
3,7,0.9500000000000003,0.9500381445758157,24.0,0.5009070754461152,inf,0.16077076104295085,0.10673962272150765,False,ep003_step007,False,False,True,-0.2515410449359567,-1.591526688199916,1.6380952332740333,-1.6164320849088567,-1.5701290805608197,-0.25111172552163513
4,0,0.6,0.5999998509440152,25.0,0.5181882527711151,inf,0.47967773664380464,0.05520635215744227,False,ep004_step000,False,False,True,-0.5204884945273844,-2.2357968911138335,2.053048796509201,-1.38669081607142,-1.5715990109118338,-0.520625194614212
4,1,0.65,0.6500030088943827,22.0,0.4663447207961156,inf,0.4296777366438046,0.046506802570701784,True,ep004_step001,False,False,True,-0.4505453345505175,-2.133868620733503,2.0146885966875834,-1.4498058208938405,-1.5705149052021627,-0.45033147375795185
4,2,0.7000000000000001,0.7000078566784489,20.0,0.431782366146116,inf,0.37967773664380455,0.007752643150241809,True,ep004_step002,False,False,True,-0.39759916931969336,-2.0363216106618363,1.9688720593553608,-1.5019139503511671,-1.5699995604006818,-0.3979843714559276
4,3,0.7500000000000001,0.7500125736661709,17.0,0.37993883417111646,inf,0.3296777366438045,0.0035934624116350823,True,ep004_step003,False,False,True,-0.3559145818388143,-1.942184148059434,1.9157477500180542,-1.5428007376744202,-1.5701623792846198,-0.3551781178650099
4,4,0.8000000000000002,0.8000176432805527,15.0,0.34537647952111683,inf,0.27967773664380446,0.03672216847890658,True,ep004_step004,False,False,True,-0.3222635464594593,-1.8512573785587165,1.8561487764526605,-1.57472729285862,-1.5704263758040753,-0.32120842798532245
4,5,0.8500000000000002,0.8500235798860047,12.0,0.29353294754611736,inf,0.22967773664380442,0.005615227710160294,True,ep004_step005,False,False,True,-0.2945928842297702,-1.7629644877008555,1.79018067040535,-1.5978585796301343,-1.5702782760485732,-0.2936959795476594
4,6,0.9000000000000002,0.9000300558224845,25.0,0.5181882527711151,inf,0.17967773664380438,0.04616262103520056,True,ep004_step006,False,False,True,-0.27115185267695463,-1.6765115646744237,1.7174822973979744,-1.611606507748676,-1.5712501241795143,-0.27084313925875253
4,7,0.9500000000000003,0.9500381445758157,21.0,0.44906354347111577,inf,0.12967773664380433,0.10379453894578419,False,ep004_step007,False,False,True,-0.2515410449359567,-1.591526688199916,1.6380952332740333,-1.6164320849088567,-1.5701290805608197,-0.25111172552163513
5,0,0.6,0.5999998509440152,21.0,0.44906354347111577,inf,0.40720129531838134,0.016460477865539273,True,ep005_step000,False,False,True,-0.5204884945273844,-2.2357968911138335,2.053048796509201,-1.38669081607142,-1.5715990109118338,-0.520625194614212
5,1,0.65,0.6500030088943827,19.0,0.41450118882111614,inf,0.3572012953183813,0.02460054966427967,True,ep005_step001,False,False,True,-0.4505453345505175,-2.133868620733503,2.0146885966875834,-1.4498058208938405,-1.5705149052021627,-0.45033147375795185
5,2,0.7000000000000001,0.7000078566784489,16.0,0.36265765684611667,inf,0.30720129531838125,0.004344032808033843,True,ep005_step002,False,False,True,-0.39759916931969336,-2.0363216106618363,1.9688720593553608,-1.5019139503511671,-1.5699995604006818,-0.3979843714559276
5,3,0.7500000000000001,0.7500125736661709,14.0,0.328095302196117,inf,0.2572012953183812,0.005066397476630683,True,ep005_step003,False,False,True,-0.3559145818388143,-1.942184148059434,1.9157477500180542,-1.5428007376744202,-1.5701623792846198,-0.3551781178650099
5,4,0.8000000000000002,0.8000176432805527,11.0,0.2762517702211175,inf,0.20720129531838116,0.06729635060244939,False,ep005_step004,False,False,True,-0.3222635464594593,-1.8512573785587165,1.8561487764526605,-1.57472729285862,-1.5704263758040753,-0.32120842798532245
5,5,0.8500000000000002,0.8500235798860047,24.0,0.5009070754461152,inf,0.15720129531838112,0.07100627981377922,False,ep005_step005,False,False,True,-0.2945928842297702,-1.7629644877008555,1.79018067040535,-1.5978585796301343,-1.5702782760485732,-0.2936959795476594
5,6,0.9000000000000002,0.9000300558224845,21.0,0.44906354347111577,inf,0.10720129531838107,0.023658766876610733,True,ep005_step006,False,False,True,-0.27115185267695463,-1.6765115646744237,1.7174822973979744,-1.611606507748676,-1.5712501241795143,-0.27084313925875253
5,7,0.9500000000000003,0.9500381445758157,21.0,0.44906354347111577,inf,0.05720129531838103,0.024786317546297208,True,ep005_step007,False,False,True,-0.2515410449359567,-1.591526688199916,1.6380952332740333,-1.6164320849088567,-1.5701290805608197,-0.25111172552163513
6,0,0.6,0.5999998509440152,30.0,0.6045941393961142,inf,0.5964134325271734,0.08415038252616766,False,ep006_step000,False,False,True,-0.5204884945273844,-2.2357968911138335,2.053048796509201,-1.38669081607142,-1.5715990109118338,-0.520625194614212
6,1,0.65,0.6500030088943827,30.0,0.6045941393961142,inf,0.5464134325271733,0.015752924041528497,True,ep006_step001,False,False,True,-0.4505453345505175,-2.133868620733503,2.0146885966875834,-1.4498058208938405,-1.5705149052021627,-0.45033147375795185
6,2,0.7000000000000001,0.7000078566784489,26.0,0.5354694300961149,inf,0.4964134325271733,0.01145948302179403,True,ep006_step002,False,False,True,-0.39759916931969336,-2.0363216106618363,1.9688720593553608,-1.5019139503511671,-1.5699995604006818,-0.3979843714559276
6,3,0.7500000000000001,0.7500125736661709,25.0,0.5181882527711151,inf,0.44641343252717325,0.012604809848560543,True,ep006_step003,False,False,True,-0.3559145818388143,-1.942184148059434,1.9157477500180542,-1.5428007376744202,-1.5701623792846198,-0.3551781178650099
6,4,0.8000000000000002,0.8000176432805527,23.0,0.48362589812111545,inf,0.3964134325271732,0.016643625891518046,True,ep006_step004,False,False,True,-0.3222635464594593,-1.8512573785587165,1.8561487764526605,-1.57472729285862,-1.5704263758040753,-0.32120842798532245
6,5,0.8500000000000002,0.8500235798860047,18.0,0.3972200114961163,inf,0.34641343252717316,0.02630777783649127,True,ep006_step005,False,False,True,-0.2945928842297702,-1.7629644877008555,1.79018067040535,-1.5978585796301343,-1.5702782760485732,-0.2936959795476594
6,6,0.9000000000000002,0.9000300558224845,16.0,0.36265765684611667,inf,0.2964134325271731,0.03039566522424328,True,ep006_step006,False,False,True,-0.27115185267695463,-1.6765115646744237,1.7174822973979744,-1.611606507748676,-1.5712501241795143,-0.27084313925875253
6,7,0.9500000000000003,0.9500381445758157,13.0,0.3108141248711172,inf,0.24641343252717307,0.004166864435894588,True,ep006_step007,False,False,True,-0.2515410449359567,-1.591526688199916,1.6380952332740333,-1.6164320849088567,-1.5701290805608197,-0.25111172552163513
7,0,0.6,0.5999998509440152,32.0,0.6391564940461139,inf,0.6125109223506223,0.06707604181560914,False,ep007_step000,False,False,True,-0.5204884945273844,-2.2357968911138335,2.053048796509201,-1.38669081607142,-1.5715990109118338,-0.520625194614212
7,1,0.65,0.6500030088943827,31.0,0.6218753167211141,inf,0.5625109223506223,0.07104404638897065,False,ep007_step001,False,False,True,-0.4505453345505175,-2.133868620733503,2.0146885966875834,-1.4498058208938405,-1.5705149052021627,-0.45033147375795185
7,2,0.7000000000000001,0.7000078566784489,27.0,0.5527506074211147,inf,0.5125109223506222,0.06268999127637769,False,ep007_step002,False,False,True,-0.39759916931969336,-2.0363216106618363,1.9688720593553608,-1.5019139503511671,-1.5699995604006818,-0.3979843714559276
7,3,0.7500000000000001,0.7500125736661709,24.0,0.5009070754461152,inf,0.4625109223506222,0.10135148265263824,False,ep007_step003,False,False,True,-0.3559145818388143,-1.942184148059434,1.9157477500180542,-1.5428007376744202,-1.5701623792846198,-0.3551781178650099
7,4,0.8000000000000002,0.8000176432805527,24.0,0.5009070754461152,inf,0.41251092235062214,0.025191901225168966,True,ep007_step004,False,False,True,-0.3222635464594593,-1.8512573785587165,1.8561487764526605,-1.57472729285862,-1.5704263758040753,-0.32120842798532245
7,5,0.8500000000000002,0.8500235798860047,19.0,0.41450118882111614,inf,0.3625109223506221,0.00808698071665416,True,ep007_step005,False,False,True,-0.2945928842297702,-1.7629644877008555,1.79018067040535,-1.5978585796301343,-1.5702782760485732,-0.2936959795476594
7,6,0.9000000000000002,0.9000300558224845,16.0,0.36265765684611667,inf,0.31251092235062206,0.007870271190185858,True,ep007_step006,False,False,True,-0.27115185267695463,-1.6765115646744237,1.7174822973979744,-1.611606507748676,-1.5712501241795143,-0.27084313925875253
7,7,0.9500000000000003,0.9500381445758157,14.0,0.328095302196117,inf,0.262510922350622,0.0005355307567496881,True,ep007_step007,False,False,True,-0.2515410449359567,-1.591526688199916,1.6380952332740333,-1.6164320849088567,-1.5701290805608197,-0.25111172552163513
8,0,0.6,0.5999998509440152,29.0,0.5873129620711144,inf,0.5544554528742135,0.014977539105976266,True,ep008_step000,False,False,True,-0.5204884945273844,-2.2357968911138335,2.053048796509201,-1.38669081607142,-1.5715990109118338,-0.520625194614212
8,1,0.65,0.6500030088943827,28.0,0.5700317847461146,inf,0.5044554528742135,0.024265012997409498,True,ep008_step001,False,False,True,-0.4505453345505175,-2.133868620733503,2.0146885966875834,-1.4498058208938405,-1.5705149052021627,-0.45033147375795185
8,2,0.7000000000000001,0.7000078566784489,24.0,0.5009070754461152,inf,0.4544554528742134,0.1467843345700679,False,ep008_step002,False,False,True,-0.39759916931969336,-2.0363216106618363,1.9688720593553608,-1.5019139503511671,-1.5699995604006818,-0.3979843714559276
8,3,0.7500000000000001,0.7500125736661709,21.0,0.44906354347111577,inf,0.40445545287421336,0.07181999191847029,False,ep008_step003,False,False,True,-0.3559145818388143,-1.942184148059434,1.9157477500180542,-1.5428007376744202,-1.5701623792846198,-0.3551781178650099
8,4,0.8000000000000002,0.8000176432805527,19.0,0.41450118882111614,inf,0.3544554528742133,0.007830365306300638,True,ep008_step004,False,False,True,-0.3222635464594593,-1.8512573785587165,1.8561487764526605,-1.57472729285862,-1.5704263758040753,-0.32120842798532245
8,5,0.8500000000000002,0.8500235798860047,16.0,0.36265765684611667,inf,0.3044554528742133,0.020067034702635798,True,ep008_step005,False,False,True,-0.2945928842297702,-1.7629644877008555,1.79018067040535,-1.5978585796301343,-1.5702782760485732,-0.2936959795476594
8,6,0.9000000000000002,0.9000300558224845,14.0,0.328095302196117,inf,0.25445545287421323,0.02680924587823319,True,ep008_step006,False,False,True,-0.27115185267695463,-1.6765115646744237,1.7174822973979744,-1.611606507748676,-1.5712501241795143,-0.27084313925875253
8,7,0.9500000000000003,0.9500381445758157,11.0,0.2762517702211175,inf,0.20445545287421318,0.023555995206702846,True,ep008_step007,False,False,True,-0.2515410449359567,-1.591526688199916,1.6380952332740333,-1.6164320849088567,-1.5701290805608197,-0.25111172552163513
9,0,0.6,0.5999998509440152,30.0,0.6045941393961142,inf,0.5745425576558737,0.08948597228888452,False,ep009_step000,False,False,True,-0.5204884945273844,-2.2357968911138335,2.053048796509201,-1.38669081607142,-1.5715990109118338,-0.520625194614212
9,1,0.65,0.6500030088943827,29.0,0.5873129620711144,inf,0.5245425576558737,0.06331784887035578,False,ep009_step001,False,False,True,-0.4505453345505175,-2.133868620733503,2.0146885966875834,-1.4498058208938405,-1.5705149052021627,-0.45033147375795185
9,2,0.7000000000000001,0.7000078566784489,25.0,0.5181882527711151,inf,0.4745425576558736,0.016661336847187132,True,ep009_step002,False,False,True,-0.39759916931969336,-2.0363216106618363,1.9688720593553608,-1.5019139503511671,-1.5699995604006818,-0.3979843714559276
9,3,0.7500000000000001,0.7500125736661709,22.0,0.4663447207961156,inf,0.42454255765587356,0.027851625887647603,True,ep009_step003,False,False,True,-0.3559145818388143,-1.942184148059434,1.9157477500180542,-1.5428007376744202,-1.5701623792846198,-0.3551781178650099
9,4,0.8000000000000002,0.8000176432805527,20.0,0.431782366146116,inf,0.3745425576558735,0.019692672853241222,True,ep009_step004,False,False,True,-0.3222635464594593,-1.8512573785587165,1.8561487764526605,-1.57472729285862,-1.5704263758040753,-0.32120842798532245
9,5,0.8500000000000002,0.8500235798860047,17.0,0.37993883417111646,inf,0.3245425576558735,0.016136661608350273,True,ep009_step005,False,False,True,-0.2945928842297702,-1.7629644877008555,1.79018067040535,-1.5978585796301343,-1.5702782760485732,-0.2936959795476594
9,6,0.9000000000000002,0.9000300558224845,15.0,0.34537647952111683,inf,0.27454255765587343,0.0450667964097572,True,ep009_step006,False,False,True,-0.27115185267695463,-1.6765115646744237,1.7174822973979744,-1.611606507748676,-1.5712501241795143,-0.27084313925875253
9,7,0.9500000000000003,0.9500381445758157,12.0,0.29353294754611736,inf,0.2245425576558734,0.019061830977410956,True,ep009_step007,False,False,True,-0.2515410449359567,-1.591526688199916,1.6380952332740333,-1.6164320849088567,-1.5701290805608197,-0.25111172552163513
10,0,0.6,0.5999998509440152,34.0,0.6737188486961135,inf,0.6268794958288063,0.079830004460802,False,ep010_step000,False,False,True,-0.5204884945273844,-2.2357968911138335,2.053048796509201,-1.38669081607142,-1.5715990109118338,-0.520625194614212
10,1,0.65,0.6500030088943827,29.0,0.5873129620711144,inf,0.5768794958288063,0.129611941777624,False,ep010_step001,False,False,True,-0.4505453345505175,-2.133868620733503,2.0146885966875834,-1.4498058208938405,-1.5705149052021627,-0.45033147375795185
10,2,0.7000000000000001,0.7000078566784489,29.0,0.5873129620711144,inf,0.5268794958288062,0.023203616468386045,True,ep010_step002,False,False,True,-0.39759916931969336,-2.0363216106618363,1.9688720593553608,-1.5019139503511671,-1.5699995604006818,-0.3979843714559276
10,3,0.7500000000000001,0.7500125736661709,25.0,0.5181882527711151,inf,0.4768794958288062,0.09288359346609078,False,ep010_step003,False,False,True,-0.3559145818388143,-1.942184148059434,1.9157477500180542,-1.5428007376744202,-1.5701623792846198,-0.3551781178650099
10,4,0.8000000000000002,0.8000176432805527,24.0,0.5009070754461152,inf,0.42687949582880613,0.024759936562286596,True,ep010_step004,False,False,True,-0.3222635464594593,-1.8512573785587165,1.8561487764526605,-1.57472729285862,-1.5704263758040753,-0.32120842798532245
10,5,0.8500000000000002,0.8500235798860047,20.0,0.431782366146116,inf,0.3768794958288061,0.026279551185969856,True,ep010_step005,False,False,True,-0.2945928842297702,-1.7629644877008555,1.79018067040535,-1.5978585796301343,-1.5702782760485732,-0.2936959795476594
10,6,0.9000000000000002,0.9000300558224845,17.0,0.37993883417111646,inf,0.32687949582880604,0.012681264872994166,True,ep010_step006,False,False,True,-0.27115185267695463,-1.6765115646744237,1.7174822973979744,-1.611606507748676,-1.5712501241795143,-0.27084313925875253
10,7,0.9500000000000003,0.9500381445758157,15.0,0.34537647952111683,inf,0.276879495828806,0.012752723632701822,True,ep010_step007,False,False,True,-0.2515410449359567,-1.591526688199916,1.6380952332740333,-1.6164320849088567,-1.5701290805608197,-0.25111172552163513
11,0,0.6,0.5999998509440152,28.0,0.5700317847461146,inf,0.5331863595136367,0.04232545289601524,True,ep011_step000,False,False,True,-0.5204884945273844,-2.2357968911138335,2.053048796509201,-1.38669081607142,-1.5715990109118338,-0.520625194614212
11,1,0.65,0.6500030088943827,27.0,0.5527506074211147,inf,0.48318635951363664,0.12439556774117728,False,ep011_step001,False,False,True,-0.4505453345505175,-2.133868620733503,2.0146885966875834,-1.4498058208938405,-1.5705149052021627,-0.45033147375795185
11,2,0.7000000000000001,0.7000078566784489,23.0,0.48362589812111545,inf,0.4331863595136366,0.05916404829218646,False,ep011_step002,False,False,True,-0.39759916931969336,-2.0363216106618363,1.9688720593553608,-1.5019139503511671,-1.5699995604006818,-0.3979843714559276
11,3,0.7500000000000001,0.7500125736661709,20.0,0.431782366146116,inf,0.38318635951363655,0.0895281415407799,False,ep011_step003,False,False,True,-0.3559145818388143,-1.942184148059434,1.9157477500180542,-1.5428007376744202,-1.5701623792846198,-0.3551781178650099
11,4,0.8000000000000002,0.8000176432805527,18.0,0.3972200114961163,inf,0.3331863595136365,0.03163866650000039,True,ep011_step004,False,False,True,-0.3222635464594593,-1.8512573785587165,1.8561487764526605,-1.57472729285862,-1.5704263758040753,-0.32120842798532245
11,5,0.8500000000000002,0.8500235798860047,15.0,0.34537647952111683,inf,0.28318635951363647,0.015285130498840612,True,ep011_step005,False,False,True,-0.2945928842297702,-1.7629644877008555,1.79018067040535,-1.5978585796301343,-1.5702782760485732,-0.2936959795476594
11,6,0.9000000000000002,0.9000300558224845,13.0,0.3108141248711172,inf,0.23318635951363642,0.000149257541193418,True,ep011_step006,False,False,True,-0.27115185267695463,-1.6765115646744237,1.7174822973979744,-1.611606507748676,-1.5712501241795143,-0.27084313925875253
11,7,0.9500000000000003,0.9500381445758157,26.0,0.5354694300961149,inf,0.18318635951363638,0.024882301653746726,True,ep011_step007,False,False,True,-0.2515410449359567,-1.591526688199916,1.6380952332740333,-1.6164320849088567,-1.5701290805608197,-0.25111172552163513
12,0,0.6,0.5999998509440152,35.0,0.6910000260211133,inf,0.6900480758278721,0.02836282567925702,True,ep012_step000,False,False,True,-0.5204884945273844,-2.2357968911138335,2.053048796509201,-1.38669081607142,-1.5715990109118338,-0.520625194614212
12,1,0.65,0.6500030088943827,35.0,0.6910000260211133,inf,0.640048075827872,0.045888025145567786,True,ep012_step001,False,False,True,-0.4505453345505175,-2.133868620733503,2.0146885966875834,-1.4498058208938405,-1.5705149052021627,-0.45033147375795185
12,2,0.7000000000000001,0.7000078566784489,31.0,0.6218753167211141,inf,0.590048075827872,0.08631310798381614,False,ep012_step002,False,False,True,-0.39759916931969336,-2.0363216106618363,1.9688720593553608,-1.5019139503511671,-1.5699995604006818,-0.3979843714559276
12,3,0.7500000000000001,0.7500125736661709,30.0,0.6045941393961142,inf,0.540048075827872,0.060081805781053495,False,ep012_step003,False,False,True,-0.3559145818388143,-1.942184148059434,1.9157477500180542,-1.5428007376744202,-1.5701623792846198,-0.3551781178650099
12,4,0.8000000000000002,0.8000176432805527,27.0,0.5527506074211147,inf,0.4900480758278719,0.049673640345087845,True,ep012_step004,False,False,True,-0.3222635464594593,-1.8512573785587165,1.8561487764526605,-1.57472729285862,-1.5704263758040753,-0.32120842798532245
12,5,0.8500000000000002,0.8500235798860047,23.0,0.48362589812111545,inf,0.44004807582787187,0.013283347013845079,True,ep012_step005,False,False,True,-0.2945928842297702,-1.7629644877008555,1.79018067040535,-1.5978585796301343,-1.5702782760485732,-0.2936959795476594
12,6,0.9000000000000002,0.9000300558224845,20.0,0.431782366146116,inf,0.3900480758278718,0.004687956656407633,True,ep012_step006,False,False,True,-0.27115185267695463,-1.6765115646744237,1.7174822973979744,-1.611606507748676,-1.5712501241795143,-0.27084313925875253
12,7,0.9500000000000003,0.9500381445758157,18.0,0.3972200114961163,inf,0.3400480758278718,0.005552234203066696,True,ep012_step007,False,False,True,-0.2515410449359567,-1.591526688199916,1.6380952332740333,-1.6164320849088567,-1.5701290805608197,-0.25111172552163513
13,0,0.6,0.5999998509440152,25.0,0.5181882527711151,inf,0.44406360311841764,0.016141395305100247,True,ep013_step000,False,False,True,-0.5204884945273844,-2.2357968911138335,2.053048796509201,-1.38669081607142,-1.5715990109118338,-0.520625194614212
13,1,0.65,0.6500030088943827,23.0,0.48362589812111545,inf,0.3940636031184176,0.06769621134489748,False,ep013_step001,False,False,True,-0.4505453345505175,-2.133868620733503,2.0146885966875834,-1.4498058208938405,-1.5705149052021627,-0.45033147375795185
13,2,0.7000000000000001,0.7000078566784489,18.0,0.3972200114961163,inf,0.34406360311841755,0.004658275290484265,True,ep013_step002,False,False,True,-0.39759916931969336,-2.0363216106618363,1.9688720593553608,-1.5019139503511671,-1.5699995604006818,-0.3979843714559276
13,3,0.7500000000000001,0.7500125736661709,16.0,0.36265765684611667,inf,0.2940636031184175,0.004143162237203038,True,ep013_step003,False,False,True,-0.3559145818388143,-1.942184148059434,1.9157477500180542,-1.5428007376744202,-1.5701623792846198,-0.3551781178650099
13,4,0.8000000000000002,0.8000176432805527,13.0,0.3108141248711172,inf,0.24406360311841746,0.05556256799822724,False,ep013_step004,False,False,True,-0.3222635464594593,-1.8512573785587165,1.8561487764526605,-1.57472729285862,-1.5704263758040753,-0.32120842798532245
13,5,0.8500000000000002,0.8500235798860047,21.0,0.44906354347111577,inf,0.19406360311841742,0.04390176658386019,True,ep013_step005,False,False,True,-0.2945928842297702,-1.7629644877008555,1.79018067040535,-1.5978585796301343,-1.5702782760485732,-0.2936959795476594
13,6,0.9000000000000002,0.9000300558224845,24.0,0.5009070754461152,inf,0.14406360311841737,0.09073748133859062,False,ep013_step006,False,False,True,-0.27115185267695463,-1.6765115646744237,1.7174822973979744,-1.611606507748676,-1.5712501241795143,-0.27084313925875253
13,7,0.9500000000000003,0.9500381445758157,20.0,0.431782366146116,inf,0.09406360311841733,0.04338183706939643,True,ep013_step007,False,False,True,-0.2515410449359567,-1.591526688199916,1.6380952332740333,-1.6164320849088567,-1.5701290805608197,-0.25111172552163513
14,0,0.6,0.5999998509440152,24.0,0.5009070754461152,inf,0.4211509617908321,0.005371481773905817,True,ep014_step000,False,False,True,-0.5204884945273844,-2.2357968911138335,2.053048796509201,-1.38669081607142,-1.5715990109118338,-0.520625194614212
14,1,0.65,0.6500030088943827,19.0,0.41450118882111614,inf,0.37115096179083207,0.00779820142471063,True,ep014_step001,False,False,True,-0.4505453345505175,-2.133868620733503,2.0146885966875834,-1.4498058208938405,-1.5705149052021627,-0.45033147375795185
14,2,0.7000000000000001,0.7000078566784489,17.0,0.37993883417111646,inf,0.321150961790832,0.016044319669046733,True,ep014_step002,False,False,True,-0.39759916931969336,-2.0363216106618363,1.9688720593553608,-1.5019139503511671,-1.5699995604006818,-0.3979843714559276
14,3,0.7500000000000001,0.7500125736661709,14.0,0.328095302196117,inf,0.271150961790832,0.0037537299857155672,True,ep014_step003,False,False,True,-0.3559145818388143,-1.942184148059434,1.9157477500180542,-1.5428007376744202,-1.5701623792846198,-0.3551781178650099
14,4,0.8000000000000002,0.8000176432805527,12.0,0.29353294754611736,inf,0.22115096179083193,0.041302812490106006,True,ep014_step004,False,False,True,-0.3222635464594593,-1.8512573785587165,1.8561487764526605,-1.57472729285862,-1.5704263758040753,-0.32120842798532245
14,5,0.8500000000000002,0.8500235798860047,27.0,0.5527506074211147,inf,0.1711509617908319,0.04429029551387136,True,ep014_step005,False,False,True,-0.2945928842297702,-1.7629644877008555,1.79018067040535,-1.5978585796301343,-1.5702782760485732,-0.2936959795476594
14,6,0.9000000000000002,0.9000300558224845,21.0,0.44906354347111577,inf,0.12115096179083185,0.013290004637184511,True,ep014_step006,False,False,True,-0.27115185267695463,-1.6765115646744237,1.7174822973979744,-1.611606507748676,-1.5712501241795143,-0.27084313925875253
14,7,0.9500000000000003,0.9500381445758157,21.0,0.44906354347111577,inf,0.0711509617908318,0.08972134293765853,False,ep014_step007,False,False,True,-0.2515410449359567,-1.591526688199916,1.6380952332740333,-1.6164320849088567,-1.5701290805608197,-0.25111172552163513
15,0,0.6,0.5999998509440152,24.0,0.5009070754461152,inf,0.45997547519971016,0.015204738510704134,True,ep015_step000,False,False,True,-0.5204884945273844,-2.2357968911138335,2.053048796509201,-1.38669081607142,-1.5715990109118338,-0.520625194614212
15,1,0.65,0.6500030088943827,21.0,0.44906354347111577,inf,0.4099754751997101,0.055206101515336586,False,ep015_step001,False,False,True,-0.4505453345505175,-2.133868620733503,2.0146885966875834,-1.4498058208938405,-1.5705149052021627,-0.45033147375795185
15,2,0.7000000000000001,0.7000078566784489,19.0,0.41450118882111614,inf,0.35997547519971007,0.0034463998164754265,True,ep015_step002,False,False,True,-0.39759916931969336,-2.0363216106618363,1.9688720593553608,-1.5019139503511671,-1.5699995604006818,-0.3979843714559276
15,3,0.7500000000000001,0.7500125736661709,16.0,0.36265765684611667,inf,0.30997547519971,0.0037524247927432698,True,ep015_step003,False,False,True,-0.3559145818388143,-1.942184148059434,1.9157477500180542,-1.5428007376744202,-1.5701623792846198,-0.3551781178650099
15,4,0.8000000000000002,0.8000176432805527,14.0,0.328095302196117,inf,0.25997547519971,0.006883565930095604,True,ep015_step004,False,False,True,-0.3222635464594593,-1.8512573785587165,1.8561487764526605,-1.57472729285862,-1.5704263758040753,-0.32120842798532245
15,5,0.8500000000000002,0.8500235798860047,11.0,0.2762517702211175,inf,0.20997547519970994,0.0036634469060366588,True,ep015_step005,False,False,True,-0.2945928842297702,-1.7629644877008555,1.79018067040535,-1.5978585796301343,-1.5702782760485732,-0.2936959795476594
15,6,0.9000000000000002,0.9000300558224845,25.0,0.5181882527711151,inf,0.1599754751997099,0.03702269109294269,True,ep015_step006,False,False,True,-0.27115185267695463,-1.6765115646744237,1.7174822973979744,-1.611606507748676,-1.5712501241795143,-0.27084313925875253
15,7,0.9500000000000003,0.9500381445758157,21.0,0.44906354347111577,inf,0.10997547519970985,0.14068525338178975,False,ep015_step007,False,False,True,-0.2515410449359567,-1.591526688199916,1.6380952332740333,-1.6164320849088567,-1.5701290805608197,-0.25111172552163513
16,0,0.6,0.5999998509440152,30.0,0.6045941393961142,inf,0.5418372525363654,0.009766237327023431,True,ep016_step000,False,False,True,-0.5204884945273844,-2.2357968911138335,2.053048796509201,-1.38669081607142,-1.5715990109118338,-0.520625194614212
16,1,0.65,0.6500030088943827,26.0,0.5354694300961149,inf,0.49183725253636534,0.009469046081251703,True,ep016_step001,False,False,True,-0.4505453345505175,-2.133868620733503,2.0146885966875834,-1.4498058208938405,-1.5705149052021627,-0.45033147375795185
16,2,0.7000000000000001,0.7000078566784489,25.0,0.5181882527711151,inf,0.4418372525363653,0.10883692594906769,False,ep016_step002,False,False,True,-0.39759916931969336,-2.0363216106618363,1.9688720593553608,-1.5019139503511671,-1.5699995604006818,-0.3979843714559276
16,3,0.7500000000000001,0.7500125736661709,20.0,0.431782366146116,inf,0.39183725253636525,0.04763438752483741,True,ep016_step003,False,False,True,-0.3559145818388143,-1.942184148059434,1.9157477500180542,-1.5428007376744202,-1.5701623792846198,-0.3551781178650099
16,4,0.8000000000000002,0.8000176432805527,18.0,0.3972200114961163,inf,0.3418372525363652,0.05106224936450464,False,ep016_step004,False,False,True,-0.3222635464594593,-1.8512573785587165,1.8561487764526605,-1.57472729285862,-1.5704263758040753,-0.32120842798532245
16,5,0.8500000000000002,0.8500235798860047,15.0,0.34537647952111683,inf,0.29183725253636517,0.030868632999122007,True,ep016_step005,False,False,True,-0.2945928842297702,-1.7629644877008555,1.79018067040535,-1.5978585796301343,-1.5702782760485732,-0.2936959795476594
16,6,0.9000000000000002,0.9000300558224845,13.0,0.3108141248711172,inf,0.24183725253636512,0.01148859322668409,True,ep016_step006,False,False,True,-0.27115185267695463,-1.6765115646744237,1.7174822973979744,-1.611606507748676,-1.5712501241795143,-0.27084313925875253
16,7,0.9500000000000003,0.9500381445758157,24.0,0.5009070754461152,inf,0.19183725253636508,0.0026626484256070454,True,ep016_step007,False,False,True,-0.2515410449359567,-1.591526688199916,1.6380952332740333,-1.6164320849088567,-1.5701290805608197,-0.25111172552163513
17,0,0.6,0.5999998509440152,32.0,0.6391564940461139,inf,0.5861494804119299,0.04391780886218234,True,ep017_step000,False,False,True,-0.5204884945273844,-2.2357968911138335,2.053048796509201,-1.38669081607142,-1.5715990109118338,-0.520625194614212
17,1,0.65,0.6500030088943827,28.0,0.5700317847461146,inf,0.5361494804119299,0.08448233244621807,False,ep017_step001,False,False,True,-0.4505453345505175,-2.133868620733503,2.0146885966875834,-1.4498058208938405,-1.5705149052021627,-0.45033147375795185
17,2,0.7000000000000001,0.7000078566784489,27.0,0.5527506074211147,inf,0.48614948041192985,0.01248958066870765,True,ep017_step002,False,False,True,-0.39759916931969336,-2.0363216106618363,1.9688720593553608,-1.5019139503511671,-1.5699995604006818,-0.3979843714559276
17,3,0.7500000000000001,0.7500125736661709,23.0,0.48362589812111545,inf,0.4361494804119298,0.07670341011625845,False,ep017_step003,False,False,True,-0.3559145818388143,-1.942184148059434,1.9157477500180542,-1.5428007376744202,-1.5701623792846198,-0.3551781178650099
17,4,0.8000000000000002,0.8000176432805527,20.0,0.431782366146116,inf,0.38614948041192976,0.08419288986902498,False,ep017_step004,False,False,True,-0.3222635464594593,-1.8512573785587165,1.8561487764526605,-1.57472729285862,-1.5704263758040753,-0.32120842798532245
17,5,0.8500000000000002,0.8500235798860047,18.0,0.3972200114961163,inf,0.3361494804119297,0.0016105990670206495,True,ep017_step005,False,False,True,-0.2945928842297702,-1.7629644877008555,1.79018067040535,-1.5978585796301343,-1.5702782760485732,-0.2936959795476594
17,6,0.9000000000000002,0.9000300558224845,15.0,0.34537647952111683,inf,0.28614948041192967,0.04225791105654219,True,ep017_step006,False,False,True,-0.27115185267695463,-1.6765115646744237,1.7174822973979744,-1.611606507748676,-1.5712501241795143,-0.27084313925875253
17,7,0.9500000000000003,0.9500381445758157,13.0,0.3108141248711172,inf,0.23614948041192962,0.012190482928423802,True,ep017_step007,False,False,True,-0.2515410449359567,-1.591526688199916,1.6380952332740333,-1.6164320849088567,-1.5701290805608197,-0.25111172552163513
18,0,0.6,0.5999998509440152,30.0,0.6045941393961142,inf,0.5483731175185204,0.040944780905183935,True,ep018_step000,False,False,True,-0.5204884945273844,-2.2357968911138335,2.053048796509201,-1.38669081607142,-1.5715990109118338,-0.520625194614212
18,1,0.65,0.6500030088943827,26.0,0.5354694300961149,inf,0.4983731175185203,0.046137595107933596,True,ep018_step001,False,False,True,-0.4505453345505175,-2.133868620733503,2.0146885966875834,-1.4498058208938405,-1.5705149052021627,-0.45033147375795185
18,2,0.7000000000000001,0.7000078566784489,25.0,0.5181882527711151,inf,0.44837311751852027,0.023752068646971554,True,ep018_step002,False,False,True,-0.39759916931969336,-2.0363216106618363,1.9688720593553608,-1.5019139503511671,-1.5699995604006818,-0.3979843714559276
18,3,0.7500000000000001,0.7500125736661709,23.0,0.48362589812111545,inf,0.3983731175185202,0.026898179587075643,True,ep018_step003,False,False,True,-0.3559145818388143,-1.942184148059434,1.9157477500180542,-1.5428007376744202,-1.5701623792846198,-0.3551781178650099
18,4,0.8000000000000002,0.8000176432805527,18.0,0.3972200114961163,inf,0.3483731175185202,0.000892424844253343,True,ep018_step004,False,False,True,-0.3222635464594593,-1.8512573785587165,1.8561487764526605,-1.57472729285862,-1.5704263758040753,-0.32120842798532245
18,5,0.8500000000000002,0.8500235798860047,16.0,0.36265765684611667,inf,0.29837311751852014,0.0014642917350736625,True,ep018_step005,False,False,True,-0.2945928842297702,-1.7629644877008555,1.79018067040535,-1.5978585796301343,-1.5702782760485732,-0.2936959795476594
18,6,0.9000000000000002,0.9000300558224845,13.0,0.3108141248711172,inf,0.2483731175185201,0.011704196427223241,True,ep018_step006,False,False,True,-0.27115185267695463,-1.6765115646744237,1.7174822973979744,-1.611606507748676,-1.5712501241795143,-0.27084313925875253
18,7,0.9500000000000003,0.9500381445758157,11.0,0.2762517702211175,inf,0.19837311751852005,0.020768683556136792,True,ep018_step007,False,False,True,-0.2515410449359567,-1.591526688199916,1.6380952332740333,-1.6164320849088567,-1.5701290805608197,-0.25111172552163513
19,0,0.6,0.5999998509440152,31.0,0.6218753167211141,inf,0.5649660667830513,0.014591411989812059,True,ep019_step000,False,False,True,-0.5204884945273844,-2.2357968911138335,2.053048796509201,-1.38669081607142,-1.5715990109118338,-0.520625194614212
19,1,0.65,0.6500030088943827,27.0,0.5527506074211147,inf,0.5149660667830512,0.08803353514404016,False,ep019_step001,False,False,True,-0.4505453345505175,-2.133868620733503,2.0146885966875834,-1.4498058208938405,-1.5705149052021627,-0.45033147375795185
19,2,0.7000000000000001,0.7000078566784489,26.0,0.5354694300961149,inf,0.4649660667830512,0.06836575748037683,False,ep019_step002,False,False,True,-0.39759916931969336,-2.0363216106618363,1.9688720593553608,-1.5019139503511671,-1.5699995604006818,-0.3979843714559276
19,3,0.7500000000000001,0.7500125736661709,24.0,0.5009070754461152,inf,0.41496606678305115,0.05395441244499536,False,ep019_step003,False,False,True,-0.3559145818388143,-1.942184148059434,1.9157477500180542,-1.5428007376744202,-1.5701623792846198,-0.3551781178650099
19,4,0.8000000000000002,0.8000176432805527,19.0,0.41450118882111614,inf,0.3649660667830511,0.011362769305187816,True,ep019_step004,False,False,True,-0.3222635464594593,-1.8512573785587165,1.8561487764526605,-1.57472729285862,-1.5704263758040753,-0.32120842798532245
19,5,0.8500000000000002,0.8500235798860047,17.0,0.37993883417111646,inf,0.31496606678305106,0.00794607673510804,True,ep019_step005,False,False,True,-0.2945928842297702,-1.7629644877008555,1.79018067040535,-1.5978585796301343,-1.5702782760485732,-0.2936959795476594
19,6,0.9000000000000002,0.9000300558224845,14.0,0.328095302196117,inf,0.264966066783051,0.01152081987445624,True,ep019_step006,False,False,True,-0.27115185267695463,-1.6765115646744237,1.7174822973979744,-1.611606507748676,-1.5712501241795143,-0.27084313925875253
19,7,0.9500000000000003,0.9500381445758157,12.0,0.29353294754611736,inf,0.21496606678305097,0.06098670160236416,False,ep019_step007,False,False,True,-0.2515410449359567,-1.591526688199916,1.6380952332740333,-1.6164320849088567,-1.5701290805608197,-0.25111172552163513
20,0,0.6,0.5999998509440152,25.0,0.5181882527711151,inf,0.47611058276331863,0.04937797436846164,True,ep020_step000,False,False,True,-0.5204884945273844,-2.2357968911138335,2.053048796509201,-1.38669081607142,-1.5715990109118338,-0.520625194614212
20,1,0.65,0.6500030088943827,22.0,0.4663447207961156,inf,0.4261105827633186,0.07081365981769155,False,ep020_step001,False,False,True,-0.4505453345505175,-2.133868620733503,2.0146885966875834,-1.4498058208938405,-1.5705149052021627,-0.45033147375795185
20,2,0.7000000000000001,0.7000078566784489,20.0,0.431782366146116,inf,0.37611058276331855,0.03106102108247488,True,ep020_step002,False,False,True,-0.39759916931969336,-2.0363216106618363,1.9688720593553608,-1.5019139503511671,-1.5699995604006818,-0.3979843714559276
20,3,0.7500000000000001,0.7500125736661709,17.0,0.37993883417111646,inf,0.3261105827633185,0.04355038568459374,True,ep020_step003,False,False,True,-0.3559145818388143,-1.942184148059434,1.9157477500180542,-1.5428007376744202,-1.5701623792846198,-0.3551781178650099
20,4,0.8000000000000002,0.8000176432805527,15.0,0.34537647952111683,inf,0.27611058276331846,0.017075178887648337,True,ep020_step004,False,False,True,-0.3222635464594593,-1.8512573785587165,1.8561487764526605,-1.57472729285862,-1.5704263758040753,-0.32120842798532245
20,5,0.8500000000000002,0.8500235798860047,12.0,0.29353294754611736,inf,0.2261105827633184,0.11811936992849109,False,ep020_step005,False,False,True,-0.2945928842297702,-1.7629644877008555,1.79018067040535,-1.5978585796301343,-1.5702782760485732,-0.2936959795476594
20,6,0.9000000000000002,0.9000300558224845,25.0,0.5181882527711151,inf,0.17611058276331837,0.0011088698562390642,True,ep020_step006,False,False,True,-0.27115185267695463,-1.6765115646744237,1.7174822973979744,-1.611606507748676,-1.5712501241795143,-0.27084313925875253
20,7,0.9500000000000003,0.9500381445758157,21.0,0.44906354347111577,inf,0.12611058276331832,0.07754276062183876,False,ep020_step007,False,False,True,-0.2515410449359567,-1.591526688199916,1.6380952332740333,-1.6164320849088567,-1.5701290805608197,-0.25111172552163513
21,0,0.6,0.5999998509440152,28.0,0.5700317847461146,inf,0.5581031627096914,0.05376505628784591,False,ep021_step000,False,False,True,-0.5204884945273844,-2.2357968911138335,2.053048796509201,-1.38669081607142,-1.5715990109118338,-0.520625194614212
21,1,0.65,0.6500030088943827,28.0,0.5700317847461146,inf,0.5081031627096914,0.10292947307731598,False,ep021_step001,False,False,True,-0.4505453345505175,-2.133868620733503,2.0146885966875834,-1.4498058208938405,-1.5705149052021627,-0.45033147375795185
21,2,0.7000000000000001,0.7000078566784489,24.0,0.5009070754461152,inf,0.4581031627096913,0.04909865780028919,True,ep021_step002,False,False,True,-0.39759916931969336,-2.0363216106618363,1.9688720593553608,-1.5019139503511671,-1.5699995604006818,-0.3979843714559276
21,3,0.7500000000000001,0.7500125736661709,21.0,0.44906354347111577,inf,0.40810316270969127,0.08258560553868935,False,ep021_step003,False,False,True,-0.3559145818388143,-1.942184148059434,1.9157477500180542,-1.5428007376744202,-1.5701623792846198,-0.3551781178650099
21,4,0.8000000000000002,0.8000176432805527,19.0,0.41450118882111614,inf,0.3581031627096912,0.015226462405488073,True,ep021_step004,False,False,True,-0.3222635464594593,-1.8512573785587165,1.8561487764526605,-1.57472729285862,-1.5704263758040753,-0.32120842798532245
21,5,0.8500000000000002,0.8500235798860047,16.0,0.36265765684611667,inf,0.3081031627096912,0.023782517471444067,True,ep021_step005,False,False,True,-0.2945928842297702,-1.7629644877008555,1.79018067040535,-1.5978585796301343,-1.5702782760485732,-0.2936959795476594
21,6,0.9000000000000002,0.9000300558224845,14.0,0.328095302196117,inf,0.25810316270969114,0.008787344393882467,True,ep021_step006,False,False,True,-0.27115185267695463,-1.6765115646744237,1.7174822973979744,-1.611606507748676,-1.5712501241795143,-0.27084313925875253
21,7,0.9500000000000003,0.9500381445758157,11.0,0.2762517702211175,inf,0.2081031627096911,0.07207149962299908,False,ep021_step007,False,False,True,-0.2515410449359567,-1.591526688199916,1.6380952332740333,-1.6164320849088567,-1.5701290805608197,-0.25111172552163513
22,0,0.6,0.5999998509440152,29.0,0.5873129620711144,inf,0.5274007884428576,0.08286603217291115,False,ep022_step000,False,False,True,-0.5204884945273844,-2.2357968911138335,2.053048796509201,-1.38669081607142,-1.5715990109118338,-0.520625194614212
22,1,0.65,0.6500030088943827,25.0,0.5181882527711151,inf,0.4774007884428576,0.0797350551271686,False,ep022_step001,False,False,True,-0.4505453345505175,-2.133868620733503,2.0146885966875834,-1.4498058208938405,-1.5705149052021627,-0.45033147375795185
22,2,0.7000000000000001,0.7000078566784489,24.0,0.5009070754461152,inf,0.42740078844285756,0.07816336812211105,False,ep022_step002,False,False,True,-0.39759916931969336,-2.0363216106618363,1.9688720593553608,-1.5019139503511671,-1.5699995604006818,-0.3979843714559276
22,3,0.7500000000000001,0.7500125736661709,20.0,0.431782366146116,inf,0.3774007884428575,0.006816044858200903,True,ep022_step003,False,False,True,-0.3559145818388143,-1.942184148059434,1.9157477500180542,-1.5428007376744202,-1.5701623792846198,-0.3551781178650099
22,4,0.8000000000000002,0.8000176432805527,17.0,0.37993883417111646,inf,0.32740078844285747,0.011973422491800216,True,ep022_step004,False,False,True,-0.3222635464594593,-1.8512573785587165,1.8561487764526605,-1.57472729285862,-1.5704263758040753,-0.32120842798532245
22,5,0.8500000000000002,0.8500235798860047,15.0,0.34537647952111683,inf,0.2774007884428574,0.01989405622075206,True,ep022_step005,False,False,True,-0.2945928842297702,-1.7629644877008555,1.79018067040535,-1.5978585796301343,-1.5702782760485732,-0.2936959795476594
22,6,0.9000000000000002,0.9000300558224845,12.0,0.29353294754611736,inf,0.22740078844285738,0.0664529181412677,False,ep022_step006,False,False,True,-0.27115185267695463,-1.6765115646744237,1.7174822973979744,-1.611606507748676,-1.5712501241795143,-0.27084313925875253
22,7,0.9500000000000003,0.9500381445758157,26.0,0.5354694300961149,inf,0.17740078844285734,0.06689303000456183,False,ep022_step007,False,False,True,-0.2515410449359567,-1.591526688199916,1.6380952332740333,-1.6164320849088567,-1.5701290805608197,-0.25111172552163513
23,0,0.6,0.5999998509440152,21.0,0.44906354347111577,inf,0.4100075138833478,0.0265062235669872,True,ep023_step000,False,False,True,-0.5204884945273844,-2.2357968911138335,2.053048796509201,-1.38669081607142,-1.5715990109118338,-0.520625194614212
23,1,0.65,0.6500030088943827,19.0,0.41450118882111614,inf,0.36000751388334773,0.026166004214637086,True,ep023_step001,False,False,True,-0.4505453345505175,-2.133868620733503,2.0146885966875834,-1.4498058208938405,-1.5705149052021627,-0.45033147375795185
23,2,0.7000000000000001,0.7000078566784489,16.0,0.36265765684611667,inf,0.3100075138833477,0.017013950555527797,True,ep023_step002,False,False,True,-0.39759916931969336,-2.0363216106618363,1.9688720593553608,-1.5019139503511671,-1.5699995604006818,-0.3979843714559276
23,3,0.7500000000000001,0.7500125736661709,14.0,0.328095302196117,inf,0.26000751388334764,0.039954096013223334,True,ep023_step003,False,False,True,-0.3559145818388143,-1.942184148059434,1.9157477500180542,-1.5428007376744202,-1.5701623792846198,-0.3551781178650099
23,4,0.8000000000000002,0.8000176432805527,11.0,0.2762517702211175,inf,0.2100075138833476,0.031461797806055306,True,ep023_step004,False,False,True,-0.3222635464594593,-1.8512573785587165,1.8561487764526605,-1.57472729285862,-1.5704263758040753,-0.32120842798532245
23,5,0.8500000000000002,0.8500235798860047,23.0,0.48362589812111545,inf,0.16000751388334755,0.00505191422707372,True,ep023_step005,False,False,True,-0.2945928842297702,-1.7629644877008555,1.79018067040535,-1.5978585796301343,-1.5702782760485732,-0.2936959795476594
23,6,0.9000000000000002,0.9000300558224845,21.0,0.44906354347111577,inf,0.11000751388334751,0.002494608957534127,True,ep023_step006,False,False,True,-0.27115185267695463,-1.6765115646744237,1.7174822973979744,-1.611606507748676,-1.5712501241795143,-0.27084313925875253
23,7,0.9500000000000003,0.9500381445758157,20.0,0.431782366146116,inf,0.06000751388334746,0.0582410167468028,False,ep023_step007,False,False,True,-0.2515410449359567,-1.591526688199916,1.6380952332740333,-1.6164320849088567,-1.5701290805608197,-0.25111172552163513
24,0,0.6,0.5999998509440152,29.0,0.5873129620711144,inf,0.5778790710983687,0.09499448823372844,False,ep024_step000,False,False,True,-0.5204884945273844,-2.2357968911138335,2.053048796509201,-1.38669081607142,-1.5715990109118338,-0.520625194614212
24,1,0.65,0.6500030088943827,29.0,0.5873129620711144,inf,0.5278790710983686,0.008750725973129604,True,ep024_step001,False,False,True,-0.4505453345505175,-2.133868620733503,2.0146885966875834,-1.4498058208938405,-1.5705149052021627,-0.45033147375795185
24,2,0.7000000000000001,0.7000078566784489,25.0,0.5181882527711151,inf,0.4778790710983686,0.001988907607145184,True,ep024_step002,False,False,True,-0.39759916931969336,-2.0363216106618363,1.9688720593553608,-1.5019139503511671,-1.5699995604006818,-0.3979843714559276
24,3,0.7500000000000001,0.7500125736661709,22.0,0.4663447207961156,inf,0.42787907109836854,0.022582890768050964,True,ep024_step003,False,False,True,-0.3559145818388143,-1.942184148059434,1.9157477500180542,-1.5428007376744202,-1.5701623792846198,-0.3551781178650099
24,4,0.8000000000000002,0.8000176432805527,20.0,0.431782366146116,inf,0.3778790710983685,0.007206146960600438,True,ep024_step004,False,False,True,-0.3222635464594593,-1.8512573785587165,1.8561487764526605,-1.57472729285862,-1.5704263758040753,-0.32120842798532245
24,5,0.8500000000000002,0.8500235798860047,17.0,0.37993883417111646,inf,0.32787907109836845,0.005585823825060473,True,ep024_step005,False,False,True,-0.2945928842297702,-1.7629644877008555,1.79018067040535,-1.5978585796301343,-1.5702782760485732,-0.2936959795476594
24,6,0.9000000000000002,0.9000300558224845,15.0,0.34537647952111683,inf,0.2778790710983684,0.018584111961737093,True,ep024_step006,False,False,True,-0.27115185267695463,-1.6765115646744237,1.7174822973979744,-1.611606507748676,-1.5712501241795143,-0.27084313925875253
24,7,0.9500000000000003,0.9500381445758157,12.0,0.29353294754611736,inf,0.22787907109836836,0.02465279284701505,True,ep024_step007,False,False,True,-0.2515410449359567,-1.591526688199916,1.6380952332740333,-1.6164320849088567,-1.5701290805608197,-0.25111172552163513
25,0,0.6,0.5999998509440152,34.0,0.6737188486961135,inf,0.670849909301429,0.03180317441824534,True,ep025_step000,False,False,True,-0.5204884945273844,-2.2357968911138335,2.053048796509201,-1.38669081607142,-1.5715990109118338,-0.520625194614212
25,1,0.65,0.6500030088943827,34.0,0.6737188486961135,inf,0.6208499093014289,0.0625243946701972,False,ep025_step001,False,False,True,-0.4505453345505175,-2.133868620733503,2.0146885966875834,-1.4498058208938405,-1.5705149052021627,-0.45033147375795185
25,2,0.7000000000000001,0.7000078566784489,30.0,0.6045941393961142,inf,0.5708499093014289,0.020933084959158986,True,ep025_step002,False,False,True,-0.39759916931969336,-2.0363216106618363,1.9688720593553608,-1.5019139503511671,-1.5699995604006818,-0.3979843714559276
25,3,0.7500000000000001,0.7500125736661709,29.0,0.5873129620711144,inf,0.5208499093014288,0.061262060182776405,False,ep025_step003,False,False,True,-0.3559145818388143,-1.942184148059434,1.9157477500180542,-1.5428007376744202,-1.5701623792846198,-0.3551781178650099
25,4,0.8000000000000002,0.8000176432805527,26.0,0.5354694300961149,inf,0.4708499093014288,0.04247517306879255,True,ep025_step004,False,False,True,-0.3222635464594593,-1.8512573785587165,1.8561487764526605,-1.57472729285862,-1.5704263758040753,-0.32120842798532245
25,5,0.8500000000000002,0.8500235798860047,24.0,0.5009070754461152,inf,0.42084990930142874,0.029850041975486075,True,ep025_step005,False,False,True,-0.2945928842297702,-1.7629644877008555,1.79018067040535,-1.5978585796301343,-1.5702782760485732,-0.2936959795476594
25,6,0.9000000000000002,0.9000300558224845,19.0,0.41450118882111614,inf,0.3708499093014287,0.005600704441237062,True,ep025_step006,False,False,True,-0.27115185267695463,-1.6765115646744237,1.7174822973979744,-1.611606507748676,-1.5712501241795143,-0.27084313925875253
25,7,0.9500000000000003,0.9500381445758157,17.0,0.37993883417111646,inf,0.32084990930142865,0.011474460747600354,True,ep025_step007,False,False,True,-0.2515410449359567,-1.591526688199916,1.6380952332740333,-1.6164320849088567,-1.5701290805608197,-0.25111172552163513
26,0,0.6,0.5999998509440152,28.0,0.5700317847461146,inf,0.535804820973293,0.10178646687759861,False,ep026_step000,False,False,True,-0.5204884945273844,-2.2357968911138335,2.053048796509201,-1.38669081607142,-1.5715990109118338,-0.520625194614212
26,1,0.65,0.6500030088943827,27.0,0.5527506074211147,inf,0.4858048209732929,0.0031870721386314813,True,ep026_step001,False,False,True,-0.4505453345505175,-2.133868620733503,2.0146885966875834,-1.4498058208938405,-1.5705149052021627,-0.45033147375795185
26,2,0.7000000000000001,0.7000078566784489,23.0,0.48362589812111545,inf,0.4358048209732929,0.03579497699313769,True,ep026_step002,False,False,True,-0.39759916931969336,-2.0363216106618363,1.9688720593553608,-1.5019139503511671,-1.5699995604006818,-0.3979843714559276
26,3,0.7500000000000001,0.7500125736661709,20.0,0.431782366146116,inf,0.38580482097329283,0.07004387861381617,False,ep026_step003,False,False,True,-0.3559145818388143,-1.942184148059434,1.9157477500180542,-1.5428007376744202,-1.5701623792846198,-0.3551781178650099
26,4,0.8000000000000002,0.8000176432805527,18.0,0.3972200114961163,inf,0.3358048209732928,0.007312525714543401,True,ep026_step004,False,False,True,-0.3222635464594593,-1.8512573785587165,1.8561487764526605,-1.57472729285862,-1.5704263758040753,-0.32120842798532245
26,5,0.8500000000000002,0.8500235798860047,15.0,0.34537647952111683,inf,0.28580482097329274,0.0023082766146262975,True,ep026_step005,False,False,True,-0.2945928842297702,-1.7629644877008555,1.79018067040535,-1.5978585796301343,-1.5702782760485732,-0.2936959795476594
26,6,0.9000000000000002,0.9000300558224845,13.0,0.3108141248711172,inf,0.2358048209732927,0.0811480862193545,False,ep026_step006,False,False,True,-0.27115185267695463,-1.6765115646744237,1.7174822973979744,-1.611606507748676,-1.5712501241795143,-0.27084313925875253
26,7,0.9500000000000003,0.9500381445758157,26.0,0.5354694300961149,inf,0.18580482097329265,0.0393920609264666,True,ep026_step007,False,False,True,-0.2515410449359567,-1.591526688199916,1.6380952332740333,-1.6164320849088567,-1.5701290805608197,-0.25111172552163513
27,0,0.6,0.5999998509440152,23.0,0.48362589812111545,inf,0.43393511873375623,0.10655228478396203,False,ep027_step000,False,False,True,-0.5204884945273844,-2.2357968911138335,2.053048796509201,-1.38669081607142,-1.5715990109118338,-0.520625194614212
27,1,0.65,0.6500030088943827,20.0,0.431782366146116,inf,0.3839351187337562,0.00796410847364233,True,ep027_step001,False,False,True,-0.4505453345505175,-2.133868620733503,2.0146885966875834,-1.4498058208938405,-1.5705149052021627,-0.45033147375795185
27,2,0.7000000000000001,0.7000078566784489,18.0,0.3972200114961163,inf,0.33393511873375614,0.008834638822968857,True,ep027_step002,False,False,True,-0.39759916931969336,-2.0363216106618363,1.9688720593553608,-1.5019139503511671,-1.5699995604006818,-0.3979843714559276
27,3,0.7500000000000001,0.7500125736661709,15.0,0.34537647952111683,inf,0.2839351187337561,0.002806867699915372,True,ep027_step003,False,False,True,-0.3559145818388143,-1.942184148059434,1.9157477500180542,-1.5428007376744202,-1.5701623792846198,-0.3551781178650099
27,4,0.8000000000000002,0.8000176432805527,13.0,0.3108141248711172,inf,0.23393511873375605,0.043945210299252246,True,ep027_step004,False,False,True,-0.3222635464594593,-1.8512573785587165,1.8561487764526605,-1.57472729285862,-1.5704263758040753,-0.32120842798532245
27,5,0.8500000000000002,0.8500235798860047,24.0,0.5009070754461152,inf,0.183935118733756,0.039413532111279764,True,ep027_step005,False,False,True,-0.2945928842297702,-1.7629644877008555,1.79018067040535,-1.5978585796301343,-1.5702782760485732,-0.2936959795476594
27,6,0.9000000000000002,0.9000300558224845,23.0,0.48362589812111545,inf,0.13393511873375596,0.01336294141461728,True,ep027_step006,False,False,True,-0.27115185267695463,-1.6765115646744237,1.7174822973979744,-1.611606507748676,-1.5712501241795143,-0.27084313925875253
27,7,0.9500000000000003,0.9500381445758157,21.0,0.44906354347111577,inf,0.08393511873375592,0.011828984927431088,True,ep027_step007,False,False,True,-0.2515410449359567,-1.591526688199916,1.6380952332740333,-1.6164320849088567,-1.5701290805608197,-0.25111172552163513
28,0,0.6,0.5999998509440152,27.0,0.5527506074211147,inf,0.48197969586595113,0.027193347175646414,True,ep028_step000,False,False,True,-0.5204884945273844,-2.2357968911138335,2.053048796509201,-1.38669081607142,-1.5715990109118338,-0.520625194614212
28,1,0.65,0.6500030088943827,23.0,0.48362589812111545,inf,0.4319796958659511,0.06745747613538089,False,ep028_step001,False,False,True,-0.4505453345505175,-2.133868620733503,2.0146885966875834,-1.4498058208938405,-1.5705149052021627,-0.45033147375795185
28,2,0.7000000000000001,0.7000078566784489,20.0,0.431782366146116,inf,0.38197969586595104,0.008680457898430862,True,ep028_step002,False,False,True,-0.39759916931969336,-2.0363216106618363,1.9688720593553608,-1.5019139503511671,-1.5699995604006818,-0.3979843714559276
28,3,0.7500000000000001,0.7500125736661709,17.0,0.37993883417111646,inf,0.331979695865951,0.013115234546109909,True,ep028_step003,False,False,True,-0.3559145818388143,-1.942184148059434,1.9157477500180542,-1.5428007376744202,-1.5701623792846198,-0.3551781178650099
28,4,0.8000000000000002,0.8000176432805527,15.0,0.34537647952111683,inf,0.28197969586595095,0.022665932067813598,True,ep028_step004,False,False,True,-0.3222635464594593,-1.8512573785587165,1.8561487764526605,-1.57472729285862,-1.5704263758040753,-0.32120842798532245
28,5,0.8500000000000002,0.8500235798860047,13.0,0.3108141248711172,inf,0.2319796958659509,0.031114329097612956,True,ep028_step005,False,False,True,-0.2945928842297702,-1.7629644877008555,1.79018067040535,-1.5978585796301343,-1.5702782760485732,-0.2936959795476594
28,6,0.9000000000000002,0.9000300558224845,26.0,0.5354694300961149,inf,0.18197969586595086,0.04910330427685904,True,ep028_step006,False,False,True,-0.27115185267695463,-1.6765115646744237,1.7174822973979744,-1.611606507748676,-1.5712501241795143,-0.27084313925875253
28,7,0.9500000000000003,0.9500381445758157,20.0,0.431782366146116,inf,0.13197969586595082,0.06359101390306748,False,ep028_step007,False,False,True,-0.2515410449359567,-1.591526688199916,1.6380952332740333,-1.6164320849088567,-1.5701290805608197,-0.25111172552163513
29,0,0.6,0.5999998509440152,26.0,0.5354694300961149,inf,0.46685973994376184,0.05550500153600511,False,ep029_step000,False,False,True,-0.5204884945273844,-2.2357968911138335,2.053048796509201,-1.38669081607142,-1.5715990109118338,-0.520625194614212
29,1,0.65,0.6500030088943827,24.0,0.5009070754461152,inf,0.4168597399437618,0.02216281788290617,True,ep029_step001,False,False,True,-0.4505453345505175,-2.133868620733503,2.0146885966875834,-1.4498058208938405,-1.5705149052021627,-0.45033147375795185
29,2,0.7000000000000001,0.7000078566784489,19.0,0.41450118882111614,inf,0.36685973994376175,0.02375462646289096,True,ep029_step002,False,False,True,-0.39759916931969336,-2.0363216106618363,1.9688720593553608,-1.5019139503511671,-1.5699995604006818,-0.3979843714559276
29,3,0.7500000000000001,0.7500125736661709,17.0,0.37993883417111646,inf,0.3168597399437617,0.004448709081915886,True,ep029_step003,False,False,True,-0.3559145818388143,-1.942184148059434,1.9157477500180542,-1.5428007376744202,-1.5701623792846198,-0.3551781178650099
29,4,0.8000000000000002,0.8000176432805527,14.0,0.328095302196117,inf,0.26685973994376166,0.03464803620577506,True,ep029_step004,False,False,True,-0.3222635464594593,-1.8512573785587165,1.8561487764526605,-1.57472729285862,-1.5704263758040753,-0.32120842798532245
29,5,0.8500000000000002,0.8500235798860047,12.0,0.29353294754611736,inf,0.21685973994376162,0.007251423731383841,True,ep029_step005,False,False,True,-0.2945928842297702,-1.7629644877008555,1.79018067040535,-1.5978585796301343,-1.5702782760485732,-0.2936959795476594
29,6,0.9000000000000002,0.9000300558224845,24.0,0.5009070754461152,inf,0.16685973994376158,0.08810826658249121,False,ep029_step006,False,False,True,-0.27115185267695463,-1.6765115646744237,1.7174822973979744,-1.611606507748676,-1.5712501241795143,-0.27084313925875253
29,7,0.9500000000000003,0.9500381445758157,21.0,0.44906354347111577,inf,0.11685973994376153,0.055209221739131745,False,ep029_step007,False,False,True,-0.2515410449359567,-1.591526688199916,1.6380952332740333,-1.6164320849088567,-1.5701290805608197,-0.25111172552163513
