sakiwatashi/newisac6.0acoustic/clean/runtime/outputs/v2_d3_grasp_r3/closed/steps.csv
episode,step,sensor_x,sensor_x_actual,peak_idx,d3d_est,d_horiz_est,oracle_horiz_dist,drift,stationarity_ok,waveform_tag,posture_violation,sensor_pose_violation,ik_ok,q_shoulder_pan,q_shoulder_lift,q_elbow,q_wrist_1,q_wrist_2,q_wrist_3
0,0,0.6,0.5999971389716996,30.0,0.5833319785879489,0.5515217105820326,0.5268428284417602,0.0866931501650655,False,ep000_step000,False,False,True,-0.5204884945273844,-2.2357968911138335,2.053048796509201,-1.38669081607142,-1.5715990109118338,-0.520625194614212
0,1,0.65,0.6500013420496763,26.0,0.514513863918283,0.4781469608437572,0.4768428284417602,0.08124756255762204,False,ep000_step001,False,False,True,-0.4505453345505175,-2.133868620733503,2.0146885966875834,-1.4498058208938405,-1.5705149052021627,-0.45033147375795185
0,2,0.7000000000000001,0.7000075242920418,23.0,0.4629002779160337,0.4221097810934275,0.42684282844176014,0.057049543251218575,False,ep000_step002,False,False,True,-0.39759916931969336,-2.0363216106618363,1.9688720593553608,-1.5019139503511671,-1.5699995604006818,-0.3979843714559276
0,3,0.7500000000000001,0.7500129656647858,20.0,0.41128669191378436,0.3647694380638052,0.3768428284417601,0.10734479806046465,False,ep000_step003,False,False,True,-0.3559145818388143,-1.942184148059434,1.9157477500180542,-1.5428007376744202,-1.5701623792846198,-0.3551781178650099
0,4,0.8000000000000002,0.8000195864590397,18.0,0.37687763457895146,0.3254792642332621,0.32684282844176005,0.02762136322741882,True,ep000_step004,False,False,True,-0.3222635464594593,-1.8512573785587165,1.8561487764526605,-1.57472729285862,-1.5704263758040753,-0.32120842798532245
1,0,0.6,0.5999971389716996,27.0,0.5317183925856995,0.49661297708972535,0.5015341648072437,0.02478979080200974,True,ep001_step000,False,False,True,-0.5204884945273844,-2.2357968911138335,2.053048796509201,-1.38669081607142,-1.5715990109118338,-0.520625194614212
1,1,0.65,0.6500013420496763,24.0,0.48010480658345017,0.4409088628101414,0.4515341648072436,0.07813416973131636,False,ep001_step001,False,False,True,-0.4505453345505175,-2.133868620733503,2.0146885966875834,-1.4498058208938405,-1.5705149052021627,-0.45033147375795185
1,2,0.7000000000000001,0.7000075242920418,24.0,0.48010480658345017,0.4409088628101414,0.4015341648072436,0.012656737137108545,True,ep001_step002,False,False,True,-0.39759916931969336,-2.0363216106618363,1.9688720593553608,-1.5019139503511671,-1.5699995604006818,-0.3979843714559276
1,3,0.7500000000000001,0.7500129656647858,19.0,0.3940821632463679,0.34525461820073744,0.35153416480724353,0.0070922415219400676,True,ep001_step003,False,False,True,-0.3559145818388143,-1.942184148059434,1.9157477500180542,-1.5428007376744202,-1.5701623792846198,-0.3551781178650099
2,0,0.6,0.5999970197635405,23.0,0.4629002779160337,0.4221097810934275,0.42268695035276627,0.11437799429675954,False,ep002_step000,False,False,True,-0.5204884945273844,-2.2357968911138335,2.053048796509201,-1.38669081607142,-1.5715990109118338,-0.520625194614212
2,1,0.65,0.6500013420496763,20.0,0.41128669191378436,0.3647694380638052,0.3726869503527662,0.019326861072607702,True,ep002_step001,False,False,True,-0.4505453345505175,-2.133868620733503,2.0146885966875834,-1.4498058208938405,-1.5705149052021627,-0.45033147375795185
2,2,0.7000000000000001,0.7000075242920418,17.0,0.359673105911535,0.30539276860471054,0.3226869503527662,0.026517477677768006,True,ep002_step002,False,False,True,-0.39759916931969336,-2.0363216106618363,1.9688720593553608,-1.5019139503511671,-1.5699995604006818,-0.3979843714559276
3,0,0.6,0.5999971091648704,24.0,0.48010480658345017,0.4409088628101414,0.44625086939266845,0.07223694518413092,False,ep003_step000,False,False,True,-0.5204884945273844,-2.2357968911138335,2.053048796509201,-1.38669081607142,-1.5715990109118338,-0.520625194614212
3,1,0.65,0.6500013420496763,21.0,0.4284912205812008,0.3840634402220124,0.3962508693926684,0.13654497242550329,False,ep003_step001,False,False,True,-0.4505453345505175,-2.133868620733503,2.0146885966875834,-1.4498058208938405,-1.5705149052021627,-0.45033147375795185
3,2,0.7000000000000001,0.7000075242920418,19.0,0.3940821632463679,0.34525461820073744,0.34625086939266836,0.02514376532929046,True,ep003_step002,False,False,True,-0.39759916931969336,-2.0363216106618363,1.9688720593553608,-1.5019139503511671,-1.5699995604006818,-0.3979843714559276
4,0,0.6,0.5999971091648704,23.0,0.4629002779160337,0.4221097810934275,0.43204507175210083,0.10088696486933107,False,ep004_step000,False,False,True,-0.5204884945273844,-2.2357968911138335,2.053048796509201,-1.38669081607142,-1.5715990109118338,-0.520625194614212
4,1,0.65,0.6500013420496763,23.0,0.4629002779160337,0.4221097810934275,0.3820450717521008,0.044656069457168775,True,ep004_step001,False,False,True,-0.4505453345505175,-2.133868620733503,2.0146885966875834,-1.4498058208938405,-1.5705149052021627,-0.45033147375795185
4,2,0.7000000000000001,0.7000075242920418,18.0,0.37687763457895146,0.3254792642332621,0.33204507175210074,0.039158236365871284,True,ep004_step002,False,False,True,-0.39759916931969336,-2.0363216106618363,1.9688720593553608,-1.5019139503511671,-1.5699995604006818,-0.3979843714559276
5,0,0.6,0.5999971091648704,25.0,0.4973093352508666,0.4595830446477098,0.42105007813429884,0.058714351011819335,False,ep005_step000,False,False,True,-0.5204884945273844,-2.2357968911138335,2.053048796509201,-1.38669081607142,-1.5715990109118338,-0.520625194614212
5,1,0.65,0.6500013420496763,20.0,0.41128669191378436,0.3647694380638052,0.3710500781342988,0.010258148935648404,True,ep005_step001,False,False,True,-0.4505453345505175,-2.133868620733503,2.0146885966875834,-1.4498058208938405,-1.5705149052021627,-0.45033147375795185
5,2,0.7000000000000001,0.7000075242920418,17.0,0.359673105911535,0.30539276860471054,0.32105007813429876,0.019989662583821163,True,ep005_step002,False,False,True,-0.39759916931969336,-2.0363216106618363,1.9688720593553608,-1.5019139503511671,-1.5699995604006818,-0.3979843714559276
6,0,0.6,0.5999971091648704,31.0,0.6005365072553653,0.5696877184444767,0.5454043529568543,0.01151862854958012,True,ep006_step000,False,False,True,-0.5204884945273844,-2.2357968911138335,2.053048796509201,-1.38669081607142,-1.5715990109118338,-0.520625194614212
6,1,0.65,0.6500013420496763,27.0,0.5317183925856995,0.49661297708972535,0.49540435295685425,0.040202716721106015,True,ep006_step001,False,False,True,-0.4505453345505175,-2.133868620733503,2.0146885966875834,-1.4498058208938405,-1.5705149052021627,-0.45033147375795185
6,2,0.7000000000000001,0.7000075242920418,24.0,0.48010480658345017,0.4409088628101414,0.4454043529568542,0.06900792799488664,False,ep006_step002,False,False,True,-0.39759916931969336,-2.0363216106618363,1.9688720593553608,-1.5019139503511671,-1.5699995604006818,-0.3979843714559276
6,3,0.7500000000000001,0.7500129656647858,21.0,0.4284912205812008,0.3840634402220124,0.39540435295685417,0.0022258501463782287,True,ep006_step003,False,False,True,-0.3559145818388143,-1.942184148059434,1.9157477500180542,-1.5428007376744202,-1.5701623792846198,-0.3551781178650099
6,4,0.8000000000000002,0.8000195864590397,19.0,0.3940821632463679,0.34525461820073744,0.3454043529568541,0.008437081722136724,True,ep006_step004,False,False,True,-0.3222635464594593,-1.8512573785587165,1.8561487764526605,-1.57472729285862,-1.5704263758040753,-0.32120842798532245
7,0,0.6,0.5999971091648704,24.0,0.48010480658345017,0.4409088628101414,0.4518935945491499,0.09205401936008703,False,ep007_step000,False,False,True,-0.5204884945273844,-2.2357968911138335,2.053048796509201,-1.38669081607142,-1.5715990109118338,-0.520625194614212
7,1,0.65,0.6500013420496763,24.0,0.48010480658345017,0.4409088628101414,0.40189359454914986,0.09913325730170564,False,ep007_step001,False,False,True,-0.4505453345505175,-2.133868620733503,2.0146885966875834,-1.4498058208938405,-1.5705149052021627,-0.45033147375795185
7,2,0.7000000000000001,0.7000075242920418,19.0,0.3940821632463679,0.34525461820073744,0.3518935945491498,0.008575163001436696,True,ep007_step002,False,False,True,-0.39759916931969336,-2.0363216106618363,1.9688720593553608,-1.5019139503511671,-1.5699995604006818,-0.3979843714559276
8,0,0.6,0.5999971091648704,26.0,0.514513863918283,0.4781469608437572,0.47632406923631876,0.026442359014270687,True,ep008_step000,False,False,True,-0.5204884945273844,-2.2357968911138335,2.053048796509201,-1.38669081607142,-1.5715990109118338,-0.520625194614212
8,1,0.65,0.6500013420496763,23.0,0.4629002779160337,0.4221097810934275,0.4263240692363187,0.02290875206863466,True,ep008_step001,False,False,True,-0.4505453345505175,-2.133868620733503,2.0146885966875834,-1.4498058208938405,-1.5705149052021627,-0.45033147375795185
8,2,0.7000000000000001,0.7000075242920418,20.0,0.41128669191378436,0.3647694380638052,0.37632406923631867,0.05208286026866294,False,ep008_step002,False,False,True,-0.39759916931969336,-2.0363216106618363,1.9688720593553608,-1.5019139503511671,-1.5699995604006818,-0.3979843714559276
8,3,0.7500000000000001,0.7500129656647858,18.0,0.37687763457895146,0.3254792642332621,0.3263240692363186,0.005194134900281243,True,ep008_step003,False,False,True,-0.3559145818388143,-1.942184148059434,1.9157477500180542,-1.5428007376744202,-1.5701623792846198,-0.3551781178650099
9,0,0.6,0.5999970197635405,31.0,0.6005365072553653,0.5696877184444767,0.5453601743861815,0.01874039987356739,True,ep009_step000,False,False,True,-0.5204884945273844,-2.2357968911138335,2.053048796509201,-1.38669081607142,-1.5715990109118338,-0.520625194614212
9,1,0.65,0.6500013420496763,27.0,0.5317183925856995,0.49661297708972535,0.4953601743861814,0.12674507120130576,False,ep009_step001,False,False,True,-0.4505453345505175,-2.133868620733503,2.0146885966875834,-1.4498058208938405,-1.5705149052021627,-0.45033147375795185
9,2,0.7000000000000001,0.7000075242920418,24.0,0.48010480658345017,0.4409088628101414,0.44536017438618136,0.07641671669397093,False,ep009_step002,False,False,True,-0.39759916931969336,-2.0363216106618363,1.9688720593553608,-1.5019139503511671,-1.5699995604006818,-0.3979843714559276
9,3,0.7500000000000001,0.7500129656647858,21.0,0.4284912205812008,0.3840634402220124,0.3953601743861813,0.029149483048352725,True,ep009_step003,False,False,True,-0.3559145818388143,-1.942184148059434,1.9157477500180542,-1.5428007376744202,-1.5701623792846198,-0.3551781178650099
9,4,0.8000000000000002,0.8000195864590397,19.0,0.3940821632463679,0.34525461820073744,0.3453601743861813,0.018037450242621426,True,ep009_step004,False,False,True,-0.3222635464594593,-1.8512573785587165,1.8561487764526605,-1.57472729285862,-1.5704263758040753,-0.32120842798532245
10,0,0.6,0.5999971091648704,27.0,0.5317183925856995,0.49661297708972535,0.5005112172132308,0.05303473765653667,False,ep010_step000,False,False,True,-0.5204884945273844,-2.2357968911138335,2.053048796509201,-1.38669081607142,-1.5715990109118338,-0.520625194614212
10,1,0.65,0.6500013420496763,24.0,0.48010480658345017,0.4409088628101414,0.45051121721323073,0.008837921086211804,True,ep010_step001,False,False,True,-0.4505453345505175,-2.133868620733503,2.0146885966875834,-1.4498058208938405,-1.5705149052021627,-0.45033147375795185
10,2,0.7000000000000001,0.7000075242920418,24.0,0.48010480658345017,0.4409088628101414,0.4005112172132307,0.08993132206122412,False,ep010_step002,False,False,True,-0.39759916931969336,-2.0363216106618363,1.9688720593553608,-1.5019139503511671,-1.5699995604006818,-0.3979843714559276
10,3,0.7500000000000001,0.7500129656647858,19.0,0.3940821632463679,0.34525461820073744,0.35051121721323064,0.029464708088696553,True,ep010_step003,False,False,True,-0.3559145818388143,-1.942184148059434,1.9157477500180542,-1.5428007376744202,-1.5701623792846198,-0.3551781178650099
11,0,0.6,0.5999971985678787,27.0,0.5317183925856995,0.49661297708972535,0.4978241922728436,0.05402260517836721,False,ep011_step000,False,False,True,-0.5204884945273844,-2.2357968911138335,2.053048796509201,-1.38669081607142,-1.5715990109118338,-0.520625194614212
11,1,0.65,0.6500013420496763,24.0,0.48010480658345017,0.4409088628101414,0.44782419227284354,0.03349996572002435,True,ep011_step001,False,False,True,-0.4505453345505175,-2.133868620733503,2.0146885966875834,-1.4498058208938405,-1.5705149052021627,-0.45033147375795185
11,2,0.7000000000000001,0.7000075242920418,21.0,0.4284912205812008,0.3840634402220124,0.3978241922728435,0.014417507685258379,True,ep011_step002,False,False,True,-0.39759916931969336,-2.0363216106618363,1.9688720593553608,-1.5019139503511671,-1.5699995604006818,-0.3979843714559276
11,3,0.7500000000000001,0.7500129656647858,19.0,0.3940821632463679,0.34525461820073744,0.34782419227284345,0.0018620830537167633,True,ep011_step003,False,False,True,-0.3559145818388143,-1.942184148059434,1.9157477500180542,-1.5428007376744202,-1.5701623792846198,-0.3551781178650099
12,0,0.6,0.5999973475794437,26.0,0.514513863918283,0.4781469608437572,0.4876980152190554,0.044418831286521875,True,ep012_step000,False,False,True,-0.5204884945273844,-2.2357968911138335,2.053048796509201,-1.38669081607142,-1.5715990109118338,-0.520625194614212
12,1,0.65,0.6500013420496763,26.0,0.514513863918283,0.4781469608437572,0.4376980152190554,0.005191818298280074,True,ep012_step001,False,False,True,-0.4505453345505175,-2.133868620733503,2.0146885966875834,-1.4498058208938405,-1.5705149052021627,-0.45033147375795185
12,2,0.7000000000000001,0.7000075242920418,21.0,0.4284912205812008,0.3840634402220124,0.38769801521905534,0.02866442200935282,True,ep012_step002,False,False,True,-0.39759916931969336,-2.0363216106618363,1.9688720593553608,-1.5019139503511671,-1.5699995604006818,-0.3979843714559276
12,3,0.7500000000000001,0.7500129656647858,18.0,0.37687763457895146,0.3254792642332621,0.3376980152190553,0.03979451550447806,True,ep012_step003,False,False,True,-0.3559145818388143,-1.942184148059434,1.9157477500180542,-1.5428007376744202,-1.5701623792846198,-0.3551781178650099
13,0,0.6,0.5999970197635405,25.0,0.4973093352508666,0.4595830446477098,0.41831555453068303,0.016165264259196517,True,ep013_step000,False,False,True,-0.5204884945273844,-2.2357968911138335,2.053048796509201,-1.38669081607142,-1.5715990109118338,-0.520625194614212
13,1,0.65,0.6500013420496763,20.0,0.41128669191378436,0.3647694380638052,0.368315554530683,0.0292551941429916,True,ep013_step001,False,False,True,-0.4505453345505175,-2.133868620733503,2.0146885966875834,-1.4498058208938405,-1.5705149052021627,-0.45033147375795185
13,2,0.7000000000000001,0.7000075242920418,17.0,0.359673105911535,0.30539276860471054,0.31831555453068294,0.01872193394483737,True,ep013_step002,False,False,True,-0.39759916931969336,-2.0363216106618363,1.9688720593553608,-1.5019139503511671,-1.5699995604006818,-0.3979843714559276
14,0,0.6,0.5999971389716996,25.0,0.4973093352508666,0.4595830446477098,0.46775110709847845,0.054287273217990546,False,ep014_step000,False,False,True,-0.5204884945273844,-2.2357968911138335,2.053048796509201,-1.38669081607142,-1.5715990109118338,-0.520625194614212
14,1,0.65,0.6500013420496763,22.0,0.44569574924861727,0.40316832824303833,0.4177511070984784,0.012868300814822445,True,ep014_step001,False,False,True,-0.4505453345505175,-2.133868620733503,2.0146885966875834,-1.4498058208938405,-1.5705149052021627,-0.45033147375795185
14,2,0.7000000000000001,0.7000075242920418,20.0,0.41128669191378436,0.3647694380638052,0.36775110709847836,0.03445255070151454,True,ep014_step002,False,False,True,-0.39759916931969336,-2.0363216106618363,1.9688720593553608,-1.5019139503511671,-1.5699995604006818,-0.3979843714559276
14,3,0.7500000000000001,0.7500129656647858,17.0,0.359673105911535,0.30539276860471054,0.3177511070984783,0.02109854609393079,True,ep014_step003,False,False,True,-0.3559145818388143,-1.942184148059434,1.9157477500180542,-1.5428007376744202,-1.5701623792846198,-0.3551781178650099
15,0,0.6,0.5999970197635405,24.0,0.48010480658345017,0.4409088628101414,0.4547566673150635,0.0657706511541145,False,ep015_step000,False,False,True,-0.5204884945273844,-2.2357968911138335,2.053048796509201,-1.38669081607142,-1.5715990109118338,-0.520625194614212
15,1,0.65,0.6500013420496763,22.0,0.44569574924861727,0.40316832824303833,0.40475666731506343,0.0631164769967126,False,ep015_step001,False,False,True,-0.4505453345505175,-2.133868620733503,2.0146885966875834,-1.4498058208938405,-1.5705149052021627,-0.45033147375795185
15,2,0.7000000000000001,0.7000075242920418,19.0,0.3940821632463679,0.34525461820073744,0.3547566673150634,0.009581414714188621,True,ep015_step002,False,False,True,-0.39759916931969336,-2.0363216106618363,1.9688720593553608,-1.5019139503511671,-1.5699995604006818,-0.3979843714559276
16,0,0.6,0.5999971091648704,26.0,0.514513863918283,0.4781469608437572,0.4930510210449116,0.14475218841162235,False,ep016_step000,False,False,True,-0.5204884945273844,-2.2357968911138335,2.053048796509201,-1.38669081607142,-1.5715990109118338,-0.520625194614212
16,1,0.65,0.6500013420496763,24.0,0.48010480658345017,0.4409088628101414,0.44305102104491156,0.021218198293566245,True,ep016_step001,False,False,True,-0.4505453345505175,-2.133868620733503,2.0146885966875834,-1.4498058208938405,-1.5705149052021627,-0.45033147375795185
16,2,0.7000000000000001,0.7000075242920418,21.0,0.4284912205812008,0.3840634402220124,0.3930510210449115,0.02182943344648746,True,ep016_step002,False,False,True,-0.39759916931969336,-2.0363216106618363,1.9688720593553608,-1.5019139503511671,-1.5699995604006818,-0.3979843714559276
16,3,0.7500000000000001,0.7500129656647858,19.0,0.3940821632463679,0.34525461820073744,0.3430510210449115,0.0009921919480084741,True,ep016_step003,False,False,True,-0.3559145818388143,-1.942184148059434,1.9157477500180542,-1.5428007376744202,-1.5701623792846198,-0.3551781178650099
17,0,0.6,0.5999970197635405,25.0,0.4973093352508666,0.4595830446477098,0.46724785573957883,0.03898554220909073,True,ep017_step000,False,False,True,-0.5204884945273844,-2.2357968911138335,2.053048796509201,-1.38669081607142,-1.5715990109118338,-0.520625194614212
17,1,0.65,0.6500013420496763,22.0,0.44569574924861727,0.40316832824303833,0.4172478557395788,0.07033608793765755,False,ep017_step001,False,False,True,-0.4505453345505175,-2.133868620733503,2.0146885966875834,-1.4498058208938405,-1.5705149052021627,-0.45033147375795185
17,2,0.7000000000000001,0.7000075242920418,20.0,0.41128669191378436,0.3647694380638052,0.36724785573957874,0.048117886419121285,True,ep017_step002,False,False,True,-0.39759916931969336,-2.0363216106618363,1.9688720593553608,-1.5019139503511671,-1.5699995604006818,-0.3979843714559276
17,3,0.7500000000000001,0.7500129656647858,17.0,0.359673105911535,0.30539276860471054,0.3172478557395787,0.05796261782627012,False,ep017_step003,False,False,True,-0.3559145818388143,-1.942184148059434,1.9157477500180542,-1.5428007376744202,-1.5701623792846198,-0.3551781178650099
18,0,0.6,0.5999970197651909,26.0,0.514513863918283,0.4781469608437572,0.4870646592546869,0.03041581876436088,True,ep018_step000,False,False,True,-0.5204884945273844,-2.2357968911138335,2.053048796509201,-1.38669081607142,-1.5715990109118338,-0.520625194614212
18,1,0.65,0.6500013420496763,26.0,0.514513863918283,0.4781469608437572,0.43706465925468685,0.03858635020519917,True,ep018_step001,False,False,True,-0.4505453345505175,-2.133868620733503,2.0146885966875834,-1.4498058208938405,-1.5705149052021627,-0.45033147375795185
18,2,0.7000000000000001,0.7000075242920418,21.0,0.4284912205812008,0.3840634402220124,0.3870646592546868,0.010772527201806015,True,ep018_step002,False,False,True,-0.39759916931969336,-2.0363216106618363,1.9688720593553608,-1.5019139503511671,-1.5699995604006818,-0.3979843714559276
18,3,0.7500000000000001,0.7500129656647858,18.0,0.37687763457895146,0.3254792642332621,0.33706465925468676,0.0021838580168638036,True,ep018_step003,False,False,True,-0.3559145818388143,-1.942184148059434,1.9157477500180542,-1.5428007376744202,-1.5701623792846198,-0.3551781178650099
19,0,0.6,0.5999970197635405,30.0,0.5833319785879489,0.5515217105820326,0.5294727034602832,0.08285277746969692,False,ep019_step000,False,False,True,-0.5204884945273844,-2.2357968911138335,2.053048796509201,-1.38669081607142,-1.5715990109118338,-0.520625194614212
19,1,0.65,0.6500013420496763,28.0,0.5489229212531159,0.5149916246669013,0.47947270346028315,0.20366523878127984,False,ep019_step001,False,False,True,-0.4505453345505175,-2.133868620733503,2.0146885966875834,-1.4498058208938405,-1.5705149052021627,-0.45033147375795185
19,2,0.7000000000000001,0.7000075242920418,23.0,0.4629002779160337,0.4221097810934275,0.4294727034602831,0.07280821555386544,False,ep019_step002,False,False,True,-0.39759916931969336,-2.0363216106618363,1.9688720593553608,-1.5019139503511671,-1.5699995604006818,-0.3979843714559276
19,3,0.7500000000000001,0.7500129656647858,20.0,0.41128669191378436,0.3647694380638052,0.37947270346028306,0.012598175535530757,True,ep019_step003,False,False,True,-0.3559145818388143,-1.942184148059434,1.9157477500180542,-1.5428007376744202,-1.5701623792846198,-0.3551781178650099
19,4,0.8000000000000002,0.8000195864590397,18.0,0.37687763457895146,0.3254792642332621,0.329472703460283,0.0010861117187982248,True,ep019_step004,False,False,True,-0.3222635464594593,-1.8512573785587165,1.8561487764526605,-1.57472729285862,-1.5704263758040753,-0.32120842798532245
20,0,0.6,0.5999971389716996,27.0,0.5317183925856995,0.49661297708972535,0.4988468985283415,0.004674208667689818,True,ep020_step000,False,False,True,-0.5204884945273844,-2.2357968911138335,2.053048796509201,-1.38669081607142,-1.5715990109118338,-0.520625194614212
20,1,0.65,0.6500013420496763,24.0,0.48010480658345017,0.4409088628101414,0.4488468985283415,0.06425072901857923,False,ep020_step001,False,False,True,-0.4505453345505175,-2.133868620733503,2.0146885966875834,-1.4498058208938405,-1.5705149052021627,-0.45033147375795185
20,2,0.7000000000000001,0.7000075242920418,24.0,0.48010480658345017,0.4409088628101414,0.39884689852834143,0.03920319781516364,True,ep020_step002,False,False,True,-0.39759916931969336,-2.0363216106618363,1.9688720593553608,-1.5019139503511671,-1.5699995604006818,-0.3979843714559276
20,3,0.7500000000000001,0.7500129656647858,19.0,0.3940821632463679,0.34525461820073744,0.3488468985283414,0.03690294951957462,True,ep020_step003,False,False,True,-0.3559145818388143,-1.942184148059434,1.9157477500180542,-1.5428007376744202,-1.5701623792846198,-0.3551781178650099
21,0,0.6,0.5999973475794437,27.0,0.5317183925856995,0.49661297708972535,0.4580929356047282,0.0021589023652394653,True,ep021_step000,False,False,True,-0.5204884945273844,-2.2357968911138335,2.053048796509201,-1.38669081607142,-1.5715990109118338,-0.520625194614212
21,1,0.65,0.6500013420496763,22.0,0.44569574924861727,0.40316832824303833,0.40809293560472815,0.0485282890137464,True,ep021_step001,False,False,True,-0.4505453345505175,-2.133868620733503,2.0146885966875834,-1.4498058208938405,-1.5705149052021627,-0.45033147375795185
21,2,0.7000000000000001,0.7000075242920418,19.0,0.3940821632463679,0.34525461820073744,0.3580929356047281,0.0017473283369164375,True,ep021_step002,False,False,True,-0.39759916931969336,-2.0363216106618363,1.9688720593553608,-1.5019139503511671,-1.5699995604006818,-0.3979843714559276
22,0,0.6,0.5999971091648704,25.0,0.4973093352508666,0.4595830446477098,0.4230085147267927,0.005672722536212508,True,ep022_step000,False,False,True,-0.5204884945273844,-2.2357968911138335,2.053048796509201,-1.38669081607142,-1.5715990109118338,-0.520625194614212
22,1,0.65,0.6500013420496763,20.0,0.41128669191378436,0.3647694380638052,0.37300851472679264,0.031731463705718645,True,ep022_step001,False,False,True,-0.4505453345505175,-2.133868620733503,2.0146885966875834,-1.4498058208938405,-1.5705149052021627,-0.45033147375795185
22,2,0.7000000000000001,0.7000075242920418,17.0,0.359673105911535,0.30539276860471054,0.3230085147267926,0.024461669055095725,True,ep022_step002,False,False,True,-0.39759916931969336,-2.0363216106618363,1.9688720593553608,-1.5019139503511671,-1.5699995604006818,-0.3979843714559276
23,0,0.6,0.5999971091648704,28.0,0.5489229212531159,0.5149916246669013,0.5226163649239312,0.05308512562798087,False,ep023_step000,False,False,True,-0.5204884945273844,-2.2357968911138335,2.053048796509201,-1.38669081607142,-1.5715990109118338,-0.520625194614212
23,1,0.65,0.6500013420496763,25.0,0.4973093352508666,0.4595830446477098,0.4726163649239311,0.02242965550967667,True,ep023_step001,False,False,True,-0.4505453345505175,-2.133868620733503,2.0146885966875834,-1.4498058208938405,-1.5705149052021627,-0.45033147375795185
23,2,0.7000000000000001,0.7000075242920418,23.0,0.4629002779160337,0.4221097810934275,0.42261636492393106,0.14232663595901077,False,ep023_step002,False,False,True,-0.39759916931969336,-2.0363216106618363,1.9688720593553608,-1.5019139503511671,-1.5699995604006818,-0.3979843714559276
23,3,0.7500000000000001,0.7500129656647858,20.0,0.41128669191378436,0.3647694380638052,0.372616364923931,0.03046029343247456,True,ep023_step003,False,False,True,-0.3559145818388143,-1.942184148059434,1.9157477500180542,-1.5428007376744202,-1.5701623792846198,-0.3551781178650099
23,4,0.8000000000000002,0.8000195864590397,17.0,0.359673105911535,0.30539276860471054,0.322616364923931,0.02636843679131857,True,ep023_step004,False,False,True,-0.3222635464594593,-1.8512573785587165,1.8561487764526605,-1.57472729285862,-1.5704263758040753,-0.32120842798532245
24,0,0.6,0.5999971091648704,28.0,0.5489229212531159,0.5149916246669013,0.47592574999443726,0.018982160951069596,True,ep024_step000,False,False,True,-0.5204884945273844,-2.2357968911138335,2.053048796509201,-1.38669081607142,-1.5715990109118338,-0.520625194614212
24,1,0.65,0.6500013420496763,23.0,0.4629002779160337,0.4221097810934275,0.4259257499944372,0.02199873570217487,True,ep024_step001,False,False,True,-0.4505453345505175,-2.133868620733503,2.0146885966875834,-1.4498058208938405,-1.5705149052021627,-0.45033147375795185
24,2,0.7000000000000001,0.7000075242920418,20.0,0.41128669191378436,0.3647694380638052,0.3759257499944372,0.050154953342372195,False,ep024_step002,False,False,True,-0.39759916931969336,-2.0363216106618363,1.9688720593553608,-1.5019139503511671,-1.5699995604006818,-0.3979843714559276
24,3,0.7500000000000001,0.7500129656647858,18.0,0.37687763457895146,0.3254792642332621,0.32592574999443713,0.0033624572986449943,True,ep024_step003,False,False,True,-0.3559145818388143,-1.942184148059434,1.9157477500180542,-1.5428007376744202,-1.5701623792846198,-0.3551781178650099
25,0,0.6,0.5999970197635405,23.0,0.4629002779160337,0.4221097810934275,0.4315535684161508,0.10822487694151069,False,ep025_step000,False,False,True,-0.5204884945273844,-2.2357968911138335,2.053048796509201,-1.38669081607142,-1.5715990109118338,-0.520625194614212
25,1,0.65,0.6500013420496763,23.0,0.4629002779160337,0.4221097810934275,0.38155356841615073,0.008843079265679232,True,ep025_step001,False,False,True,-0.4505453345505175,-2.133868620733503,2.0146885966875834,-1.4498058208938405,-1.5705149052021627,-0.45033147375795185
25,2,0.7000000000000001,0.7000075242920418,18.0,0.37687763457895146,0.3254792642332621,0.3315535684161507,0.05413087040880295,False,ep025_step002,False,False,True,-0.39759916931969336,-2.0363216106618363,1.9688720593553608,-1.5019139503511671,-1.5699995604006818,-0.3979843714559276
26,0,0.6,0.5999971091648704,25.0,0.4973093352508666,0.4595830446477098,0.4630837754089069,0.03936303011713074,True,ep026_step000,False,False,True,-0.5204884945273844,-2.2357968911138335,2.053048796509201,-1.38669081607142,-1.5715990109118338,-0.520625194614212
26,1,0.65,0.6500013420496763,22.0,0.44569574924861727,0.40316832824303833,0.41308377540890684,0.05694667011147271,False,ep026_step001,False,False,True,-0.4505453345505175,-2.133868620733503,2.0146885966875834,-1.4498058208938405,-1.5705149052021627,-0.45033147375795185
26,2,0.7000000000000001,0.7000075242920418,20.0,0.41128669191378436,0.3647694380638052,0.3630837754089068,0.03799097224396855,True,ep026_step002,False,False,True,-0.39759916931969336,-2.0363216106618363,1.9688720593553608,-1.5019139503511671,-1.5699995604006818,-0.3979843714559276
26,3,0.7500000000000001,0.7500129656647858,17.0,0.359673105911535,0.30539276860471054,0.31308377540890675,0.031605932986614314,True,ep026_step003,False,False,True,-0.3559145818388143,-1.942184148059434,1.9157477500180542,-1.5428007376744202,-1.5701623792846198,-0.3551781178650099
27,0,0.6,0.5999970197635405,29.0,0.5661274499205324,0.5332919365165059,0.540117006101498,0.13040514928727923,False,ep027_step000,False,False,True,-0.5204884945273844,-2.2357968911138335,2.053048796509201,-1.38669081607142,-1.5715990109118338,-0.520625194614212
27,1,0.65,0.6500013420496763,26.0,0.514513863918283,0.4781469608437572,0.490117006101498,0.030273749991771223,True,ep027_step001,False,False,True,-0.4505453345505175,-2.133868620733503,2.0146885966875834,-1.4498058208938405,-1.5705149052021627,-0.45033147375795185
27,2,0.7000000000000001,0.7000075242920418,26.0,0.514513863918283,0.4781469608437572,0.44011700610149795,0.029584238238646674,True,ep027_step002,False,False,True,-0.39759916931969336,-2.0363216106618363,1.9688720593553608,-1.5019139503511671,-1.5699995604006818,-0.3979843714559276
27,3,0.7500000000000001,0.7500129656647858,21.0,0.4284912205812008,0.3840634402220124,0.3901170061014979,0.057713030317169636,False,ep027_step003,False,False,True,-0.3559145818388143,-1.942184148059434,1.9157477500180542,-1.5428007376744202,-1.5701623792846198,-0.3551781178650099
27,4,0.8000000000000002,0.8000195864590397,18.0,0.37687763457895146,0.3254792642332621,0.34011700610149787,0.026248371219823187,True,ep027_step004,False,False,True,-0.3222635464594593,-1.8512573785587165,1.8561487764526605,-1.57472729285862,-1.5704263758040753,-0.32120842798532245
28,0,0.6,0.5999971091648704,26.0,0.514513863918283,0.4781469608437572,0.43901783224511315,0.1018155882800911,False,ep028_step000,False,False,True,-0.5204884945273844,-2.2357968911138335,2.053048796509201,-1.38669081607142,-1.5715990109118338,-0.520625194614212
28,1,0.65,0.6500013420496763,21.0,0.4284912205812008,0.3840634402220124,0.3890178322451131,0.07329744321653109,False,ep028_step001,False,False,True,-0.4505453345505175,-2.133868620733503,2.0146885966875834,-1.4498058208938405,-1.5705149052021627,-0.45033147375795185
28,2,0.7000000000000001,0.7000075242920418,18.0,0.37687763457895146,0.3254792642332621,0.33901783224511306,0.005631968356297149,True,ep028_step002,False,False,True,-0.39759916931969336,-2.0363216106618363,1.9688720593553608,-1.5019139503511671,-1.5699995604006818,-0.3979843714559276
29,0,0.6,0.5999971389716996,22.0,0.44569574924861727,0.40316832824303833,0.4128207481102045,0.030884230210952435,True,ep029_step000,False,False,True,-0.5204884945273844,-2.2357968911138335,2.053048796509201,-1.38669081607142,-1.5715990109118338,-0.520625194614212
29,1,0.65,0.6500013420496763,20.0,0.41128669191378436,0.3647694380638052,0.3628207481102045,0.008693314296761099,True,ep029_step001,False,False,True,-0.4505453345505175,-2.133868620733503,2.0146885966875834,-1.4498058208938405,-1.5705149052021627,-0.45033147375795185
29,2,0.7000000000000001,0.7000075242920418,17.0,0.359673105911535,0.30539276860471054,0.31282074811020444,0.01564557642624762,True,ep029_step002,False,False,True,-0.39759916931969336,-2.0363216106618363,1.9688720593553608,-1.5019139503511671,-1.5699995604006818,-0.3979843714559276
