sakiwatashi/newisac6.0acoustic/clean/runtime/outputs/v2_d3_grasp/blind/steps.csv
episode,step,sensor_x,sensor_x_actual,peak_idx,d3d_est,d_horiz_est,oracle_horiz_dist,drift,stationarity_ok,waveform_tag,posture_violation,sensor_pose_violation,ik_ok,q_shoulder_pan,q_shoulder_lift,q_elbow,q_wrist_1,q_wrist_2,q_wrist_3
0,0,0.6,0.5999971389716996,32.0,0.6177410359227818,inf,0.5691237712556801,0.08669317512527489,False,ep000_step000,False,False,True,-0.5204884945273844,-2.2357968911138335,2.053048796509201,-1.38669081607142,-1.5715990109118338,-0.520625194614212
0,1,0.65,0.6500013420496763,28.0,0.5489229212531159,inf,0.5191237712556801,0.08124743399478583,False,ep000_step001,False,False,True,-0.4505453345505175,-2.133868620733503,2.0146885966875834,-1.4498058208938405,-1.5705149052021627,-0.45033147375795185
0,2,0.7000000000000001,0.7000075242920418,25.0,0.4973093352508666,inf,0.46912377125568006,0.05704945650006691,False,ep000_step002,False,False,True,-0.39759916931969336,-2.0363216106618363,1.9688720593553608,-1.5019139503511671,-1.5699995604006818,-0.3979843714559276
0,3,0.7500000000000001,0.7500129656647858,25.0,0.4973093352508666,inf,0.41912377125568,0.10734480139448736,False,ep000_step003,False,False,True,-0.3559145818388143,-1.942184148059434,1.9157477500180542,-1.5428007376744202,-1.5701623792846198,-0.3551781178650099
0,4,0.8000000000000002,0.8000195864590397,20.0,0.41128669191378436,inf,0.36912377125567997,0.002181405884262558,True,ep000_step004,False,False,True,-0.3222635464594593,-1.8512573785587165,1.8561487764526605,-1.57472729285862,-1.5704263758040753,-0.32120842798532245
0,5,0.8500000000000002,0.8500263575700777,17.0,0.359673105911535,inf,0.3191237712556799,0.033327050713847624,True,ep000_step005,False,False,True,-0.2945928842297702,-1.7629644877008555,1.79018067040535,-1.5978585796301343,-1.5702782760485732,-0.2936959795476594
0,6,0.9000000000000002,0.900034202460835,15.0,0.3252640485767021,inf,0.2691237712556799,0.024550028879894666,True,ep000_step006,False,False,True,-0.27115185267695463,-1.6765115646744237,1.7174822973979744,-1.611606507748676,-1.5712501241795143,-0.27084313925875253
1,0,0.6,0.5999971091648704,29.0,0.5661274499205324,inf,0.5353788864096584,0.022667145869307133,True,ep001_step000,False,False,True,-0.5204884945273844,-2.2357968911138335,2.053048796509201,-1.38669081607142,-1.5715990109118338,-0.520625194614212
1,1,0.65,0.6500013420496763,26.0,0.514513863918283,inf,0.4853788864096583,0.03903815517553592,True,ep001_step001,False,False,True,-0.4505453345505175,-2.133868620733503,2.0146885966875834,-1.4498058208938405,-1.5705149052021627,-0.45033147375795185
1,2,0.7000000000000001,0.7000075242920418,23.0,0.4629002779160337,inf,0.4353788864096583,0.04445739781423803,True,ep001_step002,False,False,True,-0.39759916931969336,-2.0363216106618363,1.9688720593553608,-1.5019139503511671,-1.5699995604006818,-0.3979843714559276
1,3,0.7500000000000001,0.7500129656647858,21.0,0.4284912205812008,inf,0.38537888640965823,0.005017141581203072,True,ep001_step003,False,False,True,-0.3559145818388143,-1.942184148059434,1.9157477500180542,-1.5428007376744202,-1.5701623792846198,-0.3551781178650099
1,4,0.8000000000000002,0.8000195864590397,18.0,0.37687763457895146,inf,0.3353788864096582,0.025645085341358405,True,ep001_step004,False,False,True,-0.3222635464594593,-1.8512573785587165,1.8561487764526605,-1.57472729285862,-1.5704263758040753,-0.32120842798532245
1,5,0.8500000000000002,0.8500263575700777,16.0,0.34246857724411855,inf,0.28537888640965814,0.035081863070915056,True,ep001_step005,False,False,True,-0.2945928842297702,-1.7629644877008555,1.79018067040535,-1.5978585796301343,-1.5702782760485732,-0.2936959795476594
1,6,0.9000000000000002,0.900034202460835,13.0,0.2908549912418692,inf,0.2353788864096581,0.01698771429912728,True,ep001_step006,False,False,True,-0.27115185267695463,-1.6765115646744237,1.7174822973979744,-1.611606507748676,-1.5712501241795143,-0.27084313925875253
2,0,0.6,0.5999971389716996,23.0,0.4629002779160337,inf,0.43024926713702183,0.04140562792567613,True,ep002_step000,False,False,True,-0.5204884945273844,-2.2357968911138335,2.053048796509201,-1.38669081607142,-1.5715990109118338,-0.520625194614212
2,1,0.65,0.6500013420496763,20.0,0.41128669191378436,inf,0.3802492671370218,0.06633696301682904,False,ep002_step001,False,False,True,-0.4505453345505175,-2.133868620733503,2.0146885966875834,-1.4498058208938405,-1.5705149052021627,-0.45033147375795185
2,2,0.7000000000000001,0.7000075242920418,18.0,0.37687763457895146,inf,0.33024926713702174,0.03669703100545321,True,ep002_step002,False,False,True,-0.39759916931969336,-2.0363216106618363,1.9688720593553608,-1.5019139503511671,-1.5699995604006818,-0.3979843714559276
2,3,0.7500000000000001,0.7500129656647858,15.0,0.3252640485767021,inf,0.2802492671370217,0.007158061082910812,True,ep002_step003,False,False,True,-0.3559145818388143,-1.942184148059434,1.9157477500180542,-1.5428007376744202,-1.5701623792846198,-0.3551781178650099
2,4,0.8000000000000002,0.8000195864590397,13.0,0.2908549912418692,inf,0.23024926713702165,0.045106474345612435,True,ep002_step004,False,False,True,-0.3222635464594593,-1.8512573785587165,1.8561487764526605,-1.57472729285862,-1.5704263758040753,-0.32120842798532245
2,5,0.8500000000000002,0.8500263575700777,10.0,0.23924140523961987,inf,0.1802492671370216,0.011469563510168895,True,ep002_step005,False,False,True,-0.2945928842297702,-1.7629644877008555,1.79018067040535,-1.5978585796301343,-1.5702782760485732,-0.2936959795476594
2,6,0.9000000000000002,0.900034202460835,21.0,0.4284912205812008,inf,0.13024926713702156,0.062146017035226764,False,ep002_step006,False,False,True,-0.27115185267695463,-1.6765115646744237,1.7174822973979744,-1.611606507748676,-1.5712501241795143,-0.27084313925875253
3,0,0.6,0.5999971091648704,27.0,0.5317183925856995,inf,0.46166782585689126,0.0060406700421601674,True,ep003_step000,False,False,True,-0.5204884945273844,-2.2357968911138335,2.053048796509201,-1.38669081607142,-1.5715990109118338,-0.520625194614212
3,1,0.65,0.6500013420496763,22.0,0.44569574924861727,inf,0.4116678258568912,0.001816576678573437,True,ep003_step001,False,False,True,-0.4505453345505175,-2.133868620733503,2.0146885966875834,-1.4498058208938405,-1.5705149052021627,-0.45033147375795185
3,2,0.7000000000000001,0.7000075242920418,19.0,0.3940821632463679,inf,0.36166782585689117,0.024373465288116205,True,ep003_step002,False,False,True,-0.39759916931969336,-2.0363216106618363,1.9688720593553608,-1.5019139503511671,-1.5699995604006818,-0.3979843714559276
3,3,0.7500000000000001,0.7500129656647858,17.0,0.359673105911535,inf,0.3116678258568911,0.006472814127476073,True,ep003_step003,False,False,True,-0.3559145818388143,-1.942184148059434,1.9157477500180542,-1.5428007376744202,-1.5701623792846198,-0.3551781178650099
3,4,0.8000000000000002,0.8000195864590397,14.0,0.30805951990928565,inf,0.2616678258568911,0.01972646170777247,True,ep003_step004,False,False,True,-0.3222635464594593,-1.8512573785587165,1.8561487764526605,-1.57472729285862,-1.5704263758040753,-0.32120842798532245
3,5,0.8500000000000002,0.8500263575700777,12.0,0.27365046257445275,inf,0.21166782585689103,0.04099355748499274,True,ep003_step005,False,False,True,-0.2945928842297702,-1.7629644877008555,1.79018067040535,-1.5978585796301343,-1.5702782760485732,-0.2936959795476594
3,6,0.9000000000000002,0.900034202460835,21.0,0.4284912205812008,inf,0.161667825856891,0.03742133166356951,True,ep003_step006,False,False,True,-0.27115185267695463,-1.6765115646744237,1.7174822973979744,-1.611606507748676,-1.5712501241795143,-0.27084313925875253
4,0,0.6,0.5999971091648704,24.0,0.48010480658345017,inf,0.4427267623361345,0.04058280788636166,True,ep004_step000,False,False,True,-0.5204884945273844,-2.2357968911138335,2.053048796509201,-1.38669081607142,-1.5715990109118338,-0.520625194614212
4,1,0.65,0.6500013420496763,21.0,0.4284912205812008,inf,0.39272676233613446,0.08275851958184781,False,ep004_step001,False,False,True,-0.4505453345505175,-2.133868620733503,2.0146885966875834,-1.4498058208938405,-1.5705149052021627,-0.45033147375795185
4,2,0.7000000000000001,0.7000075242920418,19.0,0.3940821632463679,inf,0.3427267623361344,0.010143260165398632,True,ep004_step002,False,False,True,-0.39759916931969336,-2.0363216106618363,1.9688720593553608,-1.5019139503511671,-1.5699995604006818,-0.3979843714559276
4,3,0.7500000000000001,0.7500129656647858,16.0,0.34246857724411855,inf,0.29272676233613437,0.06478308997708256,False,ep004_step003,False,False,True,-0.3559145818388143,-1.942184148059434,1.9157477500180542,-1.5428007376744202,-1.5701623792846198,-0.3551781178650099
4,4,0.8000000000000002,0.8000195864590397,13.0,0.2908549912418692,inf,0.24272676233613433,0.022044087797690622,True,ep004_step004,False,False,True,-0.3222635464594593,-1.8512573785587165,1.8561487764526605,-1.57472729285862,-1.5704263758040753,-0.32120842798532245
4,5,0.8500000000000002,0.8500263575700777,11.0,0.2564459339070363,inf,0.19272676233613428,0.043224631159757936,True,ep004_step005,False,False,True,-0.2945928842297702,-1.7629644877008555,1.79018067040535,-1.5978585796301343,-1.5702782760485732,-0.2936959795476594
4,6,0.9000000000000002,0.900034202460835,23.0,0.4629002779160337,inf,0.14272676233613424,0.10364458555308614,False,ep004_step006,False,False,True,-0.27115185267695463,-1.6765115646744237,1.7174822973979744,-1.611606507748676,-1.5712501241795143,-0.27084313925875253
5,0,0.6,0.5999971091648704,23.0,0.4629002779160337,inf,0.42806677084573164,0.01130310654610494,True,ep005_step000,False,False,True,-0.5204884945273844,-2.2357968911138335,2.053048796509201,-1.38669081607142,-1.5715990109118338,-0.520625194614212
5,1,0.65,0.6500013420496763,20.0,0.41128669191378436,inf,0.3780667708457316,0.067340995962806,False,ep005_step001,False,False,True,-0.4505453345505175,-2.133868620733503,2.0146885966875834,-1.4498058208938405,-1.5705149052021627,-0.45033147375795185
5,2,0.7000000000000001,0.7000075242920418,18.0,0.37687763457895146,inf,0.32806677084573155,0.02361753332377796,True,ep005_step002,False,False,True,-0.39759916931969336,-2.0363216106618363,1.9688720593553608,-1.5019139503511671,-1.5699995604006818,-0.3979843714559276
5,3,0.7500000000000001,0.7500129656647858,15.0,0.3252640485767021,inf,0.2780667708457315,0.01090178131200029,True,ep005_step003,False,False,True,-0.3559145818388143,-1.942184148059434,1.9157477500180542,-1.5428007376744202,-1.5701623792846198,-0.3551781178650099
5,4,0.8000000000000002,0.8000195864590397,13.0,0.2908549912418692,inf,0.22806677084573146,0.03622849050638248,True,ep005_step004,False,False,True,-0.3222635464594593,-1.8512573785587165,1.8561487764526605,-1.57472729285862,-1.5704263758040753,-0.32120842798532245
5,5,0.8500000000000002,0.8500263575700777,10.0,0.23924140523961987,inf,0.17806677084573141,0.046428162423315336,True,ep005_step005,False,False,True,-0.2945928842297702,-1.7629644877008555,1.79018067040535,-1.5978585796301343,-1.5702782760485732,-0.2936959795476594
5,6,0.9000000000000002,0.900034202460835,21.0,0.4284912205812008,inf,0.12806677084573137,0.06113987619811723,False,ep005_step006,False,False,True,-0.27115185267695463,-1.6765115646744237,1.7174822973979744,-1.611606507748676,-1.5712501241795143,-0.27084313925875253
6,0,0.6,0.5999971091648704,32.0,0.6177410359227818,inf,0.5938724706091391,0.04128100457779629,True,ep006_step000,False,False,True,-0.5204884945273844,-2.2357968911138335,2.053048796509201,-1.38669081607142,-1.5715990109118338,-0.520625194614212
6,1,0.65,0.6500013420496763,31.0,0.6005365072553653,inf,0.543872470609139,0.003999113638855499,True,ep006_step001,False,False,True,-0.4505453345505175,-2.133868620733503,2.0146885966875834,-1.4498058208938405,-1.5705149052021627,-0.45033147375795185
6,2,0.7000000000000001,0.7000075242920418,27.0,0.5317183925856995,inf,0.49387247060913897,0.060999746500919785,False,ep006_step002,False,False,True,-0.39759916931969336,-2.0363216106618363,1.9688720593553608,-1.5019139503511671,-1.5699995604006818,-0.3979843714559276
6,3,0.7500000000000001,0.7500129656647858,24.0,0.48010480658345017,inf,0.4438724706091389,0.049153912526814704,True,ep006_step003,False,False,True,-0.3559145818388143,-1.942184148059434,1.9157477500180542,-1.5428007376744202,-1.5701623792846198,-0.3551781178650099
6,4,0.8000000000000002,0.8000195864590397,21.0,0.4284912205812008,inf,0.3938724706091389,0.05968779933405138,False,ep006_step004,False,False,True,-0.3222635464594593,-1.8512573785587165,1.8561487764526605,-1.57472729285862,-1.5704263758040753,-0.32120842798532245
6,5,0.8500000000000002,0.8500263575700777,19.0,0.3940821632463679,inf,0.34387247060913884,0.01233120992847116,True,ep006_step005,False,False,True,-0.2945928842297702,-1.7629644877008555,1.79018067040535,-1.5978585796301343,-1.5702782760485732,-0.2936959795476594
6,6,0.9000000000000002,0.900034202460835,16.0,0.34246857724411855,inf,0.2938724706091388,0.01817981510999933,True,ep006_step006,False,False,True,-0.27115185267695463,-1.6765115646744237,1.7174822973979744,-1.611606507748676,-1.5712501241795143,-0.27084313925875253
7,0,0.6,0.5999971091648704,25.0,0.4973093352508666,inf,0.46919145939886653,0.04212031432662909,True,ep007_step000,False,False,True,-0.5204884945273844,-2.2357968911138335,2.053048796509201,-1.38669081607142,-1.5715990109118338,-0.520625194614212
7,1,0.65,0.6500013420496763,25.0,0.4973093352508666,inf,0.4191914593988665,0.058610774199626035,False,ep007_step001,False,False,True,-0.4505453345505175,-2.133868620733503,2.0146885966875834,-1.4498058208938405,-1.5705149052021627,-0.45033147375795185
7,2,0.7000000000000001,0.7000075242920418,20.0,0.41128669191378436,inf,0.36919145939886644,0.010733441342261193,True,ep007_step002,False,False,True,-0.39759916931969336,-2.0363216106618363,1.9688720593553608,-1.5019139503511671,-1.5699995604006818,-0.3979843714559276
7,3,0.7500000000000001,0.7500129656647858,17.0,0.359673105911535,inf,0.3191914593988664,0.008926243836797245,True,ep007_step003,False,False,True,-0.3559145818388143,-1.942184148059434,1.9157477500180542,-1.5428007376744202,-1.5701623792846198,-0.3551781178650099
7,4,0.8000000000000002,0.8000195864590397,15.0,0.3252640485767021,inf,0.26919145939886635,0.044050156696448795,True,ep007_step004,False,False,True,-0.3222635464594593,-1.8512573785587165,1.8561487764526605,-1.57472729285862,-1.5704263758040753,-0.32120842798532245
7,5,0.8500000000000002,0.8500263575700777,12.0,0.27365046257445275,inf,0.2191914593988663,0.03471359817145968,True,ep007_step005,False,False,True,-0.2945928842297702,-1.7629644877008555,1.79018067040535,-1.5978585796301343,-1.5702782760485732,-0.2936959795476594
7,6,0.9000000000000002,0.900034202460835,10.0,0.23924140523961987,inf,0.16919145939886626,0.028653650892479485,True,ep007_step006,False,False,True,-0.27115185267695463,-1.6765115646744237,1.7174822973979744,-1.611606507748676,-1.5712501241795143,-0.27084313925875253
8,0,0.6,0.5999971091648704,27.0,0.5317183925856995,inf,0.5017654256484251,0.03852514912002158,True,ep008_step000,False,False,True,-0.5204884945273844,-2.2357968911138335,2.053048796509201,-1.38669081607142,-1.5715990109118338,-0.520625194614212
8,1,0.65,0.6500013420496763,24.0,0.48010480658345017,inf,0.45176542564842503,0.08827283492942287,False,ep008_step001,False,False,True,-0.4505453345505175,-2.133868620733503,2.0146885966875834,-1.4498058208938405,-1.5705149052021627,-0.45033147375795185
8,2,0.7000000000000001,0.7000075242920418,24.0,0.48010480658345017,inf,0.401765425648425,0.023796562793195752,True,ep008_step002,False,False,True,-0.39759916931969336,-2.0363216106618363,1.9688720593553608,-1.5019139503511671,-1.5699995604006818,-0.3979843714559276
8,3,0.7500000000000001,0.7500129656647858,19.0,0.3940821632463679,inf,0.35176542564842495,0.002351859365260002,True,ep008_step003,False,False,True,-0.3559145818388143,-1.942184148059434,1.9157477500180542,-1.5428007376744202,-1.5701623792846198,-0.3551781178650099
8,4,0.8000000000000002,0.8000195864590397,16.0,0.34246857724411855,inf,0.3017654256484249,0.018244188301031587,True,ep008_step004,False,False,True,-0.3222635464594593,-1.8512573785587165,1.8561487764526605,-1.57472729285862,-1.5704263758040753,-0.32120842798532245
8,5,0.8500000000000002,0.8500263575700777,14.0,0.30805951990928565,inf,0.25176542564842486,0.032617057221909766,True,ep008_step005,False,False,True,-0.2945928842297702,-1.7629644877008555,1.79018067040535,-1.5978585796301343,-1.5702782760485732,-0.2936959795476594
8,6,0.9000000000000002,0.900034202460835,11.0,0.2564459339070363,inf,0.2017654256484248,0.013836922971166859,True,ep008_step006,False,False,True,-0.27115185267695463,-1.6765115646744237,1.7174822973979744,-1.611606507748676,-1.5712501241795143,-0.27084313925875253
9,0,0.6,0.5999971091648704,32.0,0.6177410359227818,inf,0.5938135658482421,0.004379814456902866,True,ep009_step000,False,False,True,-0.5204884945273844,-2.2357968911138335,2.053048796509201,-1.38669081607142,-1.5715990109118338,-0.520625194614212
9,1,0.65,0.6500013420496763,31.0,0.6005365072553653,inf,0.543813565848242,0.003202617459399347,True,ep009_step001,False,False,True,-0.4505453345505175,-2.133868620733503,2.0146885966875834,-1.4498058208938405,-1.5705149052021627,-0.45033147375795185
9,2,0.7000000000000001,0.7000075242920418,27.0,0.5317183925856995,inf,0.493813565848242,0.019297012862687955,True,ep009_step002,False,False,True,-0.39759916931969336,-2.0363216106618363,1.9688720593553608,-1.5019139503511671,-1.5699995604006818,-0.3979843714559276
9,3,0.7500000000000001,0.7500129656647858,24.0,0.48010480658345017,inf,0.44381356584824194,0.14241453629353626,False,ep009_step003,False,False,True,-0.3559145818388143,-1.942184148059434,1.9157477500180542,-1.5428007376744202,-1.5701623792846198,-0.3551781178650099
9,4,0.8000000000000002,0.8000195864590397,21.0,0.4284912205812008,inf,0.3938135658482419,0.026244423766040813,True,ep009_step004,False,False,True,-0.3222635464594593,-1.8512573785587165,1.8561487764526605,-1.57472729285862,-1.5704263758040753,-0.32120842798532245
9,5,0.8500000000000002,0.8500263575700777,19.0,0.3940821632463679,inf,0.34381356584824185,0.018057608026343448,True,ep009_step005,False,False,True,-0.2945928842297702,-1.7629644877008555,1.79018067040535,-1.5978585796301343,-1.5702782760485732,-0.2936959795476594
9,6,0.9000000000000002,0.900034202460835,16.0,0.34246857724411855,inf,0.2938135658482418,0.03654696930327442,True,ep009_step006,False,False,True,-0.27115185267695463,-1.6765115646744237,1.7174822973979744,-1.611606507748676,-1.5712501241795143,-0.27084313925875253
10,0,0.6,0.5999971091648704,29.0,0.5661274499205324,inf,0.5340149562843076,0.07022351234533096,False,ep010_step000,False,False,True,-0.5204884945273844,-2.2357968911138335,2.053048796509201,-1.38669081607142,-1.5715990109118338,-0.520625194614212
10,1,0.65,0.6500013420496763,26.0,0.514513863918283,inf,0.4840149562843076,0.1204780544795301,False,ep010_step001,False,False,True,-0.4505453345505175,-2.133868620733503,2.0146885966875834,-1.4498058208938405,-1.5705149052021627,-0.45033147375795185
10,2,0.7000000000000001,0.7000075242920418,23.0,0.4629002779160337,inf,0.43401495628430753,0.06397564593164369,False,ep010_step002,False,False,True,-0.39759916931969336,-2.0363216106618363,1.9688720593553608,-1.5019139503511671,-1.5699995604006818,-0.3979843714559276
10,3,0.7500000000000001,0.7500129656647858,21.0,0.4284912205812008,inf,0.3840149562843075,0.06803836647478267,False,ep010_step003,False,False,True,-0.3559145818388143,-1.942184148059434,1.9157477500180542,-1.5428007376744202,-1.5701623792846198,-0.3551781178650099
10,4,0.8000000000000002,0.8000195864590397,18.0,0.37687763457895146,inf,0.33401495628430744,0.0012299865725659065,True,ep010_step004,False,False,True,-0.3222635464594593,-1.8512573785587165,1.8561487764526605,-1.57472729285862,-1.5704263758040753,-0.32120842798532245
10,5,0.8500000000000002,0.8500263575700777,15.0,0.3252640485767021,inf,0.2840149562843074,0.027736361689327586,True,ep010_step005,False,False,True,-0.2945928842297702,-1.7629644877008555,1.79018067040535,-1.5978585796301343,-1.5702782760485732,-0.2936959795476594
10,6,0.9000000000000002,0.900034202460835,13.0,0.2908549912418692,inf,0.23401495628430735,0.014917269376849058,True,ep010_step006,False,False,True,-0.27115185267695463,-1.6765115646744237,1.7174822973979744,-1.611606507748676,-1.5712501241795143,-0.27084313925875253
11,0,0.6,0.5999971091648704,30.0,0.5833319785879489,inf,0.5304322563637914,0.010641637361184014,True,ep011_step000,False,False,True,-0.5204884945273844,-2.2357968911138335,2.053048796509201,-1.38669081607142,-1.5715990109118338,-0.520625194614212
11,1,0.65,0.6500013420496763,26.0,0.514513863918283,inf,0.4804322563637914,0.035055907619952836,True,ep011_step001,False,False,True,-0.4505453345505175,-2.133868620733503,2.0146885966875834,-1.4498058208938405,-1.5705149052021627,-0.45033147375795185
11,2,0.7000000000000001,0.7000075242920418,23.0,0.4629002779160337,inf,0.43043225636379134,0.048403178733222356,True,ep011_step002,False,False,True,-0.39759916931969336,-2.0363216106618363,1.9688720593553608,-1.5019139503511671,-1.5699995604006818,-0.3979843714559276
11,3,0.7500000000000001,0.7500129656647858,20.0,0.41128669191378436,inf,0.3804322563637913,0.02911995246917929,True,ep011_step003,False,False,True,-0.3559145818388143,-1.942184148059434,1.9157477500180542,-1.5428007376744202,-1.5701623792846198,-0.3551781178650099
11,4,0.8000000000000002,0.8000195864590397,18.0,0.37687763457895146,inf,0.33043225636379125,0.0030755485288449748,True,ep011_step004,False,False,True,-0.3222635464594593,-1.8512573785587165,1.8561487764526605,-1.57472729285862,-1.5704263758040753,-0.32120842798532245
11,5,0.8500000000000002,0.8500263575700777,15.0,0.3252640485767021,inf,0.2804322563637912,0.019554459301226075,True,ep011_step005,False,False,True,-0.2945928842297702,-1.7629644877008555,1.79018067040535,-1.5978585796301343,-1.5702782760485732,-0.2936959795476594
11,6,0.9000000000000002,0.900034202460835,13.0,0.2908549912418692,inf,0.23043225636379117,0.009597690882381731,True,ep011_step006,False,False,True,-0.27115185267695463,-1.6765115646744237,1.7174822973979744,-1.611606507748676,-1.5712501241795143,-0.27084313925875253
12,0,0.6,0.5999971091648704,28.0,0.5489229212531159,inf,0.5169306869587406,0.035770060647238665,True,ep012_step000,False,False,True,-0.5204884945273844,-2.2357968911138335,2.053048796509201,-1.38669081607142,-1.5715990109118338,-0.520625194614212
12,1,0.65,0.6500013420496763,25.0,0.4973093352508666,inf,0.4669306869587405,0.009469641111153938,True,ep012_step001,False,False,True,-0.4505453345505175,-2.133868620733503,2.0146885966875834,-1.4498058208938405,-1.5705149052021627,-0.45033147375795185
12,2,0.7000000000000001,0.7000075242920418,22.0,0.44569574924861727,inf,0.41693068695874047,0.03371633162262268,True,ep012_step002,False,False,True,-0.39759916931969336,-2.0363216106618363,1.9688720593553608,-1.5019139503511671,-1.5699995604006818,-0.3979843714559276
12,3,0.7500000000000001,0.7500129656647858,20.0,0.41128669191378436,inf,0.3669306869587404,0.003331128176579517,True,ep012_step003,False,False,True,-0.3559145818388143,-1.942184148059434,1.9157477500180542,-1.5428007376744202,-1.5701623792846198,-0.3551781178650099
12,4,0.8000000000000002,0.8000195864590397,17.0,0.359673105911535,inf,0.3169306869587404,0.011320398222861263,True,ep012_step004,False,False,True,-0.3222635464594593,-1.8512573785587165,1.8561487764526605,-1.57472729285862,-1.5704263758040753,-0.32120842798532245
12,5,0.8500000000000002,0.8500263575700777,15.0,0.3252640485767021,inf,0.26693068695874034,0.01576743330005345,True,ep012_step005,False,False,True,-0.2945928842297702,-1.7629644877008555,1.79018067040535,-1.5978585796301343,-1.5702782760485732,-0.2936959795476594
12,6,0.9000000000000002,0.900034202460835,12.0,0.27365046257445275,inf,0.2169306869587403,0.06486573751503805,False,ep012_step006,False,False,True,-0.27115185267695463,-1.6765115646744237,1.7174822973979744,-1.611606507748676,-1.5712501241795143,-0.27084313925875253
13,0,0.6,0.5999971091648704,23.0,0.4629002779160337,inf,0.42442073937424396,0.0731381658054798,False,ep013_step000,False,False,True,-0.5204884945273844,-2.2357968911138335,2.053048796509201,-1.38669081607142,-1.5715990109118338,-0.520625194614212
13,1,0.65,0.6500013420496763,20.0,0.41128669191378436,inf,0.3744207393742439,0.006491171050028609,True,ep013_step001,False,False,True,-0.4505453345505175,-2.133868620733503,2.0146885966875834,-1.4498058208938405,-1.5705149052021627,-0.45033147375795185
13,2,0.7000000000000001,0.7000075242920418,17.0,0.359673105911535,inf,0.32442073937424387,0.05118991691836168,False,ep013_step002,False,False,True,-0.39759916931969336,-2.0363216106618363,1.9688720593553608,-1.5019139503511671,-1.5699995604006818,-0.3979843714559276
13,3,0.7500000000000001,0.7500129656647858,15.0,0.3252640485767021,inf,0.2744207393742438,0.006181013386542619,True,ep013_step003,False,False,True,-0.3559145818388143,-1.942184148059434,1.9157477500180542,-1.5428007376744202,-1.5701623792846198,-0.3551781178650099
13,4,0.8000000000000002,0.8000195268668024,13.0,0.2908549912418692,inf,0.22442073937424378,0.031064946183679394,True,ep013_step004,False,False,True,-0.3222635464594593,-1.8512573785587165,1.8561487764526605,-1.57472729285862,-1.5704263758040753,-0.32120842798532245
13,5,0.8500000000000002,0.8500263575700777,10.0,0.23924140523961987,inf,0.17442073937424374,0.031149546141393984,True,ep013_step005,False,False,True,-0.2945928842297702,-1.7629644877008555,1.79018067040535,-1.5978585796301343,-1.5702782760485732,-0.2936959795476594
13,6,0.9000000000000002,0.900034202460835,20.0,0.41128669191378436,inf,0.1244207393742437,0.11395105418343526,False,ep013_step006,False,False,True,-0.27115185267695463,-1.6765115646744237,1.7174822973979744,-1.611606507748676,-1.5712501241795143,-0.27084313925875253
14,0,0.6,0.5999971091648704,26.0,0.514513863918283,inf,0.4903348094646379,0.016418582102187676,True,ep014_step000,False,False,True,-0.5204884945273844,-2.2357968911138335,2.053048796509201,-1.38669081607142,-1.5715990109118338,-0.520625194614212
14,1,0.65,0.6500013420496763,26.0,0.514513863918283,inf,0.4403348094646379,0.021175745192402,True,ep014_step001,False,False,True,-0.4505453345505175,-2.133868620733503,2.0146885966875834,-1.4498058208938405,-1.5705149052021627,-0.45033147375795185
14,2,0.7000000000000001,0.7000075242920418,21.0,0.4284912205812008,inf,0.39033480946463783,0.02362819680452113,True,ep014_step002,False,False,True,-0.39759916931969336,-2.0363216106618363,1.9688720593553608,-1.5019139503511671,-1.5699995604006818,-0.3979843714559276
14,3,0.7500000000000001,0.7500129656647858,18.0,0.37687763457895146,inf,0.3403348094646378,0.05360031516067863,False,ep014_step003,False,False,True,-0.3559145818388143,-1.942184148059434,1.9157477500180542,-1.5428007376744202,-1.5701623792846198,-0.3551781178650099
14,4,0.8000000000000002,0.8000195864590397,16.0,0.34246857724411855,inf,0.29033480946463774,0.03432204069328545,True,ep014_step004,False,False,True,-0.3222635464594593,-1.8512573785587165,1.8561487764526605,-1.57472729285862,-1.5704263758040753,-0.32120842798532245
14,5,0.8500000000000002,0.8500263575700777,13.0,0.2908549912418692,inf,0.2403348094646377,0.04265643922924982,True,ep014_step005,False,False,True,-0.2945928842297702,-1.7629644877008555,1.79018067040535,-1.5978585796301343,-1.5702782760485732,-0.2936959795476594
14,6,0.9000000000000002,0.900034202460835,11.0,0.2564459339070363,inf,0.19033480946463766,0.10426537248642884,False,ep014_step006,False,False,True,-0.27115185267695463,-1.6765115646744237,1.7174822973979744,-1.611606507748676,-1.5712501241795143,-0.27084313925875253
15,0,0.6,0.5999971389716996,25.0,0.4973093352508666,inf,0.47300888975341804,0.09259197031252349,False,ep015_step000,False,False,True,-0.5204884945273844,-2.2357968911138335,2.053048796509201,-1.38669081607142,-1.5715990109118338,-0.520625194614212
15,1,0.65,0.6500013420496763,23.0,0.4629002779160337,inf,0.423008889753418,0.023399552160700214,True,ep015_step001,False,False,True,-0.4505453345505175,-2.133868620733503,2.0146885966875834,-1.4498058208938405,-1.5705149052021627,-0.45033147375795185
15,2,0.7000000000000001,0.7000075242920418,20.0,0.41128669191378436,inf,0.37300888975341795,0.08003268907562013,False,ep015_step002,False,False,True,-0.39759916931969336,-2.0363216106618363,1.9688720593553608,-1.5019139503511671,-1.5699995604006818,-0.3979843714559276
15,3,0.7500000000000001,0.7500129656647858,17.0,0.359673105911535,inf,0.3230088897534179,0.0074427638769636595,True,ep015_step003,False,False,True,-0.3559145818388143,-1.942184148059434,1.9157477500180542,-1.5428007376744202,-1.5701623792846198,-0.3551781178650099
15,4,0.8000000000000002,0.8000195864590397,15.0,0.3252640485767021,inf,0.27300888975341786,0.0050949175169507505,True,ep015_step004,False,False,True,-0.3222635464594593,-1.8512573785587165,1.8561487764526605,-1.57472729285862,-1.5704263758040753,-0.32120842798532245
15,5,0.8500000000000002,0.8500263575700777,12.0,0.27365046257445275,inf,0.22300888975341782,0.01989289982440613,True,ep015_step005,False,False,True,-0.2945928842297702,-1.7629644877008555,1.79018067040535,-1.5978585796301343,-1.5702782760485732,-0.2936959795476594
15,6,0.9000000000000002,0.900034202460835,10.0,0.23924140523961987,inf,0.17300888975341777,0.03544667190691616,True,ep015_step006,False,False,True,-0.27115185267695463,-1.6765115646744237,1.7174822973979744,-1.611606507748676,-1.5712501241795143,-0.27084313925875253
16,0,0.6,0.5999971091648704,28.0,0.5489229212531159,inf,0.5240680280598821,0.04106481143800216,True,ep016_step000,False,False,True,-0.5204884945273844,-2.2357968911138335,2.053048796509201,-1.38669081607142,-1.5715990109118338,-0.520625194614212
16,1,0.65,0.6500013420496763,28.0,0.5489229212531159,inf,0.474068028059882,0.06590812273867931,False,ep016_step001,False,False,True,-0.4505453345505175,-2.133868620733503,2.0146885966875834,-1.4498058208938405,-1.5705149052021627,-0.45033147375795185
16,2,0.7000000000000001,0.7000075242920418,23.0,0.4629002779160337,inf,0.424068028059882,0.014959689472913956,True,ep016_step002,False,False,True,-0.39759916931969336,-2.0363216106618363,1.9688720593553608,-1.5019139503511671,-1.5699995604006818,-0.3979843714559276
16,3,0.7500000000000001,0.7500129656647858,20.0,0.41128669191378436,inf,0.37406802805988193,0.1350311782520562,False,ep016_step003,False,False,True,-0.3559145818388143,-1.942184148059434,1.9157477500180542,-1.5428007376744202,-1.5701623792846198,-0.3551781178650099
16,4,0.8000000000000002,0.8000195268668024,17.0,0.359673105911535,inf,0.3240680280598819,0.0012073358736310017,True,ep016_step004,False,False,True,-0.3222635464594593,-1.8512573785587165,1.8561487764526605,-1.57472729285862,-1.5704263758040753,-0.32120842798532245
16,5,0.8500000000000002,0.8500263575700777,15.0,0.3252640485767021,inf,0.27406802805988184,0.0337269766104525,True,ep016_step005,False,False,True,-0.2945928842297702,-1.7629644877008555,1.79018067040535,-1.5978585796301343,-1.5702782760485732,-0.2936959795476594
16,6,0.9000000000000002,0.900034202460835,13.0,0.2908549912418692,inf,0.2240680280598818,0.017735626647817946,True,ep016_step006,False,False,True,-0.27115185267695463,-1.6765115646744237,1.7174822973979744,-1.611606507748676,-1.5712501241795143,-0.27084313925875253
17,0,0.6,0.5999971091648704,26.0,0.514513863918283,inf,0.48966380765277184,0.040499470182828,True,ep017_step000,False,False,True,-0.5204884945273844,-2.2357968911138335,2.053048796509201,-1.38669081607142,-1.5715990109118338,-0.520625194614212
17,1,0.65,0.6500013420496763,26.0,0.514513863918283,inf,0.4396638076527718,0.0002059561268634596,True,ep017_step001,False,False,True,-0.4505453345505175,-2.133868620733503,2.0146885966875834,-1.4498058208938405,-1.5705149052021627,-0.45033147375795185
17,2,0.7000000000000001,0.7000075242920418,21.0,0.4284912205812008,inf,0.38966380765277175,0.006489932619857253,True,ep017_step002,False,False,True,-0.39759916931969336,-2.0363216106618363,1.9688720593553608,-1.5019139503511671,-1.5699995604006818,-0.3979843714559276
17,3,0.7500000000000001,0.7500129656647858,18.0,0.37687763457895146,inf,0.3396638076527717,0.015399496413548512,True,ep017_step003,False,False,True,-0.3559145818388143,-1.942184148059434,1.9157477500180542,-1.5428007376744202,-1.5701623792846198,-0.3551781178650099
17,4,0.8000000000000002,0.8000195864590397,16.0,0.34246857724411855,inf,0.28966380765277167,0.0014217569565128766,True,ep017_step004,False,False,True,-0.3222635464594593,-1.8512573785587165,1.8561487764526605,-1.57472729285862,-1.5704263758040753,-0.32120842798532245
17,5,0.8500000000000002,0.8500263575700777,13.0,0.2908549912418692,inf,0.23966380765277162,0.05977782097694365,False,ep017_step005,False,False,True,-0.2945928842297702,-1.7629644877008555,1.79018067040535,-1.5978585796301343,-1.5702782760485732,-0.2936959795476594
17,6,0.9000000000000002,0.900034202460835,11.0,0.2564459339070363,inf,0.18966380765277158,0.06118069603916262,False,ep017_step006,False,False,True,-0.27115185267695463,-1.6765115646744237,1.7174822973979744,-1.611606507748676,-1.5712501241795143,-0.27084313925875253
18,0,0.6,0.5999971389716996,28.0,0.5489229212531159,inf,0.5160862123395825,0.15280313008512536,False,ep018_step000,False,False,True,-0.5204884945273844,-2.2357968911138335,2.053048796509201,-1.38669081607142,-1.5715990109118338,-0.520625194614212
18,1,0.65,0.6500013420496763,25.0,0.4973093352508666,inf,0.4660862123395825,0.0309279871126616,True,ep018_step001,False,False,True,-0.4505453345505175,-2.133868620733503,2.0146885966875834,-1.4498058208938405,-1.5705149052021627,-0.45033147375795185
18,2,0.7000000000000001,0.7000075242920418,22.0,0.44569574924861727,inf,0.41608621233958243,0.0363495899864996,True,ep018_step002,False,False,True,-0.39759916931969336,-2.0363216106618363,1.9688720593553608,-1.5019139503511671,-1.5699995604006818,-0.3979843714559276
18,3,0.7500000000000001,0.7500129656647858,20.0,0.41128669191378436,inf,0.3660862123395824,0.034701629186137305,True,ep018_step003,False,False,True,-0.3559145818388143,-1.942184148059434,1.9157477500180542,-1.5428007376744202,-1.5701623792846198,-0.3551781178650099
18,4,0.8000000000000002,0.8000195268668024,17.0,0.359673105911535,inf,0.31608621233958234,0.009474987484050764,True,ep018_step004,False,False,True,-0.3222635464594593,-1.8512573785587165,1.8561487764526605,-1.57472729285862,-1.5704263758040753,-0.32120842798532245
18,5,0.8500000000000002,0.8500263575700777,15.0,0.3252640485767021,inf,0.2660862123395823,0.048510689143726755,True,ep018_step005,False,False,True,-0.2945928842297702,-1.7629644877008555,1.79018067040535,-1.5978585796301343,-1.5702782760485732,-0.2936959795476594
18,6,0.9000000000000002,0.900034202460835,12.0,0.27365046257445275,inf,0.21608621233958225,0.05064954968949764,False,ep018_step006,False,False,True,-0.27115185267695463,-1.6765115646744237,1.7174822973979744,-1.611606507748676,-1.5712501241795143,-0.27084313925875253
19,0,0.6,0.5999971091648704,31.0,0.6005365072553653,inf,0.5726302712803776,0.05901696948408545,False,ep019_step000,False,False,True,-0.5204884945273844,-2.2357968911138335,2.053048796509201,-1.38669081607142,-1.5715990109118338,-0.520625194614212
19,1,0.65,0.6500013420496763,28.0,0.5489229212531159,inf,0.5226302712803775,0.049571308985074974,True,ep019_step001,False,False,True,-0.4505453345505175,-2.133868620733503,2.0146885966875834,-1.4498058208938405,-1.5705149052021627,-0.45033147375795185
19,2,0.7000000000000001,0.7000075242920418,25.0,0.4973093352508666,inf,0.4726302712803775,0.044269982460826085,True,ep019_step002,False,False,True,-0.39759916931969336,-2.0363216106618363,1.9688720593553608,-1.5019139503511671,-1.5699995604006818,-0.3979843714559276
19,3,0.7500000000000001,0.7500129656647858,23.0,0.4629002779160337,inf,0.42263027128037745,0.11127778485777531,False,ep019_step003,False,False,True,-0.3559145818388143,-1.942184148059434,1.9157477500180542,-1.5428007376744202,-1.5701623792846198,-0.3551781178650099
19,4,0.8000000000000002,0.8000195864590397,20.0,0.41128669191378436,inf,0.3726302712803774,0.000910700542642277,True,ep019_step004,False,False,True,-0.3222635464594593,-1.8512573785587165,1.8561487764526605,-1.57472729285862,-1.5704263758040753,-0.32120842798532245
19,5,0.8500000000000002,0.8500263575700777,17.0,0.359673105911535,inf,0.32263027128037736,0.0029440190092310716,True,ep019_step005,False,False,True,-0.2945928842297702,-1.7629644877008555,1.79018067040535,-1.5978585796301343,-1.5702782760485732,-0.2936959795476594
19,6,0.9000000000000002,0.900034202460835,15.0,0.3252640485767021,inf,0.2726302712803773,0.005780797360741111,True,ep019_step006,False,False,True,-0.27115185267695463,-1.6765115646744237,1.7174822973979744,-1.611606507748676,-1.5712501241795143,-0.27084313925875253
20,0,0.6,0.5999971091648704,29.0,0.5661274499205324,inf,0.5317958647044555,0.1168992004014205,False,ep020_step000,False,False,True,-0.5204884945273844,-2.2357968911138335,2.053048796509201,-1.38669081607142,-1.5715990109118338,-0.520625194614212
20,1,0.65,0.6500013420496763,26.0,0.514513863918283,inf,0.48179586470445546,0.06321686388188329,False,ep020_step001,False,False,True,-0.4505453345505175,-2.133868620733503,2.0146885966875834,-1.4498058208938405,-1.5705149052021627,-0.45033147375795185
20,2,0.7000000000000001,0.7000075242920418,23.0,0.4629002779160337,inf,0.4317958647044554,0.03458417696489235,True,ep020_step002,False,False,True,-0.39759916931969336,-2.0363216106618363,1.9688720593553608,-1.5019139503511671,-1.5699995604006818,-0.3979843714559276
20,3,0.7500000000000001,0.7500129656647858,20.0,0.41128669191378436,inf,0.38179586470445537,0.03567398367814714,True,ep020_step003,False,False,True,-0.3559145818388143,-1.942184148059434,1.9157477500180542,-1.5428007376744202,-1.5701623792846198,-0.3551781178650099
20,4,0.8000000000000002,0.8000195864590397,18.0,0.37687763457895146,inf,0.3317958647044553,0.03960385349309516,True,ep020_step004,False,False,True,-0.3222635464594593,-1.8512573785587165,1.8561487764526605,-1.57472729285862,-1.5704263758040753,-0.32120842798532245
20,5,0.8500000000000002,0.8500263575700777,15.0,0.3252640485767021,inf,0.2817958647044553,0.016470950169855777,True,ep020_step005,False,False,True,-0.2945928842297702,-1.7629644877008555,1.79018067040535,-1.5978585796301343,-1.5702782760485732,-0.2936959795476594
20,6,0.9000000000000002,0.900034202460835,13.0,0.2908549912418692,inf,0.23179586470445523,0.036751799582850624,True,ep020_step006,False,False,True,-0.27115185267695463,-1.6765115646744237,1.7174822973979744,-1.611606507748676,-1.5712501241795143,-0.27084313925875253
21,0,0.6,0.5999971389716996,28.0,0.5489229212531159,inf,0.47745724747297114,0.10824207788390604,False,ep021_step000,False,False,True,-0.5204884945273844,-2.2357968911138335,2.053048796509201,-1.38669081607142,-1.5715990109118338,-0.520625194614212
21,1,0.65,0.6500013420496763,23.0,0.4629002779160337,inf,0.4274572474729711,0.05137095226908903,False,ep021_step001,False,False,True,-0.4505453345505175,-2.133868620733503,2.0146885966875834,-1.4498058208938405,-1.5705149052021627,-0.45033147375795185
21,2,0.7000000000000001,0.7000075242920418,20.0,0.41128669191378436,inf,0.37745724747297105,0.06358571741378581,False,ep021_step002,False,False,True,-0.39759916931969336,-2.0363216106618363,1.9688720593553608,-1.5019139503511671,-1.5699995604006818,-0.3979843714559276
21,3,0.7500000000000001,0.7500129656647858,18.0,0.37687763457895146,inf,0.327457247472971,0.01697445208132014,True,ep021_step003,False,False,True,-0.3559145818388143,-1.942184148059434,1.9157477500180542,-1.5428007376744202,-1.5701623792846198,-0.3551781178650099
21,4,0.8000000000000002,0.8000195864590397,15.0,0.3252640485767021,inf,0.27745724747297096,0.05275160734956709,False,ep021_step004,False,False,True,-0.3222635464594593,-1.8512573785587165,1.8561487764526605,-1.57472729285862,-1.5704263758040753,-0.32120842798532245
21,5,0.8500000000000002,0.8500263575700777,13.0,0.2908549912418692,inf,0.2274572474729709,0.011517614128201523,True,ep021_step005,False,False,True,-0.2945928842297702,-1.7629644877008555,1.79018067040535,-1.5978585796301343,-1.5702782760485732,-0.2936959795476594
21,6,0.9000000000000002,0.900034202460835,10.0,0.23924140523961987,inf,0.17745724747297087,0.05088610242227241,False,ep021_step006,False,False,True,-0.27115185267695463,-1.6765115646744237,1.7174822973979744,-1.611606507748676,-1.5712501241795143,-0.27084313925875253
22,0,0.6,0.5999971091648704,23.0,0.4629002779160337,inf,0.4306780196357235,0.12568154075330187,False,ep022_step000,False,False,True,-0.5204884945273844,-2.2357968911138335,2.053048796509201,-1.38669081607142,-1.5715990109118338,-0.520625194614212
22,1,0.65,0.6500013420496763,20.0,0.41128669191378436,inf,0.38067801963572345,0.0034453279112831225,True,ep022_step001,False,False,True,-0.4505453345505175,-2.133868620733503,2.0146885966875834,-1.4498058208938405,-1.5705149052021627,-0.45033147375795185
22,2,0.7000000000000001,0.7000075242920418,18.0,0.37687763457895146,inf,0.3306780196357234,0.019485708844084033,True,ep022_step002,False,False,True,-0.39759916931969336,-2.0363216106618363,1.9688720593553608,-1.5019139503511671,-1.5699995604006818,-0.3979843714559276
22,3,0.7500000000000001,0.7500129656647858,15.0,0.3252640485767021,inf,0.28067801963572336,0.0330723476734339,True,ep022_step003,False,False,True,-0.3559145818388143,-1.942184148059434,1.9157477500180542,-1.5428007376744202,-1.5701623792846198,-0.3551781178650099
22,4,0.8000000000000002,0.8000195864590397,13.0,0.2908549912418692,inf,0.23067801963572332,0.05099396745869299,False,ep022_step004,False,False,True,-0.3222635464594593,-1.8512573785587165,1.8561487764526605,-1.57472729285862,-1.5704263758040753,-0.32120842798532245
22,5,0.8500000000000002,0.8500263575700777,10.0,0.23924140523961987,inf,0.18067801963572327,0.063903862517887,False,ep022_step005,False,False,True,-0.2945928842297702,-1.7629644877008555,1.79018067040535,-1.5978585796301343,-1.5702782760485732,-0.2936959795476594
22,6,0.9000000000000002,0.900034202460835,22.0,0.44569574924861727,inf,0.13067801963572323,0.00806078162382129,True,ep022_step006,False,False,True,-0.27115185267695463,-1.6765115646744237,1.7174822973979744,-1.611606507748676,-1.5712501241795143,-0.27084313925875253
23,0,0.6,0.5999971091648704,32.0,0.6177410359227818,inf,0.5634884865652415,0.05861223899123554,False,ep023_step000,False,False,True,-0.5204884945273844,-2.2357968911138335,2.053048796509201,-1.38669081607142,-1.5715990109118338,-0.520625194614212
23,1,0.65,0.6500013420496763,28.0,0.5489229212531159,inf,0.5134884865652415,0.018840224515384273,True,ep023_step001,False,False,True,-0.4505453345505175,-2.133868620733503,2.0146885966875834,-1.4498058208938405,-1.5705149052021627,-0.45033147375795185
23,2,0.7000000000000001,0.7000075242920418,25.0,0.4973093352508666,inf,0.46348848656524144,0.07977765564692596,False,ep023_step002,False,False,True,-0.39759916931969336,-2.0363216106618363,1.9688720593553608,-1.5019139503511671,-1.5699995604006818,-0.3979843714559276
23,3,0.7500000000000001,0.7500129656647858,22.0,0.44569574924861727,inf,0.4134884865652414,0.07351676351957086,False,ep023_step003,False,False,True,-0.3559145818388143,-1.942184148059434,1.9157477500180542,-1.5428007376744202,-1.5701623792846198,-0.3551781178650099
23,4,0.8000000000000002,0.8000195864590397,20.0,0.41128669191378436,inf,0.36348848656524135,0.0374517272496045,True,ep023_step004,False,False,True,-0.3222635464594593,-1.8512573785587165,1.8561487764526605,-1.57472729285862,-1.5704263758040753,-0.32120842798532245
23,5,0.8500000000000002,0.8500263575700777,17.0,0.359673105911535,inf,0.3134884865652413,0.007855362853057945,True,ep023_step005,False,False,True,-0.2945928842297702,-1.7629644877008555,1.79018067040535,-1.5978585796301343,-1.5702782760485732,-0.2936959795476594
23,6,0.9000000000000002,0.900034202460835,14.0,0.30805951990928565,inf,0.26348848656524126,0.016301114151716325,True,ep023_step006,False,False,True,-0.27115185267695463,-1.6765115646744237,1.7174822973979744,-1.611606507748676,-1.5712501241795143,-0.27084313925875253
24,0,0.6,0.5999971091648704,27.0,0.5317183925856995,inf,0.5012343333259163,0.02328464435995744,True,ep024_step000,False,False,True,-0.5204884945273844,-2.2357968911138335,2.053048796509201,-1.38669081607142,-1.5715990109118338,-0.520625194614212
24,1,0.65,0.6500013420496763,24.0,0.48010480658345017,inf,0.4512343333259162,0.08774734261001135,False,ep024_step001,False,False,True,-0.4505453345505175,-2.133868620733503,2.0146885966875834,-1.4498058208938405,-1.5705149052021627,-0.45033147375795185
24,2,0.7000000000000001,0.7000075242920418,24.0,0.48010480658345017,inf,0.4012343333259162,0.032009945482314166,True,ep024_step002,False,False,True,-0.39759916931969336,-2.0363216106618363,1.9688720593553608,-1.5019139503511671,-1.5699995604006818,-0.3979843714559276
24,3,0.7500000000000001,0.7500129656647858,19.0,0.3940821632463679,inf,0.35123433332591614,0.03642214995823292,True,ep024_step003,False,False,True,-0.3559145818388143,-1.942184148059434,1.9157477500180542,-1.5428007376744202,-1.5701623792846198,-0.3551781178650099
24,4,0.8000000000000002,0.8000195864590397,16.0,0.34246857724411855,inf,0.3012343333259161,0.018114386224271577,True,ep024_step004,False,False,True,-0.3222635464594593,-1.8512573785587165,1.8561487764526605,-1.57472729285862,-1.5704263758040753,-0.32120842798532245
24,5,0.8500000000000002,0.8500263575700777,14.0,0.30805951990928565,inf,0.25123433332591605,0.00698081123739107,True,ep024_step005,False,False,True,-0.2945928842297702,-1.7629644877008555,1.79018067040535,-1.5978585796301343,-1.5702782760485732,-0.2936959795476594
24,6,0.9000000000000002,0.900034202460835,11.0,0.2564459339070363,inf,0.201234333325916,0.03764131745622393,True,ep024_step006,False,False,True,-0.27115185267695463,-1.6765115646744237,1.7174822973979744,-1.611606507748676,-1.5712501241795143,-0.27084313925875253
25,0,0.6,0.5999971389716996,24.0,0.48010480658345017,inf,0.4420714245548677,0.15174045557630117,False,ep025_step000,False,False,True,-0.5204884945273844,-2.2357968911138335,2.053048796509201,-1.38669081607142,-1.5715990109118338,-0.520625194614212
25,1,0.65,0.6500013420496763,21.0,0.4284912205812008,inf,0.39207142455486765,0.05258439567737927,False,ep025_step001,False,False,True,-0.4505453345505175,-2.133868620733503,2.0146885966875834,-1.4498058208938405,-1.5705149052021627,-0.45033147375795185
25,2,0.7000000000000001,0.7000075242920418,19.0,0.3940821632463679,inf,0.3420714245548676,0.013502358433438107,True,ep025_step002,False,False,True,-0.39759916931969336,-2.0363216106618363,1.9688720593553608,-1.5019139503511671,-1.5699995604006818,-0.3979843714559276
25,3,0.7500000000000001,0.7500129656647858,16.0,0.34246857724411855,inf,0.29207142455486756,0.030185846759687388,True,ep025_step003,False,False,True,-0.3559145818388143,-1.942184148059434,1.9157477500180542,-1.5428007376744202,-1.5701623792846198,-0.3551781178650099
25,4,0.8000000000000002,0.8000195864590397,13.0,0.2908549912418692,inf,0.24207142455486752,0.008148655685174649,True,ep025_step004,False,False,True,-0.3222635464594593,-1.8512573785587165,1.8561487764526605,-1.57472729285862,-1.5704263758040753,-0.32120842798532245
25,5,0.8500000000000002,0.8500263575700777,11.0,0.2564459339070363,inf,0.19207142455486748,0.0016374403737148626,True,ep025_step005,False,False,True,-0.2945928842297702,-1.7629644877008555,1.79018067040535,-1.5978585796301343,-1.5702782760485732,-0.2936959795476594
25,6,0.9000000000000002,0.900034202460835,24.0,0.48010480658345017,inf,0.14207142455486743,0.08597244612219952,False,ep025_step006,False,False,True,-0.27115185267695463,-1.6765115646744237,1.7174822973979744,-1.611606507748676,-1.5712501241795143,-0.27084313925875253
26,0,0.6,0.5999971091648704,26.0,0.514513863918283,inf,0.48411170054520924,0.007683435751717015,True,ep026_step000,False,False,True,-0.5204884945273844,-2.2357968911138335,2.053048796509201,-1.38669081607142,-1.5715990109118338,-0.520625194614212
26,1,0.65,0.6500013420496763,23.0,0.4629002779160337,inf,0.4341117005452092,0.041071530582570626,True,ep026_step001,False,False,True,-0.4505453345505175,-2.133868620733503,2.0146885966875834,-1.4498058208938405,-1.5705149052021627,-0.45033147375795185
26,2,0.7000000000000001,0.7000075242920418,21.0,0.4284912205812008,inf,0.38411170054520916,0.008190062602653241,True,ep026_step002,False,False,True,-0.39759916931969336,-2.0363216106618363,1.9688720593553608,-1.5019139503511671,-1.5699995604006818,-0.3979843714559276
26,3,0.7500000000000001,0.7500129656647858,18.0,0.37687763457895146,inf,0.3341117005452091,0.007394182689549175,True,ep026_step003,False,False,True,-0.3559145818388143,-1.942184148059434,1.9157477500180542,-1.5428007376744202,-1.5701623792846198,-0.3551781178650099
26,4,0.8000000000000002,0.8000195864590397,15.0,0.3252640485767021,inf,0.28411170054520907,0.0065758066704660395,True,ep026_step004,False,False,True,-0.3222635464594593,-1.8512573785587165,1.8561487764526605,-1.57472729285862,-1.5704263758040753,-0.32120842798532245
26,5,0.8500000000000002,0.8500263575700777,13.0,0.2908549912418692,inf,0.23411170054520902,0.04137016649197441,True,ep026_step005,False,False,True,-0.2945928842297702,-1.7629644877008555,1.79018067040535,-1.5978585796301343,-1.5702782760485732,-0.2936959795476594
26,6,0.9000000000000002,0.900034202460835,11.0,0.2564459339070363,inf,0.18411170054520898,0.04959215276880385,True,ep026_step006,False,False,True,-0.27115185267695463,-1.6765115646744237,1.7174822973979744,-1.611606507748676,-1.5712501241795143,-0.27084313925875253
27,0,0.6,0.5999971389716996,33.0,0.6349455645901982,inf,0.5868226748019975,0.021289225329701834,True,ep027_step000,False,False,True,-0.5204884945273844,-2.2357968911138335,2.053048796509201,-1.38669081607142,-1.5715990109118338,-0.520625194614212
27,1,0.65,0.6500013420496763,29.0,0.5661274499205324,inf,0.5368226748019974,0.07544867009858319,False,ep027_step001,False,False,True,-0.4505453345505175,-2.133868620733503,2.0146885966875834,-1.4498058208938405,-1.5705149052021627,-0.45033147375795185
27,2,0.7000000000000001,0.7000075242920418,26.0,0.514513863918283,inf,0.48682267480199737,0.07482091306351296,False,ep027_step002,False,False,True,-0.39759916931969336,-2.0363216106618363,1.9688720593553608,-1.5019139503511671,-1.5699995604006818,-0.3979843714559276
27,3,0.7500000000000001,0.7500129656647858,26.0,0.514513863918283,inf,0.4368226748019973,0.03240719438391285,True,ep027_step003,False,False,True,-0.3559145818388143,-1.942184148059434,1.9157477500180542,-1.5428007376744202,-1.5701623792846198,-0.3551781178650099
27,4,0.8000000000000002,0.8000195864590397,21.0,0.4284912205812008,inf,0.3868226748019973,0.013825494854290334,True,ep027_step004,False,False,True,-0.3222635464594593,-1.8512573785587165,1.8561487764526605,-1.57472729285862,-1.5704263758040753,-0.32120842798532245
27,5,0.8500000000000002,0.8500263575700777,18.0,0.37687763457895146,inf,0.33682267480199723,0.025590170075603245,True,ep027_step005,False,False,True,-0.2945928842297702,-1.7629644877008555,1.79018067040535,-1.5978585796301343,-1.5702782760485732,-0.2936959795476594
27,6,0.9000000000000002,0.900034202460835,16.0,0.34246857724411855,inf,0.2868226748019972,0.008590992847308302,True,ep027_step006,False,False,True,-0.27115185267695463,-1.6765115646744237,1.7174822973979744,-1.611606507748676,-1.5712501241795143,-0.27084313925875253
28,0,0.6,0.5999971091648704,24.0,0.48010480658345017,inf,0.4520237763268177,0.029138638245330858,True,ep028_step000,False,False,True,-0.5204884945273844,-2.2357968911138335,2.053048796509201,-1.38669081607142,-1.5715990109118338,-0.520625194614212
28,1,0.65,0.6500013420496763,24.0,0.48010480658345017,inf,0.40202377632681763,0.08197512729285264,False,ep028_step001,False,False,True,-0.4505453345505175,-2.133868620733503,2.0146885966875834,-1.4498058208938405,-1.5705149052021627,-0.45033147375795185
28,2,0.7000000000000001,0.7000075242920418,19.0,0.3940821632463679,inf,0.3520237763268176,0.021722465981148284,True,ep028_step002,False,False,True,-0.39759916931969336,-2.0363216106618363,1.9688720593553608,-1.5019139503511671,-1.5699995604006818,-0.3979843714559276
28,3,0.7500000000000001,0.7500129656647858,16.0,0.34246857724411855,inf,0.30202377632681754,0.0002801001826351261,True,ep028_step003,False,False,True,-0.3559145818388143,-1.942184148059434,1.9157477500180542,-1.5428007376744202,-1.5701623792846198,-0.3551781178650099
28,4,0.8000000000000002,0.8000195864590397,14.0,0.30805951990928565,inf,0.2520237763268175,0.004562543590286893,True,ep028_step004,False,False,True,-0.3222635464594593,-1.8512573785587165,1.8561487764526605,-1.57472729285862,-1.5704263758040753,-0.32120842798532245
28,5,0.8500000000000002,0.8500263575700777,11.0,0.2564459339070363,inf,0.20202377632681745,0.02421052367789882,True,ep028_step005,False,False,True,-0.2945928842297702,-1.7629644877008555,1.79018067040535,-1.5978585796301343,-1.5702782760485732,-0.2936959795476594
28,6,0.9000000000000002,0.900034202460835,24.0,0.48010480658345017,inf,0.1520237763268174,0.04934828280359188,True,ep028_step006,False,False,True,-0.27115185267695463,-1.6765115646744237,1.7174822973979744,-1.611606507748676,-1.5712501241795143,-0.27084313925875253
29,0,0.6,0.5999971091648704,22.0,0.44569574924861727,inf,0.41709433081360603,0.001500190661245213,True,ep029_step000,False,False,True,-0.5204884945273844,-2.2357968911138335,2.053048796509201,-1.38669081607142,-1.5715990109118338,-0.520625194614212
29,1,0.65,0.6500013420496763,20.0,0.41128669191378436,inf,0.367094330813606,0.017757543023095856,True,ep029_step001,False,False,True,-0.4505453345505175,-2.133868620733503,2.0146885966875834,-1.4498058208938405,-1.5705149052021627,-0.45033147375795185
29,2,0.7000000000000001,0.7000075242920418,17.0,0.359673105911535,inf,0.31709433081360594,0.028768723046585364,True,ep029_step002,False,False,True,-0.39759916931969336,-2.0363216106618363,1.9688720593553608,-1.5019139503511671,-1.5699995604006818,-0.3979843714559276
29,3,0.7500000000000001,0.7500129656647858,15.0,0.3252640485767021,inf,0.2670943308136059,0.05866813213113754,False,ep029_step003,False,False,True,-0.3559145818388143,-1.942184148059434,1.9157477500180542,-1.5428007376744202,-1.5701623792846198,-0.3551781178650099
29,4,0.8000000000000002,0.8000195864590397,12.0,0.27365046257445275,inf,0.21709433081360585,0.015004257493960962,True,ep029_step004,False,False,True,-0.3222635464594593,-1.8512573785587165,1.8561487764526605,-1.57472729285862,-1.5704263758040753,-0.32120842798532245
29,5,0.8500000000000002,0.8500263575700777,26.0,0.514513863918283,inf,0.1670943308136058,0.007382528089041849,True,ep029_step005,False,False,True,-0.2945928842297702,-1.7629644877008555,1.79018067040535,-1.5978585796301343,-1.5702782760485732,-0.2936959795476594
29,6,0.9000000000000002,0.900034202460835,21.0,0.4284912205812008,inf,0.11709433081360576,0.07014164672157853,False,ep029_step006,False,False,True,-0.27115185267695463,-1.6765115646744237,1.7174822973979744,-1.611606507748676,-1.5712501241795143,-0.27084313925875253
